; generated by PrusaSlicer 2.5.0 on 2025-03-29 at 07:57:18 UTC

; 

; external perimeters extrusion width = 0.40mm
; perimeters extrusion width = 0.45mm
; infill extrusion width = 0.45mm
; solid infill extrusion width = 0.45mm
; top infill extrusion width = 0.40mm
; support material extrusion width = 0.35mm
; first layer extrusion width = 0.50mm

M107
;TYPE:Custom
;===== date: 2022,09,19 =====================
;===== reset machine status =================
G91
M17 Z0.3 ; lower the z-motor current
G0 Z7 F300 ; lower the hotbed , to prevent the nozzle is below the hotbed
G90
M17 X1.2 Y1.2 Z0.75 ; reset motor current to default
M960 S5 P1 ; turn on logo lamp
G90
M220 S100 ;Reset Feedrate
M221 S100 ;Reset Flowrate
M73.2   R1.0 ;Reset left time magnitude
M1002 set_gcode_claim_speed_level : 5
M221 X0 Y0 Z0 ; turn off soft endstop to prevent protential logic problem

;===== heatbed preheat ====================
M1002 gcode_claim_action : 2
M140 S35 ;set bed temp
M190 S35 ;wait for bed temp

;=============turn on fans to prevent PLA jamming=================

    ;Prevent PLA from jamming

M106 P2 S100 ; turn on big fan ,to cool down toolhead

;===== prepare print temperature and material ==========
M104 S220 ;set extruder temp
G91
G0 Z2 F1200
G90
G28 X
M975 S1 ; turn on 
G1 X60 F12000
G1 Y245
G1 Y265 F3000
M620 M
M620 S0A   ; switch material if AMS exist
    M109 S220
    G1 X120 F12000

    G1 X20 Y50 F12000
    G1 Y-3
    T0
    G1 X54 F12000
    G1 Y265
    M400
M621 S0A

M412 S1 ; ===turn on filament runout detection===

M109 S250 ;set nozzle to common flush temp
M106 P1 S0
G92 E0
G1 E50 F200
M400
M104 S220
G92 E0
G1 E50 F200
M400
M106 P1 S255
G92 E0
G1 E5 F300
M109 S200 ; drop nozzle temp, make filament shink a bit
G92 E0
G1 E-0.5 F300

G1 X70 F9000
G1 X76 F15000
G1 X65 F15000
G1 X76 F15000
G1 X65 F15000; shake to put down garbage
G1 X80 F6000
G1 X95 F15000
G1 X80 F15000
G1 X165 F15000; wipe and shake
M400
M106 P1 S0
;===== prepare print temperature and material end =====


;===== wipe nozzle ===============================
M1002 gcode_claim_action : 14
M975 S1
M106 S255
G1 X65 Y230 F18000
G1 Y264 F6000
M109 S200
G1 X100 F18000 ; first wipe mouth

G0 X135 Y261 F20000  ; move to exposed steel surface edge
G28 Z P0 T300; home z with low precision,permit 300deg temperature
G29.2 S0 ; turn off ABL
G0 Z2 F20000

G1 X60 Y265
G92 E0
G1 E-0.5 F300 ; retrack more
G1 X100 F5000; second wipe mouth
G1 X70 F15000
G1 X100 F5000
G1 X70 F15000
G1 X100 F5000
G1 X70 F15000
G1 X100 F5000
G1 X70 F15000
G1 X90 F5000
G0 X128 Y261 Z-1.5 F20000  ; move to exposed steel surface and stop the nozzle
M104 S140 ; set temp down to heatbed acceptable
M106 S255 ; turn on fan (G28 has turn off fan)

M221 S; push soft endstop status
M221 Z0 ;turn off Z axis endstop
G0 Z0.5 F20000
G0 X125 Y259.5 Z-1.01
G0 X131 F211
G0 X124
G0 Z0.5 F20000
G0 X125 Y262.5
G0 Z-1.01
G0 X131 F211
G0 X124
G0 Z0.5 F20000
G0 X125 Y260.0
G0 Z-1.01
G0 X131 F211
G0 X124
G0 Z0.5 F20000
G0 X125 Y262.0
G0 Z-1.01
G0 X131 F211
G0 X124
G0 Z0.5 F20000
G0 X125 Y260.5
G0 Z-1.01
G0 X131 F211
G0 X124
G0 Z0.5 F20000
G0 X125 Y261.5
G0 Z-1.01
G0 X131 F211
G0 X124
G0 Z0.5 F20000
G0 X125 Y261.0
G0 Z-1.01
G0 X131 F211
G0 X124
G0 X128
G2 I0.5 J0 F300
G2 I0.5 J0 F300
G2 I0.5 J0 F300
G2 I0.5 J0 F300

M109 S140 ; wait nozzle temp down to heatbed acceptable
G2 I0.5 J0 F3000
G2 I0.5 J0 F3000
G2 I0.5 J0 F3000
G2 I0.5 J0 F3000

M221 R; pop softend status
G1 Z10 F1200
M400
G1 Z10
G1 F30000
G1 X230 Y15
G29.2 S1 ; turn on ABL
;G28 ; home again after hard wipe mouth
M106 S0 ; turn off fan , too noisy
;===== wipe nozzle end ================================


;===== bed leveling ==================================
M1002 judge_flag g29_before_print_flag
M622 J1

    M1002 gcode_claim_action : 1
    G29 A X115.871 Y115.846 I26.2585 J26.2526
    M400
    M500 ; save cali data

M623
;===== bed leveling end ================================

;===== home after wipe mouth============================
M1002 judge_flag g29_before_print_flag
M622 J0

    M1002 gcode_claim_action : 13
    G28

M623
;===== home after wipe mouth end =======================

M975 S1 ; turn on vibration supression

=============turn on fans to prevent PLA jamming=================

    ;Prevent PLA from jamming

M106 P2 S100 ; turn on big fan ,to cool down toolhead


M104 S220 ; set extrude temp earlier, to reduce wait time

;===== mech mode fast check============================
G1 X128 Y128 Z5 F20000
M400 P200
M970.3 Q1 A7 B30 C80  H15 K0
M974 Q1 S2 P0

G1 X128 Y128 Z5 F20000
M400 P200
M970.3 Q0 A7 B30 C90 Q0 H15 K0
M974 Q0 S2 P0

M975 S1
G1 F30000
G1 X230 Y15
G28 X ; re-home XY 
;===== fmech mode fast check============================


;===== noozle load line ===============================
M975 S1
G90 
M83
T1000
G1 X18.0 Y5.0 Z0.3 F18000;Move to start position
M109 S220
G0 E3 F300
G0 X240 E15 F6400 
G0 Y5.5 
G0 X18 E15
M400

;========turn off light and wait extrude temperature =============
M1002 gcode_claim_action : 0
M973 S4 ; turn off scanner
M400 ; wait all motion done before implement the emprical L parameters
;M900 L500.0 ; Empirical parameters
M109 S220
M960 S1 P0 ; turn off laser
M960 S2 P0 ; turn off laser
M106 S0 ; turn off fan
M106 P2 S0 ; turn off big fan 
M106 P3 S0 ; turn off chamber fan

M975 S1 ; turn on mech mode supression
G90 
M83
T1000
G1 X128.0 Y253.0 Z0.2 F6000.0;Move to start position
M109 S220
G0 X253 E6.4 F5333.33 
G0 Y128 E6.4
G0 X252.5
G0 Y252.5 E6.4
G0 X128 E6.4
G21 ; set units to millimeters
G90 ; use absolute coordinates
M83 ; use relative distances for extrusion
; Filament gcode
M106 P2 S178 ; Chamber fan, 70%, I think
M107
;LAYER_CHANGE
;Z:0.2
;HEIGHT:0.2
G92 E0
M971 S11 C10 O0
G1 E-2 F3600
G1 Z.4 F28800
G1 X118.315 Y118.384
G1 Z.2
G1 E2 F1800
;TYPE:Skirt/Brim
;WIDTH:0.5
G1 F6300
G1 X119.545 Y117.367 E.05945
G1 X120.801 Y116.689 E.05315
G1 X122.21 Y116.244 E.05505
G1 X123.826 Y116.074 E.06053
G1 X134.509 Y116.081 E.39787
G1 X135.822 Y116.25 E.04932
G1 X136.876 Y116.56 E.04091
G1 X137.957 Y117.061 E.04436
G1 X138.947 Y117.722 E.04437
G1 X139.81 Y118.514 E.04361
G1 X140.574 Y119.473 E.04566
G1 X141.136 Y120.455 E.04214
G1 X141.591 Y121.646 E.0475
G1 X141.786 Y122.49 E.03225
G1 X141.898 Y123.621 E.04234
G1 X141.882 Y134.653 E.4109
G1 X141.608 Y136.231 E.05963
G1 X141.238 Y137.258 E.04068
G1 X140.862 Y137.997 E.03088
G1 X140.256 Y138.894 E.04033
G1 X139.752 Y139.477 E.02869
G1 X138.52 Y140.52 E.06011
G1 X137.598 Y141.059 E.0398
G1 X136.852 Y141.382 E.03026
G1 X135.833 Y141.684 E.03957
G1 X135.086 Y141.813 E.02826
G1 X134.135 Y141.87 E.03548
G1 X123.297 Y141.85 E.40365
G1 X122.38 Y141.728 E.03446
G1 X121.55 Y141.519 E.0319
G1 X120.804 Y141.245 E.02958
G1 X119.814 Y140.735 E.04149
G1 X118.524 Y139.75 E.06045
G1 X117.986 Y139.188 E.02898
G1 X117.333 Y138.316 E.04059
G1 X116.617 Y136.905 E.05893
G1 X116.299 Y135.871 E.0403
G1 X116.161 Y135.099 E.02919
G1 X116.1 Y134.147 E.03555
G1 X116.106 Y123.538 E.39515
G1 X116.248 Y122.31 E.04603
G1 X116.427 Y121.585 E.02783
G1 X116.841 Y120.503 E.04316
G1 X117.202 Y119.825 E.02858
G1 X117.744 Y119.035 E.03568
G1 X118.275 Y118.429 E.03002
;WIPE_START
G1 F23040
G1 X119.545 Y117.367 E-.24573
G1 X120.801 Y116.689 E-.21184
G1 X122.21 Y116.244 E-.21937
G1 X123.826 Y116.074 E-.24124
G1 X130.441 Y116.078 E-.98182
;WIPE_END
G1 E-.1 F3600
G1 Z.6 F28800
G1 X130.32 Y123.513
G1 Z.2
G1 E2 F1800
;TYPE:Support material
G1 F6300
G1 X128.931 Y126.328 E.11689
G1 X128.849 Y125.468 E.03218
G1 X128.821 Y125.322 E.00553
G1 X128.733 Y125.122 E.00812
G1 X128.638 Y124.991 E.00605
G1 X128.508 Y124.872 E.00656
G1 X128.389 Y124.799 E.00519
G1 X128.161 Y124.721 E.00898
G1 X128.013 Y124.707 E.00553
G1 X125.733 Y124.707 E.08492
G1 X125.787 Y124.494 E.0082
G1 X125.798 Y123.954 E.0201
G1 X125.822 Y123.842 E.00428
G1 X125.869 Y123.737 E.00428
G1 X125.936 Y123.644 E.00428
G1 X126.022 Y123.567 E.00428
G1 X126.175 Y123.489 E.0064
G1 X126.356 Y123.462 E.00684
G1 X130.334 Y123.462 E.14816
G1 X129.508 Y124.694 F28800
G1 F6300
G1 X129.508 Y123.873 E.03057
G1 X129 Y123.873 E.01892
G1 X129 Y124.785 E.03398
G1 X128.902 Y124.671 E.00562
G1 X128.745 Y124.536 E.0077
G1 X128.492 Y124.395 E.01078
G1 X128.492 Y123.873 E.01945
G1 X127.984 Y123.873 E.01892
G1 X127.984 Y124.296 E.01574
G1 X127.476 Y124.296 E.01892
G1 X127.476 Y123.873 E.01574
G1 X126.969 Y123.873 E.01892
G1 X126.969 Y124.296 E.01574
G1 X126.461 Y124.296 E.01892
G1 X126.461 Y123.667 E.0234
;WIPE_START
G1 F23040
G1 X126.461 Y124.296 E-.09326
G1 X126.969 Y124.296 E-.07539
G1 X126.969 Y123.873 E-.06273
G1 X127.476 Y123.873 E-.07539
G1 X127.476 Y124.296 E-.06273
G1 X127.984 Y124.296 E-.07539
G1 X127.984 Y123.873 E-.06273
G1 X128.492 Y123.873 E-.07539
G1 X128.492 Y124.395 E-.07753
G1 X128.745 Y124.536 E-.04298
G1 X128.902 Y124.671 E-.03068
G1 X129 Y124.785 E-.02239
G1 X129 Y123.873 E-.13543
G1 X129.508 Y123.873 E-.07539
G1 X129.508 Y124.694 E-.12182
;WIPE_END
G1 E-.91077 F3600
G1 Z.6 F28800
G1 X127.135 Y128.983
G1 Z.2
G1 E2 F1800
G1 F6300
G1 X127.161 Y129.167 E.00692
G1 X127.733 Y130.623 E.05826
G1 X127.61 Y130.623 E.00458
G1 X127.04 Y129.605 E.04347
G1 X126.898 Y129.421 E.00865
G1 X126.768 Y129.312 E.0063
G1 X126.524 Y129.19 E.01016
G1 X126.288 Y129.145 E.00895
G1 X126.016 Y129.167 E.01016
G1 X125.795 Y129.25 E.00881
G1 X125.795 Y127.035 E.08247
G1 X125.757 Y126.776 E.00977
G1 X126.918 Y126.776 E.04324
G1 X127.128 Y128.915 E.08007
G1 X126.461 Y128.961 F28800
G1 F6300
G1 X126.461 Y126.982 E.07372
;WIPE_START
G1 F23040
G1 X126.461 Y128.961 E-.2938
;WIPE_END
G1 E-1.7062 F3600
G1 Z.6 F28800
G1 X126.294 Y131.983
G1 Z.2
G1 E2 F1800
G1 F6300
G1 X126.463 Y132.203 E.01031
G1 X126.684 Y132.396 E.01095
G1 X126.94 Y132.541 E.01094
G1 X127.22 Y132.631 E.01094
G1 X127.517 Y132.663 E.01116
G1 X129.385 Y132.663 E.06958
G1 X129.307 Y132.839 E.00715
G1 X129.236 Y133.108 E.01039
G1 X129.218 Y133.41 E.01125
G1 X129.236 Y133.583 E.0065
G1 X129.307 Y133.853 E.01039
G1 X129.377 Y134.013 E.00649
G1 X129.526 Y134.248 E.01039
G1 X129.673 Y134.409 E.00809
G1 X127.851 Y134.409 E.06787
G1 X127.851 Y133.711 E.026
G1 X125.795 Y133.711 E.07659
G1 X125.795 Y131.179 E.0943
G1 X126.258 Y131.925 E.03272
G1 X128.492 Y134.203 F28800
G1 F6300
G1 X128.492 Y133.075 E.04202
G1 X127.984 Y133.075 E.01892
G1 X127.984 Y133.299 E.00836
G1 X127.476 Y133.299 E.01892
G1 X127.476 Y133.074 E.0084
G1 X127.169 Y133.041 E.0115
G1 X126.969 Y132.99 E.00771
G1 X126.969 Y133.299 E.0115
G1 X126.461 Y133.299 E.01892
G1 X126.461 Y132.483 E.0304
;WIPE_START
G1 F23040
G1 X126.461 Y133.299 E-.12113
G1 X126.969 Y133.299 E-.07539
G1 X126.969 Y132.99 E-.04585
G1 X127.169 Y133.041 E-.03073
G1 X127.476 Y133.074 E-.04585
G1 X127.476 Y133.299 E-.03349
G1 X127.984 Y133.299 E-.07539
G1 X127.984 Y133.075 E-.0333
G1 X128.492 Y133.075 E-.07539
G1 X128.492 Y134.203 E-.16745
;WIPE_END
G1 E-1.29604 F3600
G1 Z.6 F28800
G1 X132.801 Y133.847
G1 Z.2
G1 E2 F1800
G1 F6300
G1 X132.789 Y133.973 E.00472
G1 X132.727 Y134.133 E.0064
G1 X132.619 Y134.267 E.0064
G1 X132.526 Y134.334 E.00428
G1 X132.421 Y134.381 E.00428
G1 X132.309 Y134.405 E.00428
G1 X131.699 Y134.409 E.02271
G1 X131.876 Y134.206 E.01
G1 X131.958 Y134.079 E.00563
G1 X132.081 Y133.804 E.01125
G1 X132.148 Y133.485 E.01211
G1 X132.145 Y133.183 E.01125
G1 X132.121 Y133.034 E.00563
G1 X132.036 Y132.768 E.01039
G1 X131.889 Y132.504 E.01125
G1 X131.675 Y132.26 E.01211
G1 X131.558 Y132.164 E.00563
G1 X131.341 Y132.032 E.00947
G1 X131.521 Y131.84 E.00982
G1 X132.43 Y130.749 E.0529
G1 X132.801 Y130.749 E.01382
G1 X132.801 Y133.778 E.11284
G1 X132.047 Y132.371 F28800
G1 F6300
G1 X132.047 Y131.53 E.03135
;WIPE_START
G1 F23040
G1 X132.047 Y132.371 E-.12494
;WIPE_END
G1 E-1.87506 F3600
G1 Z.6 F28800
G1 X132.696 Y123.689
G1 Z.2
G1 E2 F1800
G1 F6300
G1 X132.774 Y123.842 E.0064
G1 X132.801 Y124.023 E.00684
G1 X132.801 Y128.649 E.17227
G1 X131.925 Y128.649 E.03266
G1 X131.72 Y128.68 E.0077
G1 X131.604 Y128.722 E.00462
G1 X131.467 Y128.799 E.00584
G1 X131.32 Y128.929 E.00731
G1 X130.765 Y129.592 E.03222
G1 X130.354 Y128.546 E.04188
G1 X132.662 Y123.718 E.19933
G1 X132.047 Y128.443 F28800
G1 F6300
G1 X132.047 Y125.958 E.09257
G1 X131.539 Y127.02 E.04385
G1 X131.539 Y128.306 E.04792
G1 X131.28 Y128.429 E.01069
G1 X131.031 Y128.635 E.01201
G1 X131.031 Y127.605 E.03836
;WIPE_START
G1 F23040
G1 X131.031 Y128.635 E-.15288
G1 X131.28 Y128.429 E-.04787
G1 X131.539 Y128.306 E-.04262
G1 X131.539 Y127.02 E-.19097
G1 X132.047 Y125.958 E-.17474
G1 X132.047 Y128.443 E-.36893
;WIPE_END
G1 E-1.02199 F3600
G1 Z.6 F28800
G1 X126.306 Y122.775
G1 Z.2
G1 E2 F1800
;TYPE:External perimeter
;WIDTH:0.48097
G1 F4200
G1 X126.344 Y122.773 E.00136
;WIDTH:0.485056
G1 X132.358 Y122.775 E.2167
;WIDTH:0.489954
G1 X132.405 Y122.777 E.00169
;WIPE_START
G1 F23040
G1 X132.358 Y122.775 E-.00688
G1 X126.344 Y122.773 E-.8928
G1 X126.306 Y122.775 E-.00566
;WIPE_END
G1 E-1.09466 F3600
G1 Z.6 F28800
G1 X128.359 Y128.522
G1 Z.2
G1 E2 F1800
;TYPE:Perimeter
;WIDTH:0.713557
G1 F5040
G1 X128.457 Y128.611 E.0072
G1 X128.774 Y128.64 E.01743
G1 X129.034 Y128.572 E.01468
G1 X129.102 Y128.817 E.01392
G1 X129.787 Y130.56 E.10232
;WIDTH:0.745765
G1 X129.897 Y130.873 E.019
G1 X130.112 Y131.137 E.01951
G1 X130.271 Y131.242 E.01092
G1 X130.085 Y131.323 E.01163
G1 X129.683 Y131.383 E.02328
G1 X128.968 Y131.383 E.04093
G1 X129.232 Y131.051 E.02433
G1 X129.163 Y130.805 E.01465
;WIDTH:0.713557
G1 X128.399 Y128.861 E.11411
G1 X128.366 Y128.582 E.01538
;WIPE_START
G1 F23040
G1 X128.457 Y128.611 E-.01408
G1 X128.774 Y128.64 E-.04736
G1 X129.034 Y128.572 E-.03988
G1 X129.102 Y128.817 E-.0378
G1 X129.787 Y130.56 E-.27792
G1 X129.897 Y130.873 E-.04924
G1 X130.112 Y131.137 E-.05058
G1 X130.271 Y131.242 E-.0283
G1 X130.085 Y131.323 E-.03015
G1 X129.683 Y131.383 E-.06035
G1 X128.968 Y131.383 E-.10607
G1 X129.232 Y131.051 E-.06305
G1 X129.163 Y130.805 E-.03798
G1 X128.399 Y128.861 E-.30996
G1 X128.366 Y128.582 E-.04179
;WIPE_END
G1 E-.8055 F3600
G1 Z.6 F28800
G1 X132.615 Y135.109
G1 Z.2
G1 E2 F1800
;TYPE:External perimeter
;WIDTH:0.608014
G1 F4200
G1 X132.434 Y135.122 E.00836
;WIDTH:0.581058
G1 X132.253 Y135.136 E.00796
;WIDTH:0.554102
G1 X126.344 Y135.136 E.24618
;WIDTH:0.577608
G1 X126.104 Y135.124 E.01046
;WIPE_START
G1 F23040
G1 X126.344 Y135.136 E-.03564
G1 X132.253 Y135.136 E-.87725
G1 X132.434 Y135.122 E-.02694
G1 X132.615 Y135.109 E-.02694
;WIPE_END
G1 E-1.03324 F3600
G1 Z.6 F28800
G1 X133.824 Y129.699
G1 Z.2
G1 E2 F1800
;TYPE:Perimeter
;WIDTH:0.73762
G1 F5040
G1 X133.968 Y129.524 E.01284
G1 X134.003 Y129.322 E.01161
;WIDTH:0.698659
G1 X134.038 Y129.12 E.01095
;WIDTH:0.659697
G1 X134.038 Y124.011 E.2568
;WIDTH:0.65957
G1 X134.011 Y123.75 E.01316
;WIDTH:0.652325
G1 X133.881 Y123.315 E.02256
G1 X134.107 Y123.315 E.01122
G1 X134.426 Y123.404 E.01648
G1 X134.597 Y123.592 E.01263
;WIDTH:0.65957
G1 X134.655 Y124.011 E.02122
;WIDTH:0.659697
G1 X134.655 Y129.12 E.2568
;WIDTH:0.698659
G1 X134.636 Y129.409 E.01549
;WIDTH:0.73762
G1 X134.616 Y129.699 E.01641
G1 X134.636 Y129.989 E.01646
;WIDTH:0.698665
G1 X134.655 Y130.279 E.01554
;WIDTH:0.662559
G1 X134.654 Y133.967 E.18623
G1 X134.619 Y134.257 E.01473
;WIDTH:0.660231
G1 X134.526 Y134.439 E.0103
G1 X134.365 Y134.568 E.01037
G1 X133.853 Y134.626 E.02591
G1 X133.935 Y134.457 E.00944
;WIDTH:0.662559
G1 X134.034 Y133.967 E.02526
G1 X134.038 Y130.278 E.18623
;WIDTH:0.698665
G1 X134.003 Y130.076 E.01099
;WIDTH:0.73762
G1 X133.968 Y129.873 E.01164
G1 X133.862 Y129.745 E.00944
;WIPE_START
G1 F23040
G1 X133.968 Y129.524 E-.03637
G1 X134.003 Y129.322 E-.03043
G1 X134.038 Y129.12 E-.03043
G1 X134.038 Y124.011 E-.75845
G1 X134.011 Y123.75 E-.03889
G1 X133.881 Y123.315 E-.06743
G1 X134.107 Y123.315 E-.03352
G1 X134.426 Y123.404 E-.04925
G1 X134.597 Y123.592 E-.03775
G1 X134.655 Y124.011 E-.06268
G1 X134.655 Y129.096 E-.7548
;WIPE_END
G1 E-.1 F3600
G1 Z.6 F28800
G1 X128.559 Y128.056
G1 Z.2
G1 E2 F1800
;TYPE:External perimeter
;WIDTH:0.499999
G1 F4200
G1 X128.8 Y128.059 E.00898
G1 X128.91 Y127.952 E.0057
G1 X130.987 Y123.754 E.17449
G1 X131.102 Y123.679 E.00509
G1 X131.906 Y123.676 E.02997
G1 X129.636 Y128.423 E.19601
