; generated by PrusaSlicer 2.5.0 on 2025-03-29 at 08:57:56 UTC

; 

; external perimeters extrusion width = 0.40mm
; perimeters extrusion width = 0.45mm
; infill extrusion width = 0.45mm
; solid infill extrusion width = 0.45mm
; top infill extrusion width = 0.40mm
; support material extrusion width = 0.35mm
; first layer extrusion width = 0.50mm

M107
;TYPE:Custom
;===== date: 2022,09,19 =====================
;===== reset machine status =================
G91
M17 Z0.3 ; lower the z-motor current
G0 Z7 F300 ; lower the hotbed , to prevent the nozzle is below the hotbed
G90
M17 X1.2 Y1.2 Z0.75 ; reset motor current to default
M960 S5 P1 ; turn on logo lamp
G90
M220 S100 ;Reset Feedrate
M221 S100 ;Reset Flowrate
M73.2   R1.0 ;Reset left time magnitude
M1002 set_gcode_claim_speed_level : 5
M221 X0 Y0 Z0 ; turn off soft endstop to prevent protential logic problem

;===== heatbed preheat ====================
M1002 gcode_claim_action : 2
M140 S35 ;set bed temp
M190 S35 ;wait for bed temp

;=============turn on fans to prevent PLA jamming=================

    ;Prevent PLA from jamming

M106 P2 S100 ; turn on big fan ,to cool down toolhead

;===== prepare print temperature and material ==========
M104 S220 ;set extruder temp
G91
G0 Z2 F1200
G90
G28 X
M975 S1 ; turn on 
G1 X60 F12000
G1 Y245
G1 Y265 F3000
M620 M
M620 S0A   ; switch material if AMS exist
    M109 S220
    G1 X120 F12000

    G1 X20 Y50 F12000
    G1 Y-3
    T0
    G1 X54 F12000
    G1 Y265
    M400
M621 S0A

M412 S1 ; ===turn on filament runout detection===

M109 S250 ;set nozzle to common flush temp
M106 P1 S0
G92 E0
G1 E50 F200
M400
M104 S220
G92 E0
G1 E50 F200
M400
M106 P1 S255
G92 E0
G1 E5 F300
M109 S200 ; drop nozzle temp, make filament shink a bit
G92 E0
G1 E-0.5 F300

G1 X70 F9000
G1 X76 F15000
G1 X65 F15000
G1 X76 F15000
G1 X65 F15000; shake to put down garbage
G1 X80 F6000
G1 X95 F15000
G1 X80 F15000
G1 X165 F15000; wipe and shake
M400
M106 P1 S0
;===== prepare print temperature and material end =====


;===== wipe nozzle ===============================
M1002 gcode_claim_action : 14
M975 S1
M106 S255
G1 X65 Y230 F18000
G1 Y264 F6000
M109 S200
G1 X100 F18000 ; first wipe mouth

G0 X135 Y261 F20000  ; move to exposed steel surface edge
G28 Z P0 T300; home z with low precision,permit 300deg temperature
G29.2 S0 ; turn off ABL
G0 Z2 F20000

G1 X60 Y265
G92 E0
G1 E-0.5 F300 ; retrack more
G1 X100 F5000; second wipe mouth
G1 X70 F15000
G1 X100 F5000
G1 X70 F15000
G1 X100 F5000
G1 X70 F15000
G1 X100 F5000
G1 X70 F15000
G1 X90 F5000
G0 X128 Y261 Z-1.5 F20000  ; move to exposed steel surface and stop the nozzle
M104 S140 ; set temp down to heatbed acceptable
M106 S255 ; turn on fan (G28 has turn off fan)

M221 S; push soft endstop status
M221 Z0 ;turn off Z axis endstop
G0 Z0.5 F20000
G0 X125 Y259.5 Z-1.01
G0 X131 F211
G0 X124
G0 Z0.5 F20000
G0 X125 Y262.5
G0 Z-1.01
G0 X131 F211
G0 X124
G0 Z0.5 F20000
G0 X125 Y260.0
G0 Z-1.01
G0 X131 F211
G0 X124
G0 Z0.5 F20000
G0 X125 Y262.0
G0 Z-1.01
G0 X131 F211
G0 X124
G0 Z0.5 F20000
G0 X125 Y260.5
G0 Z-1.01
G0 X131 F211
G0 X124
G0 Z0.5 F20000
G0 X125 Y261.5
G0 Z-1.01
G0 X131 F211
G0 X124
G0 Z0.5 F20000
G0 X125 Y261.0
G0 Z-1.01
G0 X131 F211
G0 X124
G0 X128
G2 I0.5 J0 F300
G2 I0.5 J0 F300
G2 I0.5 J0 F300
G2 I0.5 J0 F300

M109 S140 ; wait nozzle temp down to heatbed acceptable
G2 I0.5 J0 F3000
G2 I0.5 J0 F3000
G2 I0.5 J0 F3000
G2 I0.5 J0 F3000

M221 R; pop softend status
G1 Z10 F1200
M400
G1 Z10
G1 F30000
G1 X230 Y15
G29.2 S1 ; turn on ABL
;G28 ; home again after hard wipe mouth
M106 S0 ; turn off fan , too noisy
;===== wipe nozzle end ================================


;===== bed leveling ==================================
M1002 judge_flag g29_before_print_flag
M622 J1

    M1002 gcode_claim_action : 1
    G29 A X91.4529 Y115.604 I75.0941 J24.7923
    M400
    M500 ; save cali data

M623
;===== bed leveling end ================================

;===== home after wipe mouth============================
M1002 judge_flag g29_before_print_flag
M622 J0

    M1002 gcode_claim_action : 13
    G28

M623
;===== home after wipe mouth end =======================

M975 S1 ; turn on vibration supression

=============turn on fans to prevent PLA jamming=================

    ;Prevent PLA from jamming

M106 P2 S100 ; turn on big fan ,to cool down toolhead


M104 S220 ; set extrude temp earlier, to reduce wait time

;===== mech mode fast check============================
G1 X128 Y128 Z5 F20000
M400 P200
M970.3 Q1 A7 B30 C80  H15 K0
M974 Q1 S2 P0

G1 X128 Y128 Z5 F20000
M400 P200
M970.3 Q0 A7 B30 C90 Q0 H15 K0
M974 Q0 S2 P0

M975 S1
G1 F30000
G1 X230 Y15
G28 X ; re-home XY 
;===== fmech mode fast check============================


;===== noozle load line ===============================
M975 S1
G90 
M83
T1000
G1 X18.0 Y5.0 Z0.3 F18000;Move to start position
M109 S220
G0 E3 F300
G0 X240 E15 F6400 
G0 Y5.5 
G0 X18 E15
M400

;========turn off light and wait extrude temperature =============
M1002 gcode_claim_action : 0
M973 S4 ; turn off scanner
M400 ; wait all motion done before implement the emprical L parameters
;M900 L500.0 ; Empirical parameters
M109 S220
M960 S1 P0 ; turn off laser
M960 S2 P0 ; turn off laser
M106 S0 ; turn off fan
M106 P2 S0 ; turn off big fan 
M106 P3 S0 ; turn off chamber fan

M975 S1 ; turn on mech mode supression
G90 
M83
T1000
G1 X128.0 Y253.0 Z0.2 F6000.0;Move to start position
M109 S220
G0 X253 E6.4 F5333.33 
G0 Y128 E6.4
G0 X252.5
G0 Y252.5 E6.4
G0 X128 E6.4
G21 ; set units to millimeters
G90 ; use absolute coordinates
M83 ; use relative distances for extrusion
; Filament gcode
M106 P2 S178 ; Chamber fan, 70%, I think
M107
;LAYER_CHANGE
;Z:0.2
;HEIGHT:0.2
G92 E0
M971 S11 C10 O0
G1 E-2 F3600
G1 Z.4 F28800
G1 X96.651 Y117.648
G1 Z.2
G1 E2 F1800
;TYPE:Skirt/Brim
;WIDTH:0.5
G1 F6300
G1 X98.528 Y116.384 E.08433
G1 X101.14 Y115.832 E.09941
G1 X156.86 Y115.832 E2.07536
G1 X159.089 Y116.229 E.08433
G1 X161.35 Y117.649 E.09942
G1 X164.351 Y120.552 E.15553
G1 X165.677 Y122.387 E.08433
G1 X166.318 Y125.193 E.10721
G1 X166.318 Y130.945 E.21425
G1 X165.922 Y133.174 E.08433
G1 X164.78 Y135.129 E.08433
G1 X163.033 Y136.57 E.08433
G1 X160.215 Y137.393 E.10935
G1 X109.8 Y140.158 E1.88057
G1 X101.14 Y140.168 E.32257
G1 X98.911 Y139.771 E.08433
G1 X96.765 Y138.459 E.09368
G1 X93.763 Y135.694 E.152
G1 X92.393 Y133.892 E.08433
G1 X91.681 Y130.945 E.11291
G1 X91.681 Y125.193 E.21425
G1 X92.078 Y122.964 E.08433
G1 X93.649 Y120.552 E.10721
G1 X96.607 Y117.69 E.1533
;WIPE_START
G1 F23040
G1 X98.528 Y116.384 E-.34483
G1 X101.14 Y115.832 E-.39619
G1 X108.948 Y115.832 E-1.15898
;WIPE_END
G1 E-.1 F3600
G1 Z.6 F28800
G1 X103.666 Y125.055
G1 Z.2
G1 E2 F1800
;TYPE:Support material interface
;WIDTH:0.35
G1 F6300
G1 X103.666 Y127.049 E.04991
G1 X103.359 Y127.063 E.00769
G1 X103.359 Y125.193 E.04679
G1 X103.052 Y125.193 E.00768
G1 X103.052 Y127.093 E.04755
G1 X102.745 Y127.144 E.00779
G1 X102.745 Y125.193 E.04883
G1 X102.438 Y125.193 E.00768
G1 X102.438 Y127.225 E.05086
G1 X102.131 Y127.359 E.00838
G1 X102.131 Y125.193 E.05421
G1 X101.823 Y125.193 E.00768
G1 X101.823 Y127.421 E.05575
G1 X101.738 Y127.272 E.00429
G1 X101.516 Y127.4 E.0064
G1 X101.516 Y125.193 E.05522
G1 X101.209 Y125.193 E.00768
G1 X101.209 Y130.807 E.14048
G1 X101.516 Y130.807 E.00768
G1 X101.516 Y129.605 E.03007
G1 X101.799 Y129.741 E.00786
G1 X101.823 Y129.686 E.0015
G1 X101.823 Y130.807 E.02805
G1 X102.131 Y130.807 E.00768
G1 X102.131 Y129.641 E.02919
G1 X102.438 Y129.775 E.00838
G1 X102.438 Y130.807 E.02584
G1 X102.745 Y130.807 E.00768
G1 X102.745 Y129.856 E.0238
G1 X103.052 Y129.907 E.00779
G1 X103.052 Y130.807 E.02253
G1 X103.359 Y130.807 E.00768
G1 X103.359 Y129.937 E.02177
G1 X103.666 Y129.951 E.00769
G1 X103.666 Y130.945 E.02489
;WIPE_START
G1 F23040
G1 X103.666 Y129.951 E-.14764
G1 X103.359 Y129.937 E-.04563
G1 X103.359 Y130.807 E-.12912
G1 X103.052 Y130.807 E-.04558
G1 X103.052 Y129.907 E-.13364
G1 X102.745 Y129.856 E-.0462
G1 X102.745 Y130.807 E-.1412
G1 X102.438 Y130.807 E-.04558
G1 X102.438 Y129.775 E-.15328
G1 X102.131 Y129.641 E-.04972
G1 X102.131 Y130.807 E-.17313
G1 X101.823 Y130.807 E-.04558
G1 X101.823 Y129.686 E-.16637
G1 X101.799 Y129.741 E-.00892
G1 X101.516 Y129.605 E-.0466
G1 X101.516 Y130.807 E-.1784
G1 X101.209 Y130.807 E-.04558
G1 X101.209 Y128.8 E-.29786
;WIPE_END
G1 E-.1 F3600
G1 Z.6 F28800
G1 X100.902 Y130.945
G1 Z.2
G1 E2 F1800
G1 F6300
G1 X100.902 Y125.193 E.14394
G1 X100.595 Y125.193 E.00768
G1 X100.595 Y130.807 E.14048
G1 X100.288 Y130.807 E.00768
G1 X100.288 Y125.193 E.14048
G1 X99.981 Y125.193 E.00768
G1 X99.981 Y130.807 E.14048
G1 X99.674 Y130.807 E.00768
G1 X99.674 Y125.193 E.14048
G1 X99.367 Y125.193 E.00768
G1 X99.367 Y130.807 E.14048
G1 X99.06 Y130.807 E.00768
G1 X99.06 Y125.193 E.14048
G1 X98.753 Y125.193 E.00768
G1 X98.753 Y130.807 E.14048
G1 X98.446 Y130.807 E.00768
G1 X98.446 Y125.193 E.14048
G1 X98.139 Y125.193 E.00768
G1 X98.139 Y130.945 E.14394
;WIPE_START
G1 F23040
G1 X98.139 Y125.193 E-.85387
G1 X98.446 Y125.193 E-.04558
G1 X98.446 Y130.807 E-.83336
G1 X98.753 Y130.807 E-.04558
G1 X98.753 Y129.988 E-.12161
;WIPE_END
G1 E-.1 F3600
G1 Z.6 F28800
G1 X102.446 Y127.666
G1 Z.2
G1 E2 F1800
;TYPE:Support material
;WIDTH:0.5
G1 F6300
G1 X102.367 Y127.847 E.00734
G1 X102.349 Y127.962 E.00436
G1 X102.347 Y129.013 E.03911
G1 X102.367 Y129.153 E.00529
G1 X102.461 Y129.355 E.0083
G1 X102.257 Y129.246 E.00861
G1 X102.144 Y129.134 E.00593
G1 X101.891 Y128.53 E.02438
G1 X101.806 Y128.723 E.00786
G1 X101.596 Y128.723 E.00781
G1 X101.597 Y127.998 E.02702
G1 X101.637 Y127.906 E.00372
G1 X101.919 Y128.397 E.02109
G1 X102.144 Y127.866 E.02146
G1 X102.226 Y127.777 E.00452
G1 X102.422 Y127.663 E.00846
;WIPE_START
G1 F23040
G1 X102.226 Y127.777 E-.03371
G1 X102.144 Y127.866 E-.018
G1 X101.919 Y128.397 E-.08551
G1 X101.637 Y127.906 E-.08404
G1 X101.597 Y127.998 E-.01484
G1 X101.596 Y128.723 E-.10768
G1 X101.806 Y128.723 E-.03113
G1 X101.891 Y128.53 E-.03133
G1 X102.144 Y129.134 E-.09718
G1 X102.257 Y129.246 E-.02362
G1 X102.461 Y129.355 E-.03432
G1 X102.367 Y129.153 E-.03307
G1 X102.347 Y129.013 E-.02109
G1 X102.349 Y127.962 E-.15587
G1 X102.367 Y127.847 E-.01739
G1 X102.446 Y127.666 E-.02925
;WIPE_END
G1 E-1.18196 F3600
G1 Z.6 F28800
G1 X109.447 Y133.711
G1 Z.2
G1 E2 F1800
G1 F6300
G1 X101.14 Y133.711 E.3094
G1 X101.14 Y131.211 E.09311
G1 X104.14 Y131.211 E.11174
G1 X104.14 Y129.824 E.05165
G1 X109.447 Y129.824 E.19766
G1 X109.447 Y133.642 E.1422
G1 X108.685 Y133.505 F28800
G1 F6300
G1 X108.685 Y130.235 E.12177
G1 X108.177 Y130.235 E.01892
G1 X108.177 Y133.299 E.11411
G1 X107.67 Y133.299 E.01892
G1 X107.67 Y130.235 E.11411
G1 X107.162 Y130.235 E.01892
G1 X107.162 Y133.299 E.11411
G1 X106.654 Y133.299 E.01892
G1 X106.654 Y130.235 E.11411
G1 X106.146 Y130.235 E.01892
G1 X106.146 Y133.299 E.11411
G1 X105.638 Y133.299 E.01892
G1 X105.638 Y130.235 E.11411
G1 X105.13 Y130.235 E.01892
G1 X105.13 Y133.299 E.11411
G1 X104.622 Y133.299 E.01892
G1 X104.622 Y130.235 E.11411
G1 X104.551 Y130.235 E.00265
G1 X104.551 Y131.622 E.05165
G1 X104.115 Y131.622 E.01627
G1 X104.115 Y133.299 E.06246
G1 X103.607 Y133.299 E.01892
G1 X103.607 Y131.622 E.06246
G1 X103.099 Y131.622 E.01892
G1 X103.099 Y133.299 E.06246
G1 X102.591 Y133.299 E.01892
G1 X102.591 Y131.622 E.06246
G1 X102.083 Y131.622 E.01892
G1 X102.083 Y133.299 E.06246
G1 X101.575 Y133.299 E.01892
G1 X101.575 Y131.416 E.07012
;WIPE_START
G1 F23040
G1 X101.575 Y133.299 E-.27947
G1 X102.083 Y133.299 E-.07539
G1 X102.083 Y131.622 E-.24894
G1 X102.591 Y131.622 E-.07539
G1 X102.591 Y133.299 E-.24894
G1 X103.099 Y133.299 E-.07539
G1 X103.099 Y131.622 E-.24894
G1 X103.607 Y131.622 E-.07539
G1 X103.607 Y133.299 E-.24894
G1 X104.115 Y133.299 E-.07539
G1 X104.115 Y131.629 E-.24785
;WIPE_END
G1 E-.1 F3600
G1 Z.6 F28800
G1 X154.334 Y130.945
G1 Z.2
G1 E2 F1800
;TYPE:Support material interface
;WIDTH:0.35
G1 F6300
G1 X154.334 Y129.951 E.02489
G1 X154.641 Y129.937 E.00769
G1 X154.641 Y130.807 E.02177
G1 X154.948 Y130.807 E.00768
G1 X154.948 Y129.907 E.02253
G1 X155.255 Y129.856 E.00779
G1 X155.255 Y130.807 E.0238
G1 X155.562 Y130.807 E.00768
G1 X155.562 Y129.775 E.02584
G1 X155.869 Y129.641 E.00838
G1 X155.869 Y130.807 E.02918
G1 X156.176 Y130.807 E.00768
G1 X156.176 Y129.56 E.03122
G1 X156.277 Y129.724 E.00482
G1 X156.484 Y129.598 E.00606
G1 X156.484 Y130.945 E.03372
;WIPE_START
G1 F23040
G1 X156.484 Y129.598 E-.20004
G1 X156.277 Y129.724 E-.03593
G1 X156.176 Y129.56 E-.02862
G1 X156.176 Y130.807 E-.18517
G1 X155.869 Y130.807 E-.04558
G1 X155.869 Y129.641 E-.17312
G1 X155.562 Y129.775 E-.04972
G1 X155.562 Y130.807 E-.15327
G1 X155.255 Y130.807 E-.04558
G1 X155.255 Y129.856 E-.14119
G1 X154.948 Y129.907 E-.0462
G1 X154.948 Y130.807 E-.13363
G1 X154.641 Y130.807 E-.04558
G1 X154.641 Y129.937 E-.12912
G1 X154.334 Y129.951 E-.04563
G1 X154.334 Y130.945 E-.14764
;WIPE_END
G1 E-.39398 F3600
G1 Z.6 F28800
G1 X159.861 Y130.945
G1 Z.2
G1 E2 F1800
G1 F6300
G1 X159.861 Y125.193 E.14394
G1 X159.554 Y125.193 E.00768
G1 X159.554 Y130.807 E.14048
G1 X159.247 Y130.807 E.00768
G1 X159.247 Y125.193 E.14048
G1 X158.94 Y125.193 E.00768
G1 X158.94 Y130.807 E.14048
G1 X158.633 Y130.807 E.00768
G1 X158.633 Y125.193 E.14048
G1 X158.326 Y125.193 E.00768
G1 X158.326 Y130.807 E.14048
G1 X158.019 Y130.807 E.00768
G1 X158.019 Y125.193 E.14048
G1 X157.712 Y125.193 E.00768
G1 X157.712 Y130.807 E.14048
G1 X157.405 Y130.807 E.00768
G1 X157.405 Y125.193 E.14048
G1 X157.098 Y125.193 E.00768
G1 X157.098 Y130.807 E.14048
G1 X156.791 Y130.807 E.00768
G1 X156.791 Y125.193 E.14048
G1 X156.484 Y125.193 E.00768
G1 X156.484 Y127.4 E.05523
G1 X156.25 Y127.273 E.00666
G1 X156.176 Y127.408 E.00384
G1 X156.176 Y125.193 E.05543
G1 X155.869 Y125.193 E.00768
G1 X155.869 Y127.359 E.05421
G1 X155.562 Y127.225 E.00838
G1 X155.562 Y125.193 E.05086
G1 X155.255 Y125.193 E.00768
G1 X155.255 Y127.144 E.04882
G1 X154.948 Y127.093 E.00779
G1 X154.948 Y125.193 E.04755
G1 X154.641 Y125.193 E.00768
G1 X154.641 Y127.063 E.04679
G1 X154.334 Y127.049 E.00769
G1 X154.334 Y125.055 E.04991
;WIPE_START
G1 F23040
G1 X154.334 Y127.049 E-.29607
G1 X154.641 Y127.063 E-.04563
G1 X154.641 Y125.193 E-.27756
G1 X154.948 Y125.193 E-.04558
G1 X154.948 Y127.093 E-.28207
G1 X155.255 Y127.144 E-.0462
G1 X155.255 Y125.193 E-.28963
G1 X155.562 Y125.193 E-.04558
G1 X155.562 Y127.225 E-.30171
G1 X155.869 Y127.359 E-.04972
G1 X155.869 Y125.875 E-.22025
;WIPE_END
G1 E-.1 F3600
G1 Z.6 F28800
G1 X156.86 Y124.789
G1 Z.2
G1 E2 F1800
;TYPE:Support material
;WIDTH:0.5
G1 F6300
G1 X153.86 Y124.789 E.11174
G1 X153.86 Y127.176 E.08889
G1 X104.14 Y127.176 E1.85189
G1 X104.14 Y124.789 E.08889
G1 X101.14 Y124.789 E.11174
G1 X101.14 Y122.289 E.09311
G1 X156.86 Y122.289 E2.07536
G1 X156.86 Y124.721 E.09055
G1 X156.425 Y124.584 F28800
G1 F6300
G1 X156.425 Y122.701 E.07012
G1 X155.917 Y122.701 E.01892
G1 X155.917 Y124.378 E.06246
G1 X155.409 Y124.378 E.01892
G1 X155.409 Y122.701 E.06246
G1 X154.901 Y122.701 E.01892
G1 X154.901 Y124.378 E.06246
G1 X154.393 Y124.378 E.01892
G1 X154.393 Y122.701 E.06246
G1 X153.885 Y122.701 E.01892
G1 X153.885 Y124.378 E.06246
G1 X153.449 Y124.378 E.01627
G1 X153.449 Y126.765 E.08889
G1 X153.378 Y126.765 E.00265
G1 X153.378 Y122.701 E.15136
G1 X152.87 Y122.701 E.01892
G1 X152.87 Y126.765 E.15136
G1 X152.362 Y126.765 E.01892
G1 X152.362 Y122.701 E.15136
G1 X151.854 Y122.701 E.01892
G1 X151.854 Y126.765 E.15136
G1 X151.346 Y126.765 E.01892
G1 X151.346 Y122.701 E.15136
G1 X150.838 Y122.701 E.01892
G1 X150.838 Y126.765 E.15136
G1 X150.33 Y126.765 E.01892
G1 X150.33 Y122.701 E.15136
G1 X149.823 Y122.701 E.01892
G1 X149.823 Y126.765 E.15136
G1 X149.315 Y126.765 E.01892
G1 X149.315 Y122.701 E.15136
G1 X148.807 Y122.701 E.01892
G1 X148.807 Y126.765 E.15136
G1 X148.299 Y126.765 E.01892
G1 X148.299 Y122.701 E.15136
G1 X147.791 Y122.701 E.01892
G1 X147.791 Y126.765 E.15136
G1 X147.283 Y126.765 E.01892
G1 X147.283 Y122.701 E.15136
G1 X146.775 Y122.701 E.01892
G1 X146.775 Y126.765 E.15136
G1 X146.267 Y126.765 E.01892
G1 X146.267 Y122.701 E.15136
G1 X145.76 Y122.701 E.01892
