; generated by PrusaSlicer 2.5.0 on 2025-03-28 at 10:20:55 UTC

; 

; external perimeters extrusion width = 0.40mm
; perimeters extrusion width = 0.45mm
; infill extrusion width = 0.45mm
; solid infill extrusion width = 0.45mm
; top infill extrusion width = 0.40mm
; support material extrusion width = 0.35mm
; first layer extrusion width = 0.50mm

M107
;TYPE:Custom
;===== date: 2022,09,19 =====================
;===== reset machine status =================
G91
M17 Z0.3 ; lower the z-motor current
G0 Z7 F300 ; lower the hotbed , to prevent the nozzle is below the hotbed
G90
M17 X1.2 Y1.2 Z0.75 ; reset motor current to default
M960 S5 P1 ; turn on logo lamp
G90
M220 S100 ;Reset Feedrate
M221 S100 ;Reset Flowrate
M73.2   R1.0 ;Reset left time magnitude
M1002 set_gcode_claim_speed_level : 5
M221 X0 Y0 Z0 ; turn off soft endstop to prevent protential logic problem

;===== heatbed preheat ====================
M1002 gcode_claim_action : 2
M140 S35 ;set bed temp
M190 S35 ;wait for bed temp

;=============turn on fans to prevent PLA jamming=================

    ;Prevent PLA from jamming

M106 P2 S100 ; turn on big fan ,to cool down toolhead

;===== prepare print temperature and material ==========
M104 S220 ;set extruder temp
G91
G0 Z2 F1200
G90
G28 X
M975 S1 ; turn on 
G1 X60 F12000
G1 Y245
G1 Y265 F3000
M620 M
M620 S0A   ; switch material if AMS exist
    M109 S220
    G1 X120 F12000

    G1 X20 Y50 F12000
    G1 Y-3
    T0
    G1 X54 F12000
    G1 Y265
    M400
M621 S0A

M412 S1 ; ===turn on filament runout detection===

M109 S250 ;set nozzle to common flush temp
M106 P1 S0
G92 E0
G1 E50 F200
M400
M104 S220
G92 E0
G1 E50 F200
M400
M106 P1 S255
G92 E0
G1 E5 F300
M109 S200 ; drop nozzle temp, make filament shink a bit
G92 E0
G1 E-0.5 F300

G1 X70 F9000
G1 X76 F15000
G1 X65 F15000
G1 X76 F15000
G1 X65 F15000; shake to put down garbage
G1 X80 F6000
G1 X95 F15000
G1 X80 F15000
G1 X165 F15000; wipe and shake
M400
M106 P1 S0
;===== prepare print temperature and material end =====


;===== wipe nozzle ===============================
M1002 gcode_claim_action : 14
M975 S1
M106 S255
G1 X65 Y230 F18000
G1 Y264 F6000
M109 S200
G1 X100 F18000 ; first wipe mouth

G0 X135 Y261 F20000  ; move to exposed steel surface edge
G28 Z P0 T300; home z with low precision,permit 300deg temperature
G29.2 S0 ; turn off ABL
G0 Z2 F20000

G1 X60 Y265
G92 E0
G1 E-0.5 F300 ; retrack more
G1 X100 F5000; second wipe mouth
G1 X70 F15000
G1 X100 F5000
G1 X70 F15000
G1 X100 F5000
G1 X70 F15000
G1 X100 F5000
G1 X70 F15000
G1 X90 F5000
G0 X128 Y261 Z-1.5 F20000  ; move to exposed steel surface and stop the nozzle
M104 S140 ; set temp down to heatbed acceptable
M106 S255 ; turn on fan (G28 has turn off fan)

M221 S; push soft endstop status
M221 Z0 ;turn off Z axis endstop
G0 Z0.5 F20000
G0 X125 Y259.5 Z-1.01
G0 X131 F211
G0 X124
G0 Z0.5 F20000
G0 X125 Y262.5
G0 Z-1.01
G0 X131 F211
G0 X124
G0 Z0.5 F20000
G0 X125 Y260.0
G0 Z-1.01
G0 X131 F211
G0 X124
G0 Z0.5 F20000
G0 X125 Y262.0
G0 Z-1.01
G0 X131 F211
G0 X124
G0 Z0.5 F20000
G0 X125 Y260.5
G0 Z-1.01
G0 X131 F211
G0 X124
G0 Z0.5 F20000
G0 X125 Y261.5
G0 Z-1.01
G0 X131 F211
G0 X124
G0 Z0.5 F20000
G0 X125 Y261.0
G0 Z-1.01
G0 X131 F211
G0 X124
G0 X128
G2 I0.5 J0 F300
G2 I0.5 J0 F300
G2 I0.5 J0 F300
G2 I0.5 J0 F300

M109 S140 ; wait nozzle temp down to heatbed acceptable
G2 I0.5 J0 F3000
G2 I0.5 J0 F3000
G2 I0.5 J0 F3000
G2 I0.5 J0 F3000

M221 R; pop softend status
G1 Z10 F1200
M400
G1 Z10
G1 F30000
G1 X230 Y15
G29.2 S1 ; turn on ABL
;G28 ; home again after hard wipe mouth
M106 S0 ; turn off fan , too noisy
;===== wipe nozzle end ================================


;===== bed leveling ==================================
M1002 judge_flag g29_before_print_flag
M622 J1

    M1002 gcode_claim_action : 1
    G29 A X82.3144 Y99.3748 I93.3712 J57.2504
    M400
    M500 ; save cali data

M623
;===== bed leveling end ================================

;===== home after wipe mouth============================
M1002 judge_flag g29_before_print_flag
M622 J0

    M1002 gcode_claim_action : 13
    G28

M623
;===== home after wipe mouth end =======================

M975 S1 ; turn on vibration supression

=============turn on fans to prevent PLA jamming=================

    ;Prevent PLA from jamming

M106 P2 S100 ; turn on big fan ,to cool down toolhead


M104 S220 ; set extrude temp earlier, to reduce wait time

;===== mech mode fast check============================
G1 X128 Y128 Z5 F20000
M400 P200
M970.3 Q1 A7 B30 C80  H15 K0
M974 Q1 S2 P0

G1 X128 Y128 Z5 F20000
M400 P200
M970.3 Q0 A7 B30 C90 Q0 H15 K0
M974 Q0 S2 P0

M975 S1
G1 F30000
G1 X230 Y15
G28 X ; re-home XY 
;===== fmech mode fast check============================


;===== noozle load line ===============================
M975 S1
G90 
M83
T1000
G1 X18.0 Y5.0 Z0.3 F18000;Move to start position
M109 S220
G0 E3 F300
G0 X240 E15 F6400 
G0 Y5.5 
G0 X18 E15
M400

;========turn off light and wait extrude temperature =============
M1002 gcode_claim_action : 0
M973 S4 ; turn off scanner
M400 ; wait all motion done before implement the emprical L parameters
;M900 L500.0 ; Empirical parameters
M109 S220
M960 S1 P0 ; turn off laser
M960 S2 P0 ; turn off laser
M106 S0 ; turn off fan
M106 P2 S0 ; turn off big fan 
M106 P3 S0 ; turn off chamber fan

M975 S1 ; turn on mech mode supression
G90 
M83
T1000
G1 X128.0 Y253.0 Z0.2 F6000.0;Move to start position
M109 S220
G0 X253 E6.4 F5333.33 
G0 Y128 E6.4
G0 X252.5
G0 Y252.5 E6.4
G0 X128 E6.4
G21 ; set units to millimeters
G90 ; use absolute coordinates
M83 ; use relative distances for extrusion
; Filament gcode
M106 P2 S178 ; Chamber fan, 70%, I think
M107
;LAYER_CHANGE
;Z:0.2
;HEIGHT:0.2
G92 E0
M971 S11 C10 O0
G1 E-2 F3600
G1 Z.4 F28800
G1 X88.173 Y107.57
G1 Z.2
G1 E2 F1800
;TYPE:Skirt/Brim
;WIDTH:0.5
G1 F6300
G1 X89.566 Y106.548 E.06433
G1 X100.955 Y100.345 E.48305
G1 X102.202 Y99.881 E.04956
G1 X103.498 Y99.64 E.04909
G1 X153.733 Y99.603 E1.87105
G1 X155.418 Y99.787 E.06313
G1 X157.033 Y100.339 E.06359
G1 X167.606 Y106.045 E.44747
G1 X168.969 Y106.913 E.0602
G1 X170.032 Y107.742 E.05022
G1 X171.019 Y108.661 E.05022
G1 X172.575 Y110.513 E.0901
G1 X173.307 Y111.639 E.05001
G1 X173.942 Y112.829 E.05022
G1 X174.783 Y114.987 E.08627
G1 X175.303 Y117.33 E.08939
G1 X175.456 Y119.359 E.07581
G1 X175.456 Y136.641 E.64368
G1 X175.386 Y137.974 E.04972
G1 X175.199 Y139.309 E.05022
G1 X174.892 Y140.636 E.05072
G1 X174.335 Y142.279 E.06462
G1 X173.774 Y143.512 E.05043
G1 X172.959 Y144.923 E.06071
G1 X171.939 Y146.316 E.06433
G1 X170.839 Y147.519 E.0607
G1 X169.827 Y148.43 E.05072
G1 X168.434 Y149.452 E.06433
G1 X157.045 Y155.655 E.48305
G1 X155.798 Y156.119 E.04956
G1 X154.502 Y156.36 E.04909
G1 X103.836 Y156.385 E1.88713
G1 X102.26 Y156.134 E.05943
G1 X100.967 Y155.661 E.05129
G1 X89.815 Y149.611 E.47257
G1 X88.49 Y148.684 E.0602
G1 X87.177 Y147.534 E.06504
G1 X86.07 Y146.327 E.06099
G1 X85.048 Y144.934 E.06433
G1 X84.232 Y143.524 E.06071
G1 X83.433 Y141.666 E.0753
G1 X82.88 Y139.708 E.0758
G1 X82.592 Y137.72 E.0748
G1 X82.543 Y119.5 E.67863
G1 X82.657 Y117.636 E.06957
G1 X82.938 Y116.03 E.06071
G1 X83.426 Y114.354 E.06503
G1 X84.052 Y112.841 E.06099
G1 X84.889 Y111.315 E.06483
G1 X85.816 Y109.99 E.0602
G1 X86.966 Y108.677 E.06504
G1 X88.129 Y107.61 E.05876
;WIPE_START
G1 F23040
G1 X89.566 Y106.548 E-.26522
G1 X99.237 Y101.28 E-1.63478
;WIPE_END
G1 E-.1 F3600
G1 Z.6 F28800
G1 X115.73 Y148.539
G1 Z.2
G1 E2 F1800
;TYPE:Perimeter
;WIDTH:0.499999
G1 F5040
G1 X115.748 Y148.786 E.00923
G1 X115.645 Y149.039 E.0102
G1 X115.426 Y149.183 E.00977
G1 X115.19 Y149.22 E.00887
G1 X114.942 Y149.11 E.01012
G1 X114.783 Y148.931 E.00891
G1 X114.727 Y148.702 E.00879
G1 X114.818 Y148.387 E.01222
G1 X115.081 Y147.797 E.02407
;WIDTH:0.533746
G1 X115.137 Y147.59 E.00856
;WIDTH:0.567492
G1 X115.193 Y147.384 E.00915
;WIDTH:0.601238
G1 X115.249 Y147.177 E.00973
G1 X115.281 Y147.305 E.00601
;WIDTH:0.566856
G1 X115.379 Y147.639 E.01487
;WIDTH:0.533428
G1 X115.478 Y147.973 E.01392
;WIDTH:0.499999
G1 X115.706 Y148.484 E.02083
;WIPE_START
G1 F23040
G1 X115.748 Y148.786 E-.04525
G1 X115.645 Y149.039 E-.04064
G1 X115.426 Y149.183 E-.03893
G1 X115.19 Y149.22 E-.03536
G1 X114.942 Y149.11 E-.04034
G1 X114.783 Y148.931 E-.03551
G1 X114.727 Y148.702 E-.03503
G1 X114.818 Y148.387 E-.04869
G1 X115.081 Y147.797 E-.09593
G1 X115.137 Y147.59 E-.03176
G1 X115.193 Y147.384 E-.03176
G1 X115.249 Y147.177 E-.03176
G1 X115.281 Y147.305 E-.0196
G1 X115.379 Y147.639 E-.05169
G1 X115.478 Y147.973 E-.05169
G1 X115.706 Y148.484 E-.083
;WIPE_END
G1 E-1.28305 F3600
G1 Z.6 F28800
G1 X110.263 Y148.596
G1 Z.2
G1 E2 F1800
G1 F5040
G1 X110.223 Y148.912 E.01186
G1 X110.064 Y149.106 E.00934
G1 X109.802 Y149.222 E.01066
G1 X109.512 Y149.164 E.01102
G1 X109.328 Y148.997 E.00927
G1 X109.23 Y148.709 E.01133
G1 X109.297 Y148.431 E.01065
G1 X109.581 Y147.797 E.02588
;WIDTH:0.533724
G1 X109.637 Y147.59 E.00856
;WIDTH:0.567449
G1 X109.693 Y147.384 E.00915
;WIDTH:0.601174
G1 X109.749 Y147.177 E.00974
G1 X109.781 Y147.305 E.006
;WIDTH:0.566881
G1 X109.879 Y147.639 E.01487
;WIDTH:0.53344
G1 X109.978 Y147.973 E.01392
;WIDTH:0.499999
G1 X110.238 Y148.542 E.02328
;WIPE_START
G1 F23040
G1 X110.223 Y148.912 E-.05503
G1 X110.064 Y149.106 E-.03722
G1 X109.802 Y149.222 E-.04249
G1 X109.512 Y149.164 E-.04393
G1 X109.328 Y148.997 E-.03693
G1 X109.23 Y148.709 E-.04516
G1 X109.297 Y148.431 E-.04243
G1 X109.581 Y147.797 E-.10316
G1 X109.637 Y147.59 E-.03178
G1 X109.693 Y147.384 E-.03178
G1 X109.749 Y147.177 E-.03178
G1 X109.781 Y147.305 E-.01956
G1 X109.879 Y147.639 E-.05171
G1 X109.978 Y147.973 E-.05171
G1 X110.238 Y148.542 E-.09278
;WIPE_END
G1 E-1.28256 F3600
G1 Z.6 F28800
G1 X133.601 Y144.459
G1 Z.2
G1 E2 F1800
G1 F6300
G1 X133.206 Y144.624 E.01595
G1 X132.816 Y144.883 E.01746
G1 X132.605 Y145.092 E.01104
G1 X132.26 Y145.484 E.01946
G1 X131.986 Y146.048 E.02335
G1 X131.866 Y146.417 E.01444
;WIDTH:0.534628
G1 X131.829 Y146.581 E.00677
;WIDTH:0.569256
G1 X131.793 Y146.746 E.00725
;WIDTH:0.603884
G1 X131.756 Y146.911 E.00772
G1 X131.715 Y146.741 E.00797
;WIDTH:0.569256
G1 X131.675 Y146.572 E.00748
;WIDTH:0.534628
G1 X131.635 Y146.402 E.00699
;WIDTH:0.499999
G1 X131.454 Y145.868 E.02101
G1 X131.165 Y145.376 E.02124
G1 X130.786 Y144.97 E.02069
G1 X130.308 Y144.633 E.02179
G1 X129.865 Y144.437 E.01802
G1 X129.41 Y144.326 E.01746
G1 X128.942 Y144.295 E.01746
G1 X128.476 Y144.346 E.01746
G1 X128.026 Y144.476 E.01746
G1 X127.605 Y144.682 E.01746
G1 X127.225 Y144.958 E.01746
G1 X126.827 Y145.389 E.02187
G1 X126.545 Y145.888 E.02133
;WIDTH:0.542354
G1 X126.469 Y146.069 E.00799
;WIDTH:0.584708
G1 X126.393 Y146.25 E.00866
;WIDTH:0.627062
G1 F6162.888
G1 X126.318 Y146.431 E.00934
;WIDTH:0.669416
G1 F5746.246
G1 X126.242 Y146.612 E.01002
G1 X126.204 Y146.514 E.00535
;WIDTH:0.627062
G1 F6162.888
G1 X126.166 Y146.416 E.00499
;WIDTH:0.584708
G1 F6300
G1 X126.128 Y146.319 E.00463
;WIDTH:0.542354
G1 X126.091 Y146.221 E.00427
;WIDTH:0.499999
G1 X125.894 Y145.749 E.01903
G1 X125.55 Y145.241 E.02285
G1 X125.185 Y144.884 E.01902
G1 X124.795 Y144.625 E.01745
G1 X124.365 Y144.437 E.01746
G1 X123.792 Y144.311 E.02186
G1 X123.279 Y144.308 E.0191
G1 X122.498 Y144.49 E.0299
G1 X121.885 Y144.833 E.02613
G1 X121.505 Y145.178 E.01913
G1 X121.345 Y145.376 E.00949
G1 X121.07 Y145.816 E.01931
G1 X120.849 Y146.467 E.02562
;WIDTH:0.545994
G1 X120.798 Y146.725 E.01079
;WIDTH:0.591988
G1 X120.747 Y146.983 E.01178
G1 X120.726 Y146.897 E.00398
;WIDTH:0.571586
G1 X120.65 Y146.539 E.01575
;WIDTH:0.535793
G1 X120.574 Y146.182 E.01468
;WIDTH:0.499999
G1 X120.324 Y145.624 E.02278
G1 X120.158 Y145.389 E.01071
G1 X119.647 Y144.859 E.02743
G1 X118.932 Y144.465 E.03043
G1 X118.146 Y144.301 E.0299
G1 X117.46 Y144.35 E.02561
G1 X116.89 Y144.536 E.02231
G1 X116.303 Y144.895 E.02563
G1 X115.881 Y145.322 E.02237
G1 X115.521 Y145.923 E.02607
;WIDTH:0.541035
G1 X115.452 Y146.09 E.00735
;WIDTH:0.58207
G1 X115.383 Y146.258 E.00796
;WIDTH:0.623105
G1 F6204.92
G1 X115.314 Y146.425 E.00856
;WIDTH:0.66414
G1 F5795.049
G1 X115.245 Y146.593 E.00917
G1 X115.202 Y146.491 E.00558
;WIDTH:0.61497
G1 F6293.16
G1 X115.158 Y146.39 E.00514
;WIDTH:0.5658
G1 F6300
G1 X115.114 Y146.289 E.0047
;WIDTH:0.516629
G1 X114.882 Y145.725 E.02354
;WIDTH:0.499999
G1 X114.649 Y145.389 E.01521
G1 X114.251 Y144.941 E.02235
G1 X113.648 Y144.555 E.02667
G1 X112.864 Y144.323 E.03044
G1 X112.075 Y144.329 E.02938
G1 X111.498 Y144.49 E.02231
G1 X110.896 Y144.823 E.02562
G1 X110.457 Y145.23 E.02231
G1 X110.07 Y145.816 E.02615
G1 X109.917 Y146.297 E.0188
;WIDTH:0.451818
G1 X109.914 Y146.391 E.00314
;WIDTH:0.413072
G1 X109.91 Y146.486 E.00284
;WIDTH:0.423644
G1 X109.879 Y146.571 E.00282
;WIDTH:0.472962
G1 X109.848 Y146.656 E.00318
;WIDTH:0.52228
G1 X109.817 Y146.741 E.00354
;WIDTH:0.571598
G1 X109.786 Y146.826 E.00391
;WIDTH:0.620916
G1 F6228.417
G1 X109.755 Y146.912 E.00427
G1 X109.727 Y146.848 E.00328
;WIDTH:0.578432
G1 F6300
G1 X109.7 Y146.784 E.00304
;WIDTH:0.535947
G1 X109.672 Y146.72 E.0028
;WIDTH:0.493462
G1 X109.644 Y146.655 E.00256
;WIDTH:0.450977
G1 X109.617 Y146.591 E.00232
;WIDTH:0.408492
G1 X109.589 Y146.527 E.00208
;WIDTH:0.408913
G1 X109.587 Y146.414 E.00338
;WIDTH:0.451818
G1 X109.584 Y146.301 E.00378
;WIDTH:0.499999
G1 X109.421 Y145.823 E.0188
G1 X109.286 Y145.558 E.01107
G1 X108.826 Y145.009 E.02668
G1 X108.162 Y144.56 E.02989
G1 X107.48 Y144.342 E.02666
G1 X106.678 Y144.317 E.02989
G1 X106.01 Y144.483 E.02561
G1 X105.481 Y144.764 E.02231
G1 X104.957 Y145.231 E.02615
G1 X104.653 Y145.659 E.01954
G1 X104.521 Y145.948 E.01186
G1 X104.346 Y146.496 E.02141
G1 X104.314 Y147.298 E.02989
G1 X104.478 Y147.973 E.02588
G1 X104.703 Y148.43 E.01897
G1 X104.773 Y148.699 E.01038
G1 X104.672 Y149.007 E.01205
G1 X104.512 Y149.143 E.00784
G1 X104.241 Y149.221 E.01047
G1 X104.047 Y149.167 E.00751
G1 X103.861 Y149.036 E.0085
G1 X103.741 Y148.836 E.00868
G1 X103.462 Y148.146 E.02772
G1 X103.098 Y147.451 E.02923
G1 X102.556 Y146.722 E.03381
G1 X102.208 Y146.362 E.01866
G1 X101.636 Y145.887 E.02768
G1 X100.804 Y145.385 E.03619
G1 X99.928 Y145.037 E.03511
G1 X99.443 Y144.914 E.01866
G1 X98.731 Y144.812 E.02679
G1 X97.274 Y144.76 E.05428
G1 X96.567 Y144.667 E.02656
G1 X95.507 Y144.408 E.04067
G1 X94.496 Y144.014 E.0404
G1 X93.538 Y143.489 E.04067
G1 X92.952 Y143.079 E.02667
G1 X92.398 Y142.614 E.02694
G1 X91.886 Y142.102 E.02694
G1 X91.421 Y141.548 E.02695
G1 X91.01 Y140.961 E.02667
G1 X90.645 Y140.329 E.02722
G1 X90.339 Y139.673 E.02695
G1 X90.092 Y138.994 E.02694
G1 X89.904 Y138.295 E.02695
G1 X89.779 Y137.583 E.02693
G1 X89.716 Y136.862 E.02696
G1 X89.707 Y119.522 E.64581
G1 X89.78 Y118.41 E.04151
G1 X89.904 Y117.705 E.02667
G1 X90.092 Y117.006 E.02695
G1 X90.339 Y116.327 E.02693
G1 X90.645 Y115.671 E.02695
G1 X91.006 Y115.045 E.02694
G1 X91.421 Y114.452 E.02695
G1 X91.886 Y113.898 E.02693
G1 X92.398 Y113.386 E.02695
G1 X92.952 Y112.921 E.02695
G1 X93.538 Y112.51 E.02667
G1 X94.171 Y112.145 E.02722
G1 X94.82 Y111.842 E.02667
G1 X95.854 Y111.491 E.04067
G1 X96.882 Y111.287 E.03905
G1 X97.336 Y111.242 E.01696
G1 X98.823 Y111.179 E.05543
G1 X99.751 Y111.013 E.03511
G1 X100.228 Y110.862 E.01866
G1 X100.884 Y110.577 E.02661
G1 X101.322 Y110.326 E.01882
G1 X101.97 Y109.846 E.03004
G1 X102.541 Y109.278 E.03
G1 X103.035 Y108.653 E.02968
G1 X103.293 Y108.223 E.01866
G1 X103.591 Y107.585 E.02622
G1 X103.816 Y107.018 E.02273
G1 X104.041 Y106.825 E.01105
G1 X104.243 Y106.779 E.00768
G1 X104.484 Y106.842 E.00927
G1 X104.692 Y107.024 E.01031
G1 X104.773 Y107.301 E.01074
G1 X104.703 Y107.57 E.01037
G1 X104.422 Y108.188 E.0253
G1 X104.3 Y108.879 E.02613
G1 X104.327 Y109.403 E.01954
G1 X104.412 Y109.73 E.01258
G1 X104.645 Y110.329 E.02394
G1 X104.997 Y110.814 E.02232
G1 X105.532 Y111.269 E.02615
G1 X106.151 Y111.567 E.0256
G1 X106.752 Y111.69 E.02285
G1 X107.364 Y111.677 E.02279
G1 X107.568 Y111.641 E.00773
G1 X108.32 Y111.359 E.0299
G1 X108.892 Y110.928 E.02668
G1 X109.277 Y110.453 E.02277
G1 X109.467 Y110.059 E.01629
;WIDTH:0.541767
G1 X109.537 Y109.901 E.00702
;WIDTH:0.583535
G1 X109.606 Y109.743 E.00761
;WIDTH:0.625303
