; generated by PrusaSlicer 2.5.0 on 2025-03-29 at 07:59:31 UTC

; 

; external perimeters extrusion width = 0.40mm
; perimeters extrusion width = 0.45mm
; infill extrusion width = 0.45mm
; solid infill extrusion width = 0.45mm
; top infill extrusion width = 0.40mm
; support material extrusion width = 0.35mm
; first layer extrusion width = 0.50mm

M107
;TYPE:Custom
;===== date: 2022,09,19 =====================
;===== reset machine status =================
G91
M17 Z0.3 ; lower the z-motor current
G0 Z7 F300 ; lower the hotbed , to prevent the nozzle is below the hotbed
G90
M17 X1.2 Y1.2 Z0.75 ; reset motor current to default
M960 S5 P1 ; turn on logo lamp
G90
M220 S100 ;Reset Feedrate
M221 S100 ;Reset Flowrate
M73.2   R1.0 ;Reset left time magnitude
M1002 set_gcode_claim_speed_level : 5
M221 X0 Y0 Z0 ; turn off soft endstop to prevent protential logic problem

;===== heatbed preheat ====================
M1002 gcode_claim_action : 2
M140 S35 ;set bed temp
M190 S35 ;wait for bed temp

;=============turn on fans to prevent PLA jamming=================

    ;Prevent PLA from jamming

M106 P2 S100 ; turn on big fan ,to cool down toolhead

;===== prepare print temperature and material ==========
M104 S220 ;set extruder temp
G91
G0 Z2 F1200
G90
G28 X
M975 S1 ; turn on 
G1 X60 F12000
G1 Y245
G1 Y265 F3000
M620 M
M620 S0A   ; switch material if AMS exist
    M109 S220
    G1 X120 F12000

    G1 X20 Y50 F12000
    G1 Y-3
    T0
    G1 X54 F12000
    G1 Y265
    M400
M621 S0A

M412 S1 ; ===turn on filament runout detection===

M109 S250 ;set nozzle to common flush temp
M106 P1 S0
G92 E0
G1 E50 F200
M400
M104 S220
G92 E0
G1 E50 F200
M400
M106 P1 S255
G92 E0
G1 E5 F300
M109 S200 ; drop nozzle temp, make filament shink a bit
G92 E0
G1 E-0.5 F300

G1 X70 F9000
G1 X76 F15000
G1 X65 F15000
G1 X76 F15000
G1 X65 F15000; shake to put down garbage
G1 X80 F6000
G1 X95 F15000
G1 X80 F15000
G1 X165 F15000; wipe and shake
M400
M106 P1 S0
;===== prepare print temperature and material end =====


;===== wipe nozzle ===============================
M1002 gcode_claim_action : 14
M975 S1
M106 S255
G1 X65 Y230 F18000
G1 Y264 F6000
M109 S200
G1 X100 F18000 ; first wipe mouth

G0 X135 Y261 F20000  ; move to exposed steel surface edge
G28 Z P0 T300; home z with low precision,permit 300deg temperature
G29.2 S0 ; turn off ABL
G0 Z2 F20000

G1 X60 Y265
G92 E0
G1 E-0.5 F300 ; retrack more
G1 X100 F5000; second wipe mouth
G1 X70 F15000
G1 X100 F5000
G1 X70 F15000
G1 X100 F5000
G1 X70 F15000
G1 X100 F5000
G1 X70 F15000
G1 X90 F5000
G0 X128 Y261 Z-1.5 F20000  ; move to exposed steel surface and stop the nozzle
M104 S140 ; set temp down to heatbed acceptable
M106 S255 ; turn on fan (G28 has turn off fan)

M221 S; push soft endstop status
M221 Z0 ;turn off Z axis endstop
G0 Z0.5 F20000
G0 X125 Y259.5 Z-1.01
G0 X131 F211
G0 X124
G0 Z0.5 F20000
G0 X125 Y262.5
G0 Z-1.01
G0 X131 F211
G0 X124
G0 Z0.5 F20000
G0 X125 Y260.0
G0 Z-1.01
G0 X131 F211
G0 X124
G0 Z0.5 F20000
G0 X125 Y262.0
G0 Z-1.01
G0 X131 F211
G0 X124
G0 Z0.5 F20000
G0 X125 Y260.5
G0 Z-1.01
G0 X131 F211
G0 X124
G0 Z0.5 F20000
G0 X125 Y261.5
G0 Z-1.01
G0 X131 F211
G0 X124
G0 Z0.5 F20000
G0 X125 Y261.0
G0 Z-1.01
G0 X131 F211
G0 X124
G0 X128
G2 I0.5 J0 F300
G2 I0.5 J0 F300
G2 I0.5 J0 F300
G2 I0.5 J0 F300

M109 S140 ; wait nozzle temp down to heatbed acceptable
G2 I0.5 J0 F3000
G2 I0.5 J0 F3000
G2 I0.5 J0 F3000
G2 I0.5 J0 F3000

M221 R; pop softend status
G1 Z10 F1200
M400
G1 Z10
G1 F30000
G1 X230 Y15
G29.2 S1 ; turn on ABL
;G28 ; home again after hard wipe mouth
M106 S0 ; turn off fan , too noisy
;===== wipe nozzle end ================================


;===== bed leveling ==================================
M1002 judge_flag g29_before_print_flag
M622 J1

    M1002 gcode_claim_action : 1
    G29 A X102.568 Y101.568 I52.8631 J52.8631
    M400
    M500 ; save cali data

M623
;===== bed leveling end ================================

;===== home after wipe mouth============================
M1002 judge_flag g29_before_print_flag
M622 J0

    M1002 gcode_claim_action : 13
    G28

M623
;===== home after wipe mouth end =======================

M975 S1 ; turn on vibration supression

=============turn on fans to prevent PLA jamming=================

    ;Prevent PLA from jamming

M106 P2 S100 ; turn on big fan ,to cool down toolhead


M104 S220 ; set extrude temp earlier, to reduce wait time

;===== mech mode fast check============================
G1 X128 Y128 Z5 F20000
M400 P200
M970.3 Q1 A7 B30 C80  H15 K0
M974 Q1 S2 P0

G1 X128 Y128 Z5 F20000
M400 P200
M970.3 Q0 A7 B30 C90 Q0 H15 K0
M974 Q0 S2 P0

M975 S1
G1 F30000
G1 X230 Y15
G28 X ; re-home XY 
;===== fmech mode fast check============================


;===== noozle load line ===============================
M975 S1
G90 
M83
T1000
G1 X18.0 Y5.0 Z0.3 F18000;Move to start position
M109 S220
G0 E3 F300
G0 X240 E15 F6400 
G0 Y5.5 
G0 X18 E15
M400

;========turn off light and wait extrude temperature =============
M1002 gcode_claim_action : 0
M973 S4 ; turn off scanner
M400 ; wait all motion done before implement the emprical L parameters
;M900 L500.0 ; Empirical parameters
M109 S220
M960 S1 P0 ; turn off laser
M960 S2 P0 ; turn off laser
M106 S0 ; turn off fan
M106 P2 S0 ; turn off big fan 
M106 P3 S0 ; turn off chamber fan

M975 S1 ; turn on mech mode supression
G90 
M83
T1000
G1 X128.0 Y253.0 Z0.2 F6000.0;Move to start position
M109 S220
G0 X253 E6.4 F5333.33 
G0 Y128 E6.4
G0 X252.5
G0 Y252.5 E6.4
G0 X128 E6.4
G21 ; set units to millimeters
G90 ; use absolute coordinates
M83 ; use relative distances for extrusion
; Filament gcode
M106 P2 S178 ; Chamber fan, 70%, I think
M107
;LAYER_CHANGE
;Z:0.2
;HEIGHT:0.2
G92 E0
M971 S11 C10 O0
G1 E-2 F3600
G1 Z.4 F28800
G1 X104.336 Y104.07
G1 Z.2
G1 E2 F1800
;TYPE:Skirt/Brim
;WIDTH:0.5
G1 F6300
G1 X106.082 Y102.63 E.08433
G1 X109.254 Y101.797 E.12214
G1 X148.746 Y101.797 E1.47092
G1 X150.975 Y102.194 E.08433
G1 X152.93 Y103.336 E.08433
G1 X154.37 Y105.082 E.08433
G1 X155.203 Y108.254 E.12214
G1 X155.203 Y147.746 E1.47092
G1 X154.806 Y149.975 E.08433
G1 X153.664 Y151.93 E.08433
G1 X151.918 Y153.37 E.08433
G1 X148.746 Y154.203 E.12214
G1 X109.254 Y154.203 E1.47092
G1 X107.025 Y153.806 E.08433
G1 X105.07 Y152.664 E.08433
G1 X103.63 Y150.918 E.08433
G1 X102.797 Y147.746 E.12214
G1 X102.797 Y108.254 E1.47092
G1 X103.194 Y106.025 E.08433
G1 X104.306 Y104.122 E.08209
;WIPE_START
G1 F23040
G1 X106.082 Y102.63 E-.34443
G1 X109.254 Y101.797 E-.48676
G1 X116.454 Y101.797 E-1.06881
;WIPE_END
G1 E-.1 F3600
G1 Z.6 F28800
G1 X120.675 Y111.061
G1 Z.2
G1 E2 F1800
;TYPE:Support material
G1 F6300
G1 X123.289 Y111.061 E.09737
G1 X123.289 Y108.254 E.10455
G1 X134.711 Y108.254 E.42539
G1 X134.711 Y111.061 E.10455
G1 X137.325 Y111.061 E.09737
G1 X137.325 Y108.254 E.10455
G1 X148.746 Y108.254 E.42539
G1 X148.746 Y147.746 E1.47092
G1 X137.325 Y147.746 E.42539
G1 X137.325 Y144.939 E.10455
G1 X134.711 Y144.939 E.09737
G1 X134.711 Y147.746 E.10455
G1 X123.289 Y147.746 E.42539
G1 X123.289 Y144.939 E.10455
G1 X120.675 Y144.939 E.09737
G1 X120.675 Y147.746 E.10455
G1 X109.254 Y147.746 E.42539
G1 X109.254 Y108.254 E1.47092
G1 X120.675 Y108.254 E.42539
G1 X120.675 Y110.993 E.102
G1 X118.609 Y116.045 F28800
G1 F6300
G1 X118.379 Y116.601 E.0224
G1 X122.982 Y121.204 E.24249
G1 X122.982 Y121.982 E.02897
G1 X122.204 Y121.982 E.02897
G1 X117.101 Y116.879 E.26883
G1 X116.545 Y117.109 E.0224
G1 X116.545 Y127.186 E.37535
G1 X116.809 Y127.45 E.01389
G1 X120.175 Y127.45 E.12538
G1 X120.175 Y128.55 E.04097
G1 X116.809 Y128.55 E.12538
G1 X116.545 Y128.814 E.01389
G1 X116.545 Y138.891 E.37535
G1 X117.101 Y139.121 E.0224
G1 X122.204 Y134.018 E.26883
G1 X122.982 Y134.018 E.02897
G1 X122.982 Y134.796 E.02897
G1 X118.379 Y139.399 E.24249
G1 X118.609 Y139.955 E.0224
G1 X128.186 Y139.955 E.35673
G1 X128.45 Y139.691 E.01389
G1 X128.45 Y136.825 E.10676
G1 X129.55 Y136.825 E.04097
G1 X129.55 Y139.691 E.10676
G1 X129.814 Y139.955 E.01389
G1 X139.391 Y139.955 E.35673
G1 X139.621 Y139.399 E.0224
G1 X135.018 Y134.796 E.24249
G1 X135.018 Y134.018 E.02897
G1 X135.796 Y134.018 E.02897
G1 X140.899 Y139.121 E.26883
G1 X141.455 Y138.891 E.0224
G1 X141.455 Y128.814 E.37535
G1 X141.191 Y128.55 E.01389
G1 X137.825 Y128.55 E.12538
G1 X137.825 Y127.45 E.04097
G1 X141.191 Y127.45 E.12538
G1 X141.455 Y127.186 E.01389
G1 X141.455 Y117.109 E.37535
G1 X140.899 Y116.879 E.0224
G1 X135.796 Y121.982 E.26883
G1 X135.018 Y121.982 E.02897
G1 X135.018 Y121.204 E.02897
G1 X139.621 Y116.601 E.24249
G1 X139.391 Y116.045 E.0224
G1 X129.814 Y116.045 E.35673
G1 X129.55 Y116.309 E.01389
G1 X129.55 Y119.175 E.10676
G1 X128.45 Y119.175 E.04097
G1 X128.45 Y116.309 E.10676
G1 X128.186 Y116.045 E.01389
G1 X118.677 Y116.045 E.35418
;WIPE_START
G1 F23040
G1 X128.186 Y116.045 E-1.4115
G1 X128.45 Y116.309 E-.05534
G1 X128.45 Y119.175 E-.42547
G1 X128.502 Y119.175 E-.00769
;WIPE_END
G1 E-.1 F3600
G1 Z.6 F28800
G1 X148.299 Y147.54
G1 Z.2
G1 E2 F1800
G1 F6300
G1 X148.299 Y108.665 E1.44794
G1 X147.791 Y108.665 E.01892
G1 X147.791 Y147.335 E1.44028
G1 X147.283 Y147.335 E.01892
G1 X147.283 Y108.665 E1.44028
G1 X146.775 Y108.665 E.01892
G1 X146.775 Y147.335 E1.44028
G1 X146.267 Y147.335 E.01892
G1 X146.267 Y108.665 E1.44028
G1 X145.76 Y108.665 E.01892
G1 X145.76 Y147.335 E1.44028
G1 X145.252 Y147.335 E.01892
G1 X145.252 Y108.665 E1.44028
G1 X144.744 Y108.665 E.01892
G1 X144.744 Y147.335 E1.44028
G1 X144.236 Y147.335 E.01892
G1 X144.236 Y108.665 E1.44028
G1 X143.728 Y108.665 E.01892
G1 X143.728 Y147.335 E1.44028
G1 X143.22 Y147.335 E.01892
G1 X143.22 Y108.665 E1.44028
G1 X142.712 Y108.665 E.01892
G1 X142.712 Y147.335 E1.44028
G1 X142.205 Y147.335 E.01892
G1 X142.205 Y108.665 E1.44028
G1 X141.697 Y108.665 E.01892
G1 X141.697 Y147.335 E1.44028
G1 X141.189 Y147.335 E.01892
G1 X141.189 Y139.447 E.29379
G1 X140.803 Y139.607 E.01557
G1 X140.681 Y139.485 E.00641
G1 X140.681 Y147.335 E.29237
G1 X140.173 Y147.335 E.01892
G1 X140.173 Y138.977 E.31129
G1 X139.665 Y138.469 E.02675
G1 X139.665 Y138.861 E.0146
G1 X139.157 Y138.353 E.02675
G1 X139.157 Y137.961 E.0146
G1 X138.649 Y137.453 E.02675
G1 X138.649 Y137.846 E.0146
G1 X138.142 Y137.338 E.02675
G1 X138.142 Y136.946 E.0146
G1 X137.634 Y136.438 E.02675
G1 X137.634 Y136.83 E.0146
G1 X137.126 Y136.322 E.02675
G1 X137.126 Y135.93 E.0146
G1 X136.618 Y135.422 E.02675
G1 X136.618 Y135.814 E.0146
G1 X136.11 Y135.306 E.02675
G1 X136.11 Y134.914 E.0146
G1 X135.625 Y134.429 E.02554
G1 X135.602 Y134.429 E.00086
G1 X135.602 Y135.089 E.02458
;WIPE_START
G1 F23040
G1 X135.602 Y134.429 E-.09797
G1 X135.625 Y134.429 E-.00341
G1 X136.11 Y134.914 E-.10179
G1 X136.11 Y135.306 E-.0582
G1 X136.618 Y135.814 E-.10661
G1 X136.618 Y135.422 E-.0582
G1 X137.126 Y135.93 E-.10661
G1 X137.126 Y136.322 E-.0582
G1 X137.634 Y136.83 E-.10661
G1 X137.634 Y136.438 E-.0582
G1 X138.142 Y136.946 E-.10661
G1 X138.142 Y137.338 E-.0582
G1 X138.649 Y137.846 E-.10661
G1 X138.649 Y137.453 E-.0582
G1 X139.157 Y137.961 E-.10661
G1 X139.157 Y138.353 E-.0582
G1 X139.665 Y138.861 E-.10661
G1 X139.665 Y138.469 E-.0582
G1 X140.173 Y138.977 E-.10661
G1 X140.173 Y141.526 E-.3783
;WIPE_END
G1 E-.1 F3600
G1 Z.6 F28800
G1 X141.189 Y128.344
G1 Z.2
G1 E2 F1800
G1 F6300
G1 X141.189 Y127.861 E.01799
G1 X140.681 Y127.861 E.01892
G1 X140.681 Y128.139 E.01033
G1 X140.173 Y128.139 E.01892
G1 X140.173 Y127.861 E.01033
G1 X139.665 Y127.861 E.01892
G1 X139.665 Y128.139 E.01033
G1 X139.157 Y128.139 E.01892
G1 X139.157 Y127.861 E.01033
G1 X138.649 Y127.861 E.01892
G1 X138.649 Y128.344 E.01799
;WIPE_START
G1 F23040
G1 X138.649 Y127.861 E-.07169
G1 X139.157 Y127.861 E-.07539
G1 X139.157 Y128.139 E-.04116
G1 X139.665 Y128.139 E-.07539
G1 X139.665 Y127.861 E-.04116
G1 X140.173 Y127.861 E-.07539
G1 X140.173 Y128.139 E-.04116
G1 X140.681 Y128.139 E-.07539
G1 X140.681 Y127.861 E-.04116
G1 X141.189 Y127.861 E-.07539
G1 X141.189 Y128.344 E-.07169
;WIPE_END
G1 E-1.31507 F3600
G1 Z.6 F28800
G1 X141.189 Y116.776
G1 Z.2
G1 E2 F1800
G1 F6300
G1 X141.189 Y108.665 E.30208
G1 X140.681 Y108.665 E.01892
G1 X140.681 Y116.515 E.29237
G1 X140.173 Y117.023 E.02675
G1 X140.173 Y108.665 E.31129
G1 X139.665 Y108.665 E.01892
G1 X139.665 Y115.634 E.25955
G1 X139.157 Y115.634 E.01892
G1 X139.157 Y108.665 E.25955
G1 X138.649 Y108.665 E.01892
G1 X138.649 Y115.634 E.25955
G1 X138.142 Y115.634 E.01892
G1 X138.142 Y108.665 E.25955
G1 X137.736 Y108.665 E.0151
G1 X137.736 Y111.473 E.10455
G1 X137.634 Y111.473 E.00382
G1 X137.634 Y115.634 E.15499
G1 X137.126 Y115.634 E.01892
G1 X137.126 Y111.473 E.15499
G1 X136.618 Y111.473 E.01892
G1 X136.618 Y115.634 E.15499
G1 X136.11 Y115.634 E.01892
G1 X136.11 Y111.473 E.15499
G1 X135.602 Y111.473 E.01892
G1 X135.602 Y115.634 E.15499
G1 X135.094 Y115.634 E.01892
G1 X135.094 Y111.473 E.15499
G1 X134.587 Y111.473 E.01892
G1 X134.587 Y115.634 E.15499
G1 X134.079 Y115.634 E.01892
G1 X134.079 Y108.665 E.25955
G1 X133.571 Y108.665 E.01892
G1 X133.571 Y115.634 E.25955
G1 X133.063 Y115.634 E.01892
G1 X133.063 Y108.665 E.25955
G1 X132.555 Y108.665 E.01892
G1 X132.555 Y115.634 E.25955
G1 X132.047 Y115.634 E.01892
G1 X132.047 Y108.665 E.25955
G1 X131.539 Y108.665 E.01892
G1 X131.539 Y115.634 E.25955
G1 X131.031 Y115.634 E.01892
G1 X131.031 Y108.665 E.25955
G1 X130.524 Y108.665 E.01892
G1 X130.524 Y115.634 E.25955
G1 X130.016 Y115.634 E.01892
G1 X130.016 Y108.665 E.25955
G1 X129.508 Y108.665 E.01892
G1 X129.508 Y115.769 E.26459
G1 X129.139 Y116.138 E.01945
G1 X129.139 Y118.764 E.09778
G1 X129 Y118.764 E.00516
G1 X129 Y108.665 E.37612
G1 X128.492 Y108.665 E.01892
G1 X128.492 Y115.769 E.26459
G1 X128.357 Y115.634 E.00713
G1 X127.984 Y115.634 E.01388
G1 X127.984 Y108.665 E.25955
G1 X127.476 Y108.665 E.01892
G1 X127.476 Y115.634 E.25955
G1 X126.969 Y115.634 E.01892
G1 X126.969 Y108.665 E.25955
G1 X126.461 Y108.665 E.01892
G1 X126.461 Y115.634 E.25955
G1 X125.953 Y115.634 E.01892
G1 X125.953 Y108.665 E.25955
G1 X125.445 Y108.665 E.01892
G1 X125.445 Y115.634 E.25955
G1 X124.937 Y115.634 E.01892
G1 X124.937 Y108.665 E.25955
G1 X124.429 Y108.665 E.01892
G1 X124.429 Y115.634 E.25955
G1 X123.921 Y115.634 E.01892
G1 X123.921 Y108.665 E.25955
G1 X123.701 Y108.665 E.00821
G1 X123.701 Y111.473 E.10455
G1 X123.413 Y111.473 E.0107
G1 X123.413 Y115.634 E.15499
G1 X122.906 Y115.634 E.01892
G1 X122.906 Y111.473 E.15499
G1 X122.398 Y111.473 E.01892
G1 X122.398 Y115.634 E.15499
G1 X121.89 Y115.634 E.01892
G1 X121.89 Y111.473 E.15499
G1 X121.382 Y111.473 E.01892
G1 X121.382 Y115.634 E.15499
G1 X120.874 Y115.634 E.01892
G1 X120.874 Y111.473 E.15499
G1 X120.366 Y111.473 E.01892
G1 X120.366 Y115.634 E.15499
G1 X119.858 Y115.634 E.01892
G1 X119.858 Y108.665 E.25955
G1 X119.351 Y108.665 E.01892
G1 X119.351 Y115.634 E.25955
G1 X118.843 Y115.634 E.01892
G1 X118.843 Y108.665 E.25955
G1 X118.335 Y108.665 E.01892
G1 X118.335 Y115.634 E.25955
G1 X117.893 Y116.697 E.04289
G1 X118.335 Y117.139 E.02325
G1 X118.335 Y117.531 E.0146
G1 X118.843 Y118.039 E.02675
G1 X118.843 Y117.647 E.0146
G1 X119.351 Y118.154 E.02675
G1 X119.351 Y118.547 E.0146
G1 X119.858 Y119.054 E.02675
G1 X119.858 Y118.662 E.0146
G1 X120.366 Y119.17 E.02675
G1 X120.366 Y119.562 E.0146
G1 X120.874 Y120.07 E.02675
G1 X120.874 Y119.678 E.0146
G1 X121.382 Y120.186 E.02675
G1 X121.382 Y120.578 E.0146
G1 X121.89 Y121.086 E.02675
G1 X121.89 Y120.694 E.0146
G1 X122.398 Y121.202 E.02675
G1 X122.398 Y121.777 E.02141
;WIPE_START
G1 F23040
G1 X122.398 Y121.202 E-.08533
G1 X121.89 Y120.694 E-.10661
G1 X121.89 Y121.086 E-.0582
G1 X121.382 Y120.578 E-.10661
G1 X121.382 Y120.186 E-.0582
G1 X120.874 Y119.678 E-.10661
G1 X120.874 Y120.07 E-.0582
G1 X120.366 Y119.562 E-.10661
G1 X120.366 Y119.17 E-.0582
G1 X119.858 Y118.662 E-.10661
G1 X119.858 Y119.054 E-.0582
G1 X119.351 Y118.547 E-.10661
G1 X119.351 Y118.154 E-.0582
G1 X118.843 Y117.647 E-.10661
G1 X118.843 Y118.039 E-.0582
G1 X118.335 Y117.531 E-.10661
G1 X118.335 Y117.139 E-.0582
G1 X117.893 Y116.697 E-.09267
G1 X118.335 Y115.634 E-.17092
G1 X118.335 Y114.067 E-.23256
;WIPE_END
G1 E-.1 F3600
G1 Z.6 F28800
G1 X139.665 Y147.54
G1 Z.2
G1 E2 F1800
G1 F6300
