; generated by PrusaSlicer 2.5.0 on 2025-03-28 at 10:28:23 UTC

; 

; external perimeters extrusion width = 0.40mm
; perimeters extrusion width = 0.45mm
; infill extrusion width = 0.45mm
; solid infill extrusion width = 0.45mm
; top infill extrusion width = 0.40mm
; support material extrusion width = 0.35mm
; first layer extrusion width = 0.50mm

M107
;TYPE:Custom
;===== date: 2022,09,19 =====================
;===== reset machine status =================
G91
M17 Z0.3 ; lower the z-motor current
G0 Z7 F300 ; lower the hotbed , to prevent the nozzle is below the hotbed
G90
M17 X1.2 Y1.2 Z0.75 ; reset motor current to default
M960 S5 P1 ; turn on logo lamp
G90
M220 S100 ;Reset Feedrate
M221 S100 ;Reset Flowrate
M73.2   R1.0 ;Reset left time magnitude
M1002 set_gcode_claim_speed_level : 5
M221 X0 Y0 Z0 ; turn off soft endstop to prevent protential logic problem

;===== heatbed preheat ====================
M1002 gcode_claim_action : 2
M140 S35 ;set bed temp
M190 S35 ;wait for bed temp

;=============turn on fans to prevent PLA jamming=================

    ;Prevent PLA from jamming

M106 P2 S100 ; turn on big fan ,to cool down toolhead

;===== prepare print temperature and material ==========
M104 S220 ;set extruder temp
G91
G0 Z2 F1200
G90
G28 X
M975 S1 ; turn on 
G1 X60 F12000
G1 Y245
G1 Y265 F3000
M620 M
M620 S0A   ; switch material if AMS exist
    M109 S220
    G1 X120 F12000

    G1 X20 Y50 F12000
    G1 Y-3
    T0
    G1 X54 F12000
    G1 Y265
    M400
M621 S0A

M412 S1 ; ===turn on filament runout detection===

M109 S250 ;set nozzle to common flush temp
M106 P1 S0
G92 E0
G1 E50 F200
M400
M104 S220
G92 E0
G1 E50 F200
M400
M106 P1 S255
G92 E0
G1 E5 F300
M109 S200 ; drop nozzle temp, make filament shink a bit
G92 E0
G1 E-0.5 F300

G1 X70 F9000
G1 X76 F15000
G1 X65 F15000
G1 X76 F15000
G1 X65 F15000; shake to put down garbage
G1 X80 F6000
G1 X95 F15000
G1 X80 F15000
G1 X165 F15000; wipe and shake
M400
M106 P1 S0
;===== prepare print temperature and material end =====


;===== wipe nozzle ===============================
M1002 gcode_claim_action : 14
M975 S1
M106 S255
G1 X65 Y230 F18000
G1 Y264 F6000
M109 S200
G1 X100 F18000 ; first wipe mouth

G0 X135 Y261 F20000  ; move to exposed steel surface edge
G28 Z P0 T300; home z with low precision,permit 300deg temperature
G29.2 S0 ; turn off ABL
G0 Z2 F20000

G1 X60 Y265
G92 E0
G1 E-0.5 F300 ; retrack more
G1 X100 F5000; second wipe mouth
G1 X70 F15000
G1 X100 F5000
G1 X70 F15000
G1 X100 F5000
G1 X70 F15000
G1 X100 F5000
G1 X70 F15000
G1 X90 F5000
G0 X128 Y261 Z-1.5 F20000  ; move to exposed steel surface and stop the nozzle
M104 S140 ; set temp down to heatbed acceptable
M106 S255 ; turn on fan (G28 has turn off fan)

M221 S; push soft endstop status
M221 Z0 ;turn off Z axis endstop
G0 Z0.5 F20000
G0 X125 Y259.5 Z-1.01
G0 X131 F211
G0 X124
G0 Z0.5 F20000
G0 X125 Y262.5
G0 Z-1.01
G0 X131 F211
G0 X124
G0 Z0.5 F20000
G0 X125 Y260.0
G0 Z-1.01
G0 X131 F211
G0 X124
G0 Z0.5 F20000
G0 X125 Y262.0
G0 Z-1.01
G0 X131 F211
G0 X124
G0 Z0.5 F20000
G0 X125 Y260.5
G0 Z-1.01
G0 X131 F211
G0 X124
G0 Z0.5 F20000
G0 X125 Y261.5
G0 Z-1.01
G0 X131 F211
G0 X124
G0 Z0.5 F20000
G0 X125 Y261.0
G0 Z-1.01
G0 X131 F211
G0 X124
G0 X128
G2 I0.5 J0 F300
G2 I0.5 J0 F300
G2 I0.5 J0 F300
G2 I0.5 J0 F300

M109 S140 ; wait nozzle temp down to heatbed acceptable
G2 I0.5 J0 F3000
G2 I0.5 J0 F3000
G2 I0.5 J0 F3000
G2 I0.5 J0 F3000

M221 R; pop softend status
G1 Z10 F1200
M400
G1 Z10
G1 F30000
G1 X230 Y15
G29.2 S1 ; turn on ABL
;G28 ; home again after hard wipe mouth
M106 S0 ; turn off fan , too noisy
;===== wipe nozzle end ================================


;===== bed leveling ==================================
M1002 judge_flag g29_before_print_flag
M622 J1

    M1002 gcode_claim_action : 1
    G29 A X110.99 Y109.989 I36.0206 J36.0206
    M400
    M500 ; save cali data

M623
;===== bed leveling end ================================

;===== home after wipe mouth============================
M1002 judge_flag g29_before_print_flag
M622 J0

    M1002 gcode_claim_action : 13
    G28

M623
;===== home after wipe mouth end =======================

M975 S1 ; turn on vibration supression

=============turn on fans to prevent PLA jamming=================

    ;Prevent PLA from jamming

M106 P2 S100 ; turn on big fan ,to cool down toolhead


M104 S220 ; set extrude temp earlier, to reduce wait time

;===== mech mode fast check============================
G1 X128 Y128 Z5 F20000
M400 P200
M970.3 Q1 A7 B30 C80  H15 K0
M974 Q1 S2 P0

G1 X128 Y128 Z5 F20000
M400 P200
M970.3 Q0 A7 B30 C90 Q0 H15 K0
M974 Q0 S2 P0

M975 S1
G1 F30000
G1 X230 Y15
G28 X ; re-home XY 
;===== fmech mode fast check============================


;===== noozle load line ===============================
M975 S1
G90 
M83
T1000
G1 X18.0 Y5.0 Z0.3 F18000;Move to start position
M109 S220
G0 E3 F300
G0 X240 E15 F6400 
G0 Y5.5 
G0 X18 E15
M400

;========turn off light and wait extrude temperature =============
M1002 gcode_claim_action : 0
M973 S4 ; turn off scanner
M400 ; wait all motion done before implement the emprical L parameters
;M900 L500.0 ; Empirical parameters
M109 S220
M960 S1 P0 ; turn off laser
M960 S2 P0 ; turn off laser
M106 S0 ; turn off fan
M106 P2 S0 ; turn off big fan 
M106 P3 S0 ; turn off chamber fan

M975 S1 ; turn on mech mode supression
G90 
M83
T1000
G1 X128.0 Y253.0 Z0.2 F6000.0;Move to start position
M109 S220
G0 X253 E6.4 F5333.33 
G0 Y128 E6.4
G0 X252.5
G0 Y252.5 E6.4
G0 X128 E6.4
G21 ; set units to millimeters
G90 ; use absolute coordinates
M83 ; use relative distances for extrusion
; Filament gcode
M106 P2 S178 ; Chamber fan, 70%, I think
M107
;LAYER_CHANGE
;Z:0.2
;HEIGHT:0.2
G92 E0
M971 S11 C10 O0
G1 E-2 F3600
G1 Z.4 F28800
G1 X114.013 Y114.013
G1 Z.2
G1 E2 F1800
;TYPE:Skirt/Brim
;WIDTH:0.5
G1 F6300
G1 X115.917 Y112.109 E.10027
G1 X117.773 Y110.814 E.08433
G1 X120.482 Y110.218 E.10332
G1 X137.518 Y110.218 E.6345
G1 X139.747 Y110.615 E.08433
G1 X142.083 Y112.109 E.10332
G1 X144.891 Y114.916 E.14786
G1 X146.186 Y116.773 E.08433
G1 X146.782 Y119.482 E.10332
G1 X146.782 Y136.517 E.6345
G1 X146.385 Y138.746 E.08433
G1 X144.891 Y141.083 E.10332
G1 X142.083 Y143.89 E.14786
G1 X140.227 Y145.186 E.08433
G1 X137.518 Y145.781 E.10332
G1 X120.482 Y145.781 E.6345
G1 X118.253 Y145.385 E.08433
G1 X115.917 Y143.89 E.10332
G1 X113.109 Y141.083 E.14786
G1 X111.814 Y139.226 E.08433
G1 X111.218 Y136.517 E.10332
G1 X111.218 Y119.482 E.6345
G1 X111.615 Y117.253 E.08433
G1 X113.109 Y114.916 E.10332
G1 X113.97 Y114.055 E.04535
;WIPE_START
G1 F23040
G1 X115.917 Y112.109 E-.40853
G1 X117.773 Y110.814 E-.33606
G1 X120.482 Y110.218 E-.41174
G1 X125.492 Y110.218 E-.74367
;WIPE_END
G1 E-.1 F3600
G1 Z.6 F28800
G1 X137.518 Y119.482
G1 Z.2
G1 E2 F1800
;TYPE:Support material
G1 F6300
G1 X140.325 Y119.482 E.10455
G1 X140.325 Y136.517 E.6345
G1 X137.518 Y136.517 E.10455
G1 X137.518 Y139.324 E.10455
G1 X120.482 Y139.324 E.6345
G1 X120.482 Y136.517 E.10455
G1 X117.675 Y136.517 E.10455
G1 X117.675 Y119.482 E.6345
G1 X120.482 Y119.482 E.10455
G1 X120.482 Y116.675 E.10455
G1 X137.518 Y116.675 E.6345
G1 X137.518 Y119.414 E.102
;WIPE_START
G1 F23040
G1 X137.518 Y116.675 E-.4065
G1 X127.456 Y116.675 E-1.4935
;WIPE_END
G1 E-.1 F3600
G1 Z.6 F28800
G1 X125.768 Y130.755
G1 Z.2
G1 E2 F1800
G1 F6300
G1 X124.233 Y132.29 E.08085
G1 X124.241 Y132.673 E.01427
G1 X124.753 Y133.145 E.02596
G1 X125.158 Y133.463 E.01916
G1 X125.586 Y133.748 E.01916
G1 X126.035 Y133.999 E.01916
G1 X126.502 Y134.214 E.01915
G1 X126.985 Y134.391 E.01916
G1 X127.463 Y134.526 E.0185
G1 X127.967 Y134.627 E.01916
G1 X128.478 Y134.688 E.01916
G1 X129.009 Y134.709 E.01981
G1 X129.505 Y134.689 E.0185
G1 X130.016 Y134.63 E.01916
G1 X130.521 Y134.53 E.01916
G1 X131.016 Y134.391 E.01916
G1 X131.499 Y134.214 E.01916
G1 X131.933 Y134.014 E.01781
G1 X132.43 Y133.739 E.02116
G1 X132.843 Y133.463 E.0185
G1 X133.248 Y133.145 E.01916
G1 X133.76 Y132.673 E.02596
G1 X133.767 Y132.29 E.01427
G1 X132.232 Y130.755 E.08085
G1 X131.872 Y130.746 E.01343
G1 X131.46 Y131.122 E.02075
G1 X131.176 Y131.336 E.01325
G1 X130.874 Y131.523 E.01325
G1 X130.556 Y131.682 E.01325
G1 X130.224 Y131.81 E.01325
G1 X129.882 Y131.908 E.01325
G1 X129.532 Y131.973 E.01325
G1 X129.178 Y132.006 E.01325
G1 X128.823 Y132.006 E.01325
G1 X128.468 Y131.973 E.01325
G1 X128.119 Y131.908 E.01325
G1 X127.777 Y131.81 E.01325
G1 X127.445 Y131.682 E.01325
G1 X127.127 Y131.523 E.01325
G1 X126.824 Y131.336 E.01325
G1 X126.541 Y131.122 E.01324
G1 X126.129 Y130.746 E.02075
G1 X125.837 Y130.753 E.01088
;WIPE_START
G1 F23040
G1 X126.129 Y130.746 E-.04335
G1 X126.541 Y131.122 E-.08271
G1 X126.824 Y131.336 E-.05276
G1 X127.127 Y131.523 E-.0528
G1 X127.445 Y131.682 E-.05279
G1 X127.777 Y131.81 E-.05279
G1 X128.119 Y131.908 E-.0528
G1 X128.468 Y131.973 E-.0528
G1 X128.823 Y132.006 E-.05279
G1 X129.178 Y132.006 E-.0528
G1 X129.532 Y131.973 E-.05279
G1 X129.882 Y131.908 E-.0528
G1 X130.224 Y131.81 E-.0528
G1 X130.556 Y131.682 E-.05279
G1 X130.874 Y131.523 E-.05279
G1 X131.176 Y131.336 E-.0528
G1 X131.46 Y131.122 E-.05279
G1 X131.872 Y130.746 E-.08268
G1 X132.232 Y130.755 E-.05354
G1 X133.767 Y132.29 E-.32221
G1 X133.76 Y132.673 E-.05688
G1 X133.248 Y133.145 E-.10347
G1 X132.843 Y133.463 E-.07634
G1 X132.43 Y133.739 E-.07372
G1 X131.933 Y134.014 E-.08432
G1 X131.499 Y134.214 E-.07097
G1 X131.132 Y134.348 E-.05792
;WIPE_END
G1 E-.1 F3600
G1 Z.6 F28800
G1 X122.943 Y126.159
G1 Z.2
G1 E2 F1800
G1 F6300
G1 X122.696 Y126.356 E.01177
G1 X122.559 Y126.972 E.02348
G1 X122.489 Y127.447 E.0179
G1 X122.455 Y127.91 E.01729
G1 X122.454 Y128.391 E.0179
G1 X122.491 Y128.887 E.01852
G1 X122.562 Y129.362 E.0179
G1 X122.696 Y129.961 E.02287
G1 X122.943 Y130.159 E.01177
G1 X125.219 Y130.159 E.08477
G1 X125.488 Y129.785 E.01717
G1 X125.296 Y129.21 E.02257
G1 X125.215 Y128.865 E.01321
G1 X125.166 Y128.513 E.01321
G1 X125.15 Y128.159 E.01321
G1 X125.166 Y127.805 E.01321
G1 X125.215 Y127.453 E.01322
G1 X125.296 Y127.108 E.01321
G1 X125.488 Y126.533 E.02257
G1 X125.219 Y126.159 E.01717
G1 X123.011 Y126.159 E.08222
G1 X132.782 Y126.159 F28800
G1 F6300
G1 X132.513 Y126.533 E.01717
G1 X132.705 Y127.108 E.02257
G1 X132.786 Y127.453 E.01321
G1 X132.835 Y127.805 E.01321
G1 X132.851 Y128.159 E.01321
G1 X132.835 Y128.513 E.01321
G1 X132.786 Y128.865 E.01322
G1 X132.705 Y129.21 E.01321
G1 X132.513 Y129.785 E.02257
G1 X132.782 Y130.159 E.01717
G1 X135.058 Y130.159 E.08477
G1 X135.305 Y129.961 E.01177
G1 X135.442 Y129.346 E.02348
G1 X135.512 Y128.87 E.0179
G1 X135.546 Y128.408 E.01729
G1 X135.546 Y127.91 E.01852
G1 X135.51 Y127.431 E.0179
G1 X135.439 Y126.956 E.0179
G1 X135.305 Y126.356 E.02287
G1 X135.058 Y126.159 E.01177
G1 X132.851 Y126.159 E.08222
;WIPE_START
G1 F23040
G1 X135.058 Y126.159 E-.32766
G1 X135.305 Y126.356 E-.0469
G1 X135.439 Y126.956 E-.09113
G1 X135.51 Y127.431 E-.07135
G1 X135.546 Y127.91 E-.07135
G1 X135.546 Y128.408 E-.07381
G1 X135.512 Y128.87 E-.0689
G1 X135.442 Y129.346 E-.07135
G1 X135.305 Y129.961 E-.09358
G1 X135.058 Y130.159 E-.0469
G1 X132.782 Y130.159 E-.33784
G1 X132.513 Y129.785 E-.06842
G1 X132.705 Y129.21 E-.08996
G1 X132.786 Y128.865 E-.05266
G1 X132.835 Y128.513 E-.05267
G1 X132.851 Y128.159 E-.05266
G1 X132.835 Y127.805 E-.05266
G1 X132.786 Y127.453 E-.05266
G1 X132.705 Y127.108 E-.05266
G1 X132.513 Y126.533 E-.08996
G1 X132.65 Y126.342 E-.03491
;WIPE_END
G1 E-.1 F3600
G1 Z.6 F28800
G1 X128.992 Y121.609
G1 Z.2
G1 E2 F1800
G1 F6300
G1 X128.478 Y121.63 E.01916
G1 X127.984 Y121.688 E.0185
G1 X127.463 Y121.792 E.01981
G1 X126.968 Y121.932 E.01916
G1 X126.502 Y122.104 E.0185
G1 X126.035 Y122.319 E.01916
G1 X125.586 Y122.57 E.01916
G1 X125.143 Y122.865 E.01981
G1 X124.74 Y123.184 E.01916
G1 X124.241 Y123.645 E.02531
G1 X124.233 Y124.028 E.01427
G1 X125.768 Y125.563 E.08085
G1 X126.129 Y125.572 E.01343
G1 X126.54 Y125.196 E.02075
G1 X126.824 Y124.982 E.01325
G1 X127.127 Y124.795 E.01325
G1 X127.445 Y124.636 E.01325
G1 X127.777 Y124.508 E.01325
G1 X128.119 Y124.41 E.01325
G1 X128.468 Y124.345 E.01325
G1 X128.823 Y124.312 E.01325
G1 X129.178 Y124.312 E.01325
G1 X129.532 Y124.345 E.01325
G1 X129.882 Y124.41 E.01325
G1 X130.224 Y124.508 E.01325
G1 X130.556 Y124.636 E.01325
G1 X130.874 Y124.795 E.01325
G1 X131.176 Y124.982 E.01325
G1 X131.46 Y125.196 E.01324
G1 X131.872 Y125.572 E.02075
G1 X132.232 Y125.563 E.01343
G1 X133.767 Y124.028 E.08085
G1 X133.76 Y123.645 E.01427
G1 X133.261 Y123.184 E.02531
G1 X132.857 Y122.865 E.01916
G1 X132.43 Y122.579 E.01916
G1 X131.982 Y122.327 E.01916
G1 X131.499 Y122.104 E.01981
G1 X131.016 Y121.927 E.01916
G1 X130.538 Y121.792 E.0185
G1 X130.016 Y121.688 E.01981
G1 X129.523 Y121.63 E.0185
G1 X129.06 Y121.611 E.01726
;WIPE_START
G1 F23040
G1 X129.523 Y121.63 E-.06879
G1 X130.016 Y121.688 E-.07372
G1 X130.538 Y121.792 E-.07897
G1 X131.016 Y121.927 E-.07372
G1 X131.499 Y122.104 E-.07635
G1 X131.982 Y122.327 E-.07896
G1 X132.43 Y122.579 E-.07634
G1 X132.857 Y122.865 E-.07634
G1 X133.261 Y123.184 E-.07634
G1 X133.76 Y123.645 E-.10085
G1 X133.767 Y124.028 E-.05688
G1 X132.232 Y125.563 E-.32221
G1 X131.872 Y125.572 E-.05353
G1 X131.46 Y125.196 E-.08271
G1 X131.176 Y124.982 E-.05276
G1 X130.874 Y124.795 E-.0528
G1 X130.556 Y124.636 E-.05279
G1 X130.224 Y124.508 E-.05279
G1 X129.882 Y124.41 E-.0528
G1 X129.532 Y124.345 E-.0528
G1 X129.178 Y124.312 E-.05279
G1 X128.823 Y124.312 E-.0528
G1 X128.468 Y124.345 E-.05279
G1 X128.119 Y124.41 E-.0528
G1 X127.777 Y124.508 E-.0528
G1 X127.628 Y124.565 E-.02359
;WIPE_END
G1 E-.1 F3600
G1 Z.6 F28800
G1 X139.665 Y136.312
G1 Z.2
G1 E2 F1800
G1 F6300
G1 X139.665 Y119.894 E.61151
G1 X139.157 Y119.894 E.01892
G1 X139.157 Y136.106 E.60385
G1 X138.649 Y136.106 E.01892
G1 X138.649 Y119.894 E.60385
G1 X138.142 Y119.894 E.01892
G1 X138.142 Y136.106 E.60385
G1 X137.634 Y136.106 E.01892
G1 X137.634 Y119.894 E.60385
G1 X137.126 Y119.894 E.01892
G1 X137.126 Y136.106 E.60385
G1 X137.106 Y136.106 E.00073
G1 X137.106 Y138.913 E.10455
G1 X136.618 Y138.913 E.01819
G1 X136.618 Y117.086 E.81296
G1 X136.11 Y117.086 E.01892
G1 X136.11 Y138.913 E.81296
G1 X135.602 Y138.913 E.01892
G1 X135.602 Y130.25 E.32266
G1 X135.203 Y130.57 E.01907
G1 X135.094 Y130.57 E.00403
G1 X135.094 Y138.913 E.31073
G1 X134.587 Y138.913 E.01892
G1 X134.587 Y130.57 E.31073
G1 X134.079 Y130.57 E.01892
G1 X134.079 Y138.913 E.31073
G1 X133.571 Y138.913 E.01892
G1 X133.571 Y133.408 E.20505
G1 X133.063 Y133.811 E.02416
G1 X133.063 Y138.913 E.19003
G1 X132.555 Y138.913 E.01892
G1 X132.555 Y134.142 E.17772
G1 X132.047 Y134.415 E.02148
G1 X132.047 Y138.913 E.16755
G1 X131.539 Y138.913 E.01892
G1 X131.539 Y134.637 E.15926
G1 X131.031 Y134.814 E.02003
G1 X131.031 Y138.913 E.15267
G1 X130.524 Y138.913 E.01892
G1 X130.524 Y134.949 E.14765
G1 X130.016 Y135.044 E.01924
G1 X130.016 Y138.913 E.14411
G1 X129.508 Y138.913 E.01892
G1 X129.508 Y135.101 E.14198
G1 X129 Y135.12 E.01893
G1 X129 Y138.913 E.14126
G1 X128.492 Y138.913 E.01892
G1 X128.492 Y135.101 E.14198
G1 X127.984 Y135.044 E.01904
G1 X127.984 Y138.913 E.14411
G1 X127.476 Y138.913 E.01892
G1 X127.476 Y134.949 E.14765
G1 X126.969 Y134.814 E.01957
G1 X126.969 Y138.913 E.15268
G1 X126.461 Y138.913 E.01892
G1 X126.461 Y134.637 E.15927
G1 X125.953 Y134.414 E.02065
G1 X125.953 Y138.913 E.16756
G1 X125.445 Y138.913 E.01892
G1 X125.445 Y134.141 E.17774
G1 X124.937 Y133.811 E.02257
G1 X124.937 Y138.913 E.19004
G1 X124.429 Y138.913 E.01892
G1 X124.429 Y133.127 E.21551
;WIPE_START
G1 F23040
G1 X124.429 Y138.913 E-.85888
G1 X124.937 Y138.913 E-.07539
G1 X124.937 Y133.811 E-.75738
G1 X125.445 Y134.141 E-.08994
G1 X125.445 Y134.939 E-.11841
;WIPE_END
G1 E-.1 F3600
G1 Z.6 F28800
G1 X135.602 Y126.744
G1 Z.2
G1 E2 F1800
G1 F6300
G1 X135.602 Y117.086 E.3597
G1 X135.094 Y117.086 E.01892
G1 X135.094 Y125.748 E.3226
G1 X134.587 Y125.748 E.01892
G1 X134.587 Y117.086 E.3226
G1 X134.079 Y117.086 E.01892
G1 X134.079 Y125.748 E.3226
G1 X133.571 Y125.748 E.01892
G1 X133.571 Y124.807 E.03504
G1 X133.063 Y125.315 E.02675
G1 X133.063 Y125.953 E.02379
;WIPE_START
G1 F23040
G1 X133.063 Y125.315 E-.09481
G1 X133.571 Y124.807 E-.10661
