; generated by PrusaSlicer 2.5.0 on 2025-03-28 at 09:16:04 UTC

; 

; external perimeters extrusion width = 0.40mm
; perimeters extrusion width = 0.45mm
; infill extrusion width = 0.45mm
; solid infill extrusion width = 0.45mm
; top infill extrusion width = 0.40mm
; support material extrusion width = 0.35mm
; first layer extrusion width = 0.50mm

M107
;TYPE:Custom
;===== date: 2022,09,19 =====================
;===== reset machine status =================
G91
M17 Z0.3 ; lower the z-motor current
G0 Z7 F300 ; lower the hotbed , to prevent the nozzle is below the hotbed
G90
M17 X1.2 Y1.2 Z0.75 ; reset motor current to default
M960 S5 P1 ; turn on logo lamp
G90
M220 S100 ;Reset Feedrate
M221 S100 ;Reset Flowrate
M73.2   R1.0 ;Reset left time magnitude
M1002 set_gcode_claim_speed_level : 5
M221 X0 Y0 Z0 ; turn off soft endstop to prevent protential logic problem

;===== heatbed preheat ====================
M1002 gcode_claim_action : 2
M140 S35 ;set bed temp
M190 S35 ;wait for bed temp

;=============turn on fans to prevent PLA jamming=================

    ;Prevent PLA from jamming

M106 P2 S100 ; turn on big fan ,to cool down toolhead

;===== prepare print temperature and material ==========
M104 S220 ;set extruder temp
G91
G0 Z2 F1200
G90
G28 X
M975 S1 ; turn on 
G1 X60 F12000
G1 Y245
G1 Y265 F3000
M620 M
M620 S0A   ; switch material if AMS exist
    M109 S220
    G1 X120 F12000

    G1 X20 Y50 F12000
    G1 Y-3
    T0
    G1 X54 F12000
    G1 Y265
    M400
M621 S0A

M412 S1 ; ===turn on filament runout detection===

M109 S250 ;set nozzle to common flush temp
M106 P1 S0
G92 E0
G1 E50 F200
M400
M104 S220
G92 E0
G1 E50 F200
M400
M106 P1 S255
G92 E0
G1 E5 F300
M109 S200 ; drop nozzle temp, make filament shink a bit
G92 E0
G1 E-0.5 F300

G1 X70 F9000
G1 X76 F15000
G1 X65 F15000
G1 X76 F15000
G1 X65 F15000; shake to put down garbage
G1 X80 F6000
G1 X95 F15000
G1 X80 F15000
G1 X165 F15000; wipe and shake
M400
M106 P1 S0
;===== prepare print temperature and material end =====


;===== wipe nozzle ===============================
M1002 gcode_claim_action : 14
M975 S1
M106 S255
G1 X65 Y230 F18000
G1 Y264 F6000
M109 S200
G1 X100 F18000 ; first wipe mouth

G0 X135 Y261 F20000  ; move to exposed steel surface edge
G28 Z P0 T300; home z with low precision,permit 300deg temperature
G29.2 S0 ; turn off ABL
G0 Z2 F20000

G1 X60 Y265
G92 E0
G1 E-0.5 F300 ; retrack more
G1 X100 F5000; second wipe mouth
G1 X70 F15000
G1 X100 F5000
G1 X70 F15000
G1 X100 F5000
G1 X70 F15000
G1 X100 F5000
G1 X70 F15000
G1 X90 F5000
G0 X128 Y261 Z-1.5 F20000  ; move to exposed steel surface and stop the nozzle
M104 S140 ; set temp down to heatbed acceptable
M106 S255 ; turn on fan (G28 has turn off fan)

M221 S; push soft endstop status
M221 Z0 ;turn off Z axis endstop
G0 Z0.5 F20000
G0 X125 Y259.5 Z-1.01
G0 X131 F211
G0 X124
G0 Z0.5 F20000
G0 X125 Y262.5
G0 Z-1.01
G0 X131 F211
G0 X124
G0 Z0.5 F20000
G0 X125 Y260.0
G0 Z-1.01
G0 X131 F211
G0 X124
G0 Z0.5 F20000
G0 X125 Y262.0
G0 Z-1.01
G0 X131 F211
G0 X124
G0 Z0.5 F20000
G0 X125 Y260.5
G0 Z-1.01
G0 X131 F211
G0 X124
G0 Z0.5 F20000
G0 X125 Y261.5
G0 Z-1.01
G0 X131 F211
G0 X124
G0 Z0.5 F20000
G0 X125 Y261.0
G0 Z-1.01
G0 X131 F211
G0 X124
G0 X128
G2 I0.5 J0 F300
G2 I0.5 J0 F300
G2 I0.5 J0 F300
G2 I0.5 J0 F300

M109 S140 ; wait nozzle temp down to heatbed acceptable
G2 I0.5 J0 F3000
G2 I0.5 J0 F3000
G2 I0.5 J0 F3000
G2 I0.5 J0 F3000

M221 R; pop softend status
G1 Z10 F1200
M400
G1 Z10
G1 F30000
G1 X230 Y15
G29.2 S1 ; turn on ABL
;G28 ; home again after hard wipe mouth
M106 S0 ; turn off fan , too noisy
;===== wipe nozzle end ================================


;===== bed leveling ==================================
M1002 judge_flag g29_before_print_flag
M622 J1

    M1002 gcode_claim_action : 1
    G29 A X96.9543 Y98.7614 I64.0914 J54.5242
    M400
    M500 ; save cali data

M623
;===== bed leveling end ================================

;===== home after wipe mouth============================
M1002 judge_flag g29_before_print_flag
M622 J0

    M1002 gcode_claim_action : 13
    G28

M623
;===== home after wipe mouth end =======================

M975 S1 ; turn on vibration supression

=============turn on fans to prevent PLA jamming=================

    ;Prevent PLA from jamming

M106 P2 S100 ; turn on big fan ,to cool down toolhead


M104 S220 ; set extrude temp earlier, to reduce wait time

;===== mech mode fast check============================
G1 X128 Y128 Z5 F20000
M400 P200
M970.3 Q1 A7 B30 C80  H15 K0
M974 Q1 S2 P0

G1 X128 Y128 Z5 F20000
M400 P200
M970.3 Q0 A7 B30 C90 Q0 H15 K0
M974 Q0 S2 P0

M975 S1
G1 F30000
G1 X230 Y15
G28 X ; re-home XY 
;===== fmech mode fast check============================


;===== noozle load line ===============================
M975 S1
G90 
M83
T1000
G1 X18.0 Y5.0 Z0.3 F18000;Move to start position
M109 S220
G0 E3 F300
G0 X240 E15 F6400 
G0 Y5.5 
G0 X18 E15
M400

;========turn off light and wait extrude temperature =============
M1002 gcode_claim_action : 0
M973 S4 ; turn off scanner
M400 ; wait all motion done before implement the emprical L parameters
;M900 L500.0 ; Empirical parameters
M109 S220
M960 S1 P0 ; turn off laser
M960 S2 P0 ; turn off laser
M106 S0 ; turn off fan
M106 P2 S0 ; turn off big fan 
M106 P3 S0 ; turn off chamber fan

M975 S1 ; turn on mech mode supression
G90 
M83
T1000
G1 X128.0 Y253.0 Z0.2 F6000.0;Move to start position
M109 S220
G0 X253 E6.4 F5333.33 
G0 Y128 E6.4
G0 X252.5
G0 Y252.5 E6.4
G0 X128 E6.4
G21 ; set units to millimeters
G90 ; use absolute coordinates
M83 ; use relative distances for extrusion
; Filament gcode
M106 P2 S178 ; Chamber fan, 70%, I think
M107
;LAYER_CHANGE
;Z:0.2
;HEIGHT:0.2
G92 E0
M971 S11 C10 O0
G1 E-2 F3600
G1 Z.4 F28800
G1 X98.722 Y101.263
G1 Z.2
G1 E2 F1800
;TYPE:Skirt/Brim
;WIDTH:0.5
G1 F6300
G1 X100.468 Y99.823 E.08433
G1 X103.64 Y98.99 E.12214
G1 X154.36 Y98.99 E1.88913
G1 X156.589 Y99.387 E.08433
G1 X158.544 Y100.529 E.08433
G1 X159.985 Y102.275 E.08433
G1 X160.817 Y105.447 E.12214
G1 X160.817 Y144.939 E1.47092
G1 X160.42 Y147.168 E.08433
G1 X159.278 Y149.123 E.08433
G1 X157.402 Y150.634 E.08974
G1 X154.292 Y152.296 E.13133
G1 X151.25 Y153.057 E.1168
G1 X106.75 Y153.057 E1.65746
G1 X103.708 Y152.296 E.1168
G1 X100.598 Y150.634 E.13133
G1 X98.819 Y149.234 E.08433
G1 X97.632 Y147.306 E.08433
G1 X97.183 Y144.939 E.08974
G1 X97.183 Y105.447 E1.47092
G1 X97.58 Y103.218 E.08433
G1 X98.691 Y101.315 E.08209
;WIPE_START
G1 F23040
G1 X100.468 Y99.823 E-.34443
G1 X103.64 Y98.99 E-.48676
G1 X110.84 Y98.99 E-1.06881
;WIPE_END
G1 E-.1 F3600
G1 Z.6 F28800
G1 X154.36 Y144.939
G1 Z.2
G1 E2 F1800
;TYPE:Support material
G1 F6300
G1 X151.7 Y144.939 E.09908
G1 X151.7 Y139.114 E.21697
G1 X151.436 Y138.85 E.01389
G1 X145.746 Y138.85 E.21194
G1 X145.746 Y114.061 E.9233
G1 X134.711 Y114.061 E.41103
G1 X134.711 Y116.675 E.09737
G1 X140.325 Y116.675 E.20911
G1 X140.325 Y122.289 E.20911
G1 X143.132 Y122.289 E.10455
G1 X143.132 Y133.711 E.42539
G1 X140.325 Y133.711 E.10455
G1 X140.325 Y139.325 E.20911
G1 X134.711 Y139.325 E.20911
G1 X134.711 Y142.132 E.10455
G1 X123.289 Y142.132 E.42539
G1 X123.289 Y139.325 E.10455
G1 X117.675 Y139.325 E.20911
G1 X117.675 Y133.711 E.20911
G1 X114.868 Y133.711 E.10455
G1 X114.868 Y122.289 E.42539
G1 X117.675 Y122.289 E.10455
G1 X117.675 Y116.675 E.20911
G1 X123.289 Y116.675 E.20911
G1 X123.289 Y114.061 E.09737
G1 X112.254 Y114.061 E.41103
G1 X112.254 Y138.85 E.9233
G1 X106.564 Y138.85 E.21194
G1 X106.3 Y139.114 E.01389
G1 X106.3 Y144.939 E.21697
G1 X103.64 Y144.939 E.09908
G1 X103.64 Y105.447 E1.47092
G1 X154.36 Y105.447 E1.88913
G1 X154.36 Y144.87 E1.46837
G1 X153.885 Y144.733 F28800
G1 F6300
G1 X153.885 Y105.858 E1.44794
G1 X153.378 Y105.858 E.01892
G1 X153.378 Y144.527 E1.44028
G1 X152.87 Y144.527 E.01892
G1 X152.87 Y105.858 E1.44028
G1 X152.362 Y105.858 E.01892
G1 X152.362 Y144.527 E1.44028
G1 X152.111 Y144.527 E.00933
G1 X152.111 Y138.943 E.20799
G1 X151.854 Y138.686 E.01356
G1 X151.854 Y105.858 E1.2227
G1 X151.346 Y105.858 E.01892
G1 X151.346 Y138.439 E1.21349
G1 X150.838 Y138.439 E.01892
G1 X150.838 Y105.858 E1.21349
G1 X150.33 Y105.858 E.01892
G1 X150.33 Y138.439 E1.21349
G1 X149.823 Y138.439 E.01892
G1 X149.823 Y105.858 E1.21349
G1 X149.315 Y105.858 E.01892
G1 X149.315 Y138.439 E1.21349
G1 X148.807 Y138.439 E.01892
G1 X148.807 Y105.858 E1.21349
G1 X148.299 Y105.858 E.01892
G1 X148.299 Y138.439 E1.21349
G1 X147.791 Y138.439 E.01892
G1 X147.791 Y105.858 E1.21349
G1 X147.283 Y105.858 E.01892
G1 X147.283 Y138.439 E1.21349
G1 X146.775 Y138.439 E.01892
G1 X146.775 Y105.858 E1.21349
G1 X146.267 Y105.858 E.01892
G1 X146.267 Y138.439 E1.21349
G1 X146.157 Y138.439 E.0041
G1 X146.157 Y113.65 E.9233
G1 X145.76 Y113.65 E.01482
G1 X145.76 Y105.858 E.29019
G1 X145.252 Y105.858 E.01892
G1 X145.252 Y113.65 E.29019
G1 X144.744 Y113.65 E.01892
G1 X144.744 Y105.858 E.29019
G1 X144.236 Y105.858 E.01892
G1 X144.236 Y113.65 E.29019
G1 X143.728 Y113.65 E.01892
G1 X143.728 Y105.858 E.29019
G1 X143.22 Y105.858 E.01892
G1 X143.22 Y113.65 E.29019
G1 X142.712 Y113.65 E.01892
G1 X142.712 Y105.858 E.29019
G1 X142.205 Y105.858 E.01892
G1 X142.205 Y113.65 E.29019
G1 X141.697 Y113.65 E.01892
G1 X141.697 Y105.858 E.29019
G1 X141.189 Y105.858 E.01892
G1 X141.189 Y113.65 E.29019
G1 X140.681 Y113.65 E.01892
G1 X140.681 Y105.858 E.29019
G1 X140.173 Y105.858 E.01892
G1 X140.173 Y113.65 E.29019
G1 X139.665 Y113.65 E.01892
G1 X139.665 Y105.858 E.29019
G1 X139.157 Y105.858 E.01892
G1 X139.157 Y113.65 E.29019
G1 X138.649 Y113.65 E.01892
G1 X138.649 Y105.858 E.29019
G1 X138.142 Y105.858 E.01892
G1 X138.142 Y113.65 E.29019
G1 X137.634 Y113.65 E.01892
G1 X137.634 Y105.858 E.29019
G1 X137.126 Y105.858 E.01892
G1 X137.126 Y113.65 E.29019
G1 X136.618 Y113.65 E.01892
G1 X136.618 Y105.858 E.29019
G1 X136.11 Y105.858 E.01892
G1 X136.11 Y113.65 E.29019
G1 X135.602 Y113.65 E.01892
G1 X135.602 Y105.858 E.29019
G1 X135.094 Y105.858 E.01892
G1 X135.094 Y113.65 E.29019
G1 X134.587 Y113.65 E.01892
G1 X134.587 Y105.858 E.29019
G1 X134.079 Y105.858 E.01892
G1 X134.079 Y141.72 E1.33572
G1 X133.571 Y141.72 E.01892
G1 X133.571 Y105.858 E1.33572
G1 X133.063 Y105.858 E.01892
G1 X133.063 Y141.72 E1.33572
G1 X132.555 Y141.72 E.01892
G1 X132.555 Y105.858 E1.33572
G1 X132.047 Y105.858 E.01892
G1 X132.047 Y141.72 E1.33572
G1 X131.539 Y141.72 E.01892
G1 X131.539 Y105.858 E1.33572
G1 X131.031 Y105.858 E.01892
G1 X131.031 Y141.72 E1.33572
G1 X130.524 Y141.72 E.01892
G1 X130.524 Y105.858 E1.33572
G1 X130.016 Y105.858 E.01892
G1 X130.016 Y141.72 E1.33572
G1 X129.508 Y141.72 E.01892
G1 X129.508 Y105.858 E1.33572
G1 X129 Y105.858 E.01892
G1 X129 Y141.72 E1.33572
G1 X128.492 Y141.72 E.01892
G1 X128.492 Y105.858 E1.33572
G1 X127.984 Y105.858 E.01892
G1 X127.984 Y141.72 E1.33572
G1 X127.476 Y141.72 E.01892
G1 X127.476 Y105.858 E1.33572
G1 X126.969 Y105.858 E.01892
G1 X126.969 Y141.72 E1.33572
G1 X126.461 Y141.72 E.01892
G1 X126.461 Y105.858 E1.33572
G1 X125.953 Y105.858 E.01892
G1 X125.953 Y141.72 E1.33572
G1 X125.445 Y141.72 E.01892
G1 X125.445 Y105.858 E1.33572
G1 X124.937 Y105.858 E.01892
G1 X124.937 Y141.72 E1.33572
G1 X124.429 Y141.72 E.01892
G1 X124.429 Y105.858 E1.33572
G1 X123.921 Y105.858 E.01892
G1 X123.921 Y141.72 E1.33572
G1 X123.701 Y141.72 E.00821
G1 X123.701 Y138.913 E.10455
G1 X123.413 Y138.913 E.0107
G1 X123.413 Y117.087 E.81296
G1 X122.906 Y117.087 E.01892
G1 X122.906 Y138.913 E.81296
G1 X122.398 Y138.913 E.01892
G1 X122.398 Y117.087 E.81296
G1 X121.89 Y117.087 E.01892
G1 X121.89 Y138.913 E.81296
G1 X121.382 Y138.913 E.01892
G1 X121.382 Y117.087 E.81296
G1 X120.874 Y117.087 E.01892
G1 X120.874 Y138.913 E.81296
G1 X120.366 Y138.913 E.01892
G1 X120.366 Y117.087 E.81296
G1 X119.858 Y117.087 E.01892
G1 X119.858 Y138.913 E.81296
G1 X119.351 Y138.913 E.01892
G1 X119.351 Y117.087 E.81296
G1 X118.843 Y117.087 E.01892
G1 X118.843 Y138.913 E.81296
G1 X118.335 Y138.913 E.01892
G1 X118.335 Y117.087 E.81296
G1 X118.087 Y117.087 E.00924
G1 X118.087 Y122.701 E.20911
G1 X117.827 Y122.701 E.00967
G1 X117.827 Y133.299 E.39475
G1 X117.319 Y133.299 E.01892
G1 X117.319 Y122.701 E.39475
G1 X116.811 Y122.701 E.01892
G1 X116.811 Y133.299 E.39475
G1 X116.303 Y133.299 E.01892
G1 X116.303 Y122.701 E.39475
G1 X115.795 Y122.701 E.01892
G1 X115.795 Y133.299 E.39475
G1 X115.288 Y133.299 E.01892
G1 X115.288 Y122.495 E.40241
G1 X142.712 Y133.505 F28800
G1 F6300
G1 X142.712 Y122.701 E.40241
G1 X142.205 Y122.701 E.01892
G1 X142.205 Y133.299 E.39475
G1 X141.697 Y133.299 E.01892
G1 X141.697 Y122.701 E.39475
G1 X141.189 Y122.701 E.01892
G1 X141.189 Y133.299 E.39475
G1 X140.681 Y133.299 E.01892
G1 X140.681 Y122.701 E.39475
G1 X140.173 Y122.701 E.01892
G1 X140.173 Y133.299 E.39475
G1 X139.913 Y133.299 E.00967
G1 X139.913 Y138.913 E.20911
G1 X139.665 Y138.913 E.00924
G1 X139.665 Y117.087 E.81296
G1 X139.157 Y117.087 E.01892
G1 X139.157 Y138.913 E.81296
G1 X138.649 Y138.913 E.01892
G1 X138.649 Y117.087 E.81296
G1 X138.142 Y117.087 E.01892
G1 X138.142 Y138.913 E.81296
G1 X137.634 Y138.913 E.01892
G1 X137.634 Y117.087 E.81296
G1 X137.126 Y117.087 E.01892
G1 X137.126 Y138.913 E.81296
G1 X136.618 Y138.913 E.01892
G1 X136.618 Y117.087 E.81296
G1 X136.11 Y117.087 E.01892
G1 X136.11 Y138.913 E.81296
G1 X135.602 Y138.913 E.01892
G1 X135.602 Y117.087 E.81296
G1 X135.094 Y117.087 E.01892
G1 X135.094 Y138.913 E.81296
G1 X134.587 Y138.913 E.01892
G1 X134.587 Y116.881 E.82062
G1 X123.413 Y113.855 F28800
G1 F6300
G1 X123.413 Y105.858 E.29785
G1 X122.906 Y105.858 E.01892
G1 X122.906 Y113.65 E.29019
G1 X122.398 Y113.65 E.01892
G1 X122.398 Y105.858 E.29019
G1 X121.89 Y105.858 E.01892
G1 X121.89 Y113.65 E.29019
G1 X121.382 Y113.65 E.01892
G1 X121.382 Y105.858 E.29019
G1 X120.874 Y105.858 E.01892
G1 X120.874 Y113.65 E.29019
G1 X120.366 Y113.65 E.01892
G1 X120.366 Y105.858 E.29019
G1 X119.858 Y105.858 E.01892
G1 X119.858 Y113.65 E.29019
G1 X119.351 Y113.65 E.01892
G1 X119.351 Y105.858 E.29019
G1 X118.843 Y105.858 E.01892
G1 X118.843 Y113.65 E.29019
G1 X118.335 Y113.65 E.01892
G1 X118.335 Y105.858 E.29019
G1 X117.827 Y105.858 E.01892
G1 X117.827 Y113.65 E.29019
G1 X117.319 Y113.65 E.01892
G1 X117.319 Y105.858 E.29019
G1 X116.811 Y105.858 E.01892
G1 X116.811 Y113.65 E.29019
G1 X116.303 Y113.65 E.01892
G1 X116.303 Y105.858 E.29019
G1 X115.795 Y105.858 E.01892
G1 X115.795 Y113.65 E.29019
G1 X115.288 Y113.65 E.01892
G1 X115.288 Y105.858 E.29019
G1 X114.78 Y105.858 E.01892
G1 X114.78 Y113.65 E.29019
G1 X114.272 Y113.65 E.01892
G1 X114.272 Y105.858 E.29019
G1 X113.764 Y105.858 E.01892
G1 X113.764 Y113.65 E.29019
G1 X113.256 Y113.65 E.01892
G1 X113.256 Y105.858 E.29019
G1 X112.748 Y105.858 E.01892
G1 X112.748 Y113.65 E.29019
G1 X112.24 Y113.65 E.01892
G1 X112.24 Y105.858 E.29019
G1 X111.733 Y105.858 E.01892
G1 X111.733 Y138.439 E1.21349
G1 X111.225 Y138.439 E.01892
G1 X111.225 Y105.858 E1.21349
G1 X110.717 Y105.858 E.01892
G1 X110.717 Y138.439 E1.21349
G1 X110.209 Y138.439 E.01892
G1 X110.209 Y105.858 E1.21349
G1 X109.701 Y105.858 E.01892
G1 X109.701 Y138.439 E1.21349
G1 X109.193 Y138.439 E.01892
G1 X109.193 Y105.858 E1.21349
G1 X108.685 Y105.858 E.01892
G1 X108.685 Y138.439 E1.21349
G1 X108.177 Y138.439 E.01892
G1 X108.177 Y105.858 E1.21349
G1 X107.67 Y105.858 E.01892
G1 X107.67 Y138.439 E1.21349
G1 X107.162 Y138.439 E.01892
G1 X107.162 Y105.858 E1.21349
G1 X106.654 Y105.858 E.01892
G1 X106.654 Y138.439 E1.21349
G1 X106.393 Y138.439 E.00971
G1 X106.146 Y138.686 E.01302
G1 X106.146 Y105.858 E1.2227
G1 X105.638 Y105.858 E.01892
G1 X105.638 Y144.527 E1.44028
G1 X105.13 Y144.527 E.01892
G1 X105.13 Y105.858 E1.44028
G1 X104.622 Y105.858 E.01892
G1 X104.622 Y144.527 E1.44028
G1 X104.115 Y144.527 E.01892
G1 X104.115 Y105.653 E1.44794
;WIPE_START
G1 F23040
G1 X104.115 Y118.453 E-1.9
;WIPE_END
G1 E-.1 F3600
G1 Z.6 F28800
G1 X142.207 Y140.007
G1 Z.2
G1 E2 F1800
;TYPE:Perimeter
;WIDTH:0.499999
G1 F5040
G1 X150.543 Y140.007 E.31048
G1 X150.543 Y145.893 E.21923
G1 X142.207 Y145.893 E.31048
G1 X142.207 Y140.067 E.21699
G1 X141.75 Y139.55 F28800
;TYPE:External perimeter
G1 F5040
G1 X151 Y139.55 E.34453
G1 X151 Y146.35 E.25327
