; generated by PrusaSlicer 2.5.0 on 2025-03-28 at 10:24:07 UTC

; 

; external perimeters extrusion width = 0.40mm
; perimeters extrusion width = 0.45mm
; infill extrusion width = 0.45mm
; solid infill extrusion width = 0.45mm
; top infill extrusion width = 0.40mm
; support material extrusion width = 0.35mm
; first layer extrusion width = 0.50mm

M107
;TYPE:Custom
;===== date: 2022,09,19 =====================
;===== reset machine status =================
G91
M17 Z0.3 ; lower the z-motor current
G0 Z7 F300 ; lower the hotbed , to prevent the nozzle is below the hotbed
G90
M17 X1.2 Y1.2 Z0.75 ; reset motor current to default
M960 S5 P1 ; turn on logo lamp
G90
M220 S100 ;Reset Feedrate
M221 S100 ;Reset Flowrate
M73.2   R1.0 ;Reset left time magnitude
M1002 set_gcode_claim_speed_level : 5
M221 X0 Y0 Z0 ; turn off soft endstop to prevent protential logic problem

;===== heatbed preheat ====================
M1002 gcode_claim_action : 2
M140 S35 ;set bed temp
M190 S35 ;wait for bed temp

;=============turn on fans to prevent PLA jamming=================

    ;Prevent PLA from jamming

M106 P2 S100 ; turn on big fan ,to cool down toolhead

;===== prepare print temperature and material ==========
M104 S220 ;set extruder temp
G91
G0 Z2 F1200
G90
G28 X
M975 S1 ; turn on 
G1 X60 F12000
G1 Y245
G1 Y265 F3000
M620 M
M620 S0A   ; switch material if AMS exist
    M109 S220
    G1 X120 F12000

    G1 X20 Y50 F12000
    G1 Y-3
    T0
    G1 X54 F12000
    G1 Y265
    M400
M621 S0A

M412 S1 ; ===turn on filament runout detection===

M109 S250 ;set nozzle to common flush temp
M106 P1 S0
G92 E0
G1 E50 F200
M400
M104 S220
G92 E0
G1 E50 F200
M400
M106 P1 S255
G92 E0
G1 E5 F300
M109 S200 ; drop nozzle temp, make filament shink a bit
G92 E0
G1 E-0.5 F300

G1 X70 F9000
G1 X76 F15000
G1 X65 F15000
G1 X76 F15000
G1 X65 F15000; shake to put down garbage
G1 X80 F6000
G1 X95 F15000
G1 X80 F15000
G1 X165 F15000; wipe and shake
M400
M106 P1 S0
;===== prepare print temperature and material end =====


;===== wipe nozzle ===============================
M1002 gcode_claim_action : 14
M975 S1
M106 S255
G1 X65 Y230 F18000
G1 Y264 F6000
M109 S200
G1 X100 F18000 ; first wipe mouth

G0 X135 Y261 F20000  ; move to exposed steel surface edge
G28 Z P0 T300; home z with low precision,permit 300deg temperature
G29.2 S0 ; turn off ABL
G0 Z2 F20000

G1 X60 Y265
G92 E0
G1 E-0.5 F300 ; retrack more
G1 X100 F5000; second wipe mouth
G1 X70 F15000
G1 X100 F5000
G1 X70 F15000
G1 X100 F5000
G1 X70 F15000
G1 X100 F5000
G1 X70 F15000
G1 X90 F5000
G0 X128 Y261 Z-1.5 F20000  ; move to exposed steel surface and stop the nozzle
M104 S140 ; set temp down to heatbed acceptable
M106 S255 ; turn on fan (G28 has turn off fan)

M221 S; push soft endstop status
M221 Z0 ;turn off Z axis endstop
G0 Z0.5 F20000
G0 X125 Y259.5 Z-1.01
G0 X131 F211
G0 X124
G0 Z0.5 F20000
G0 X125 Y262.5
G0 Z-1.01
G0 X131 F211
G0 X124
G0 Z0.5 F20000
G0 X125 Y260.0
G0 Z-1.01
G0 X131 F211
G0 X124
G0 Z0.5 F20000
G0 X125 Y262.0
G0 Z-1.01
G0 X131 F211
G0 X124
G0 Z0.5 F20000
G0 X125 Y260.5
G0 Z-1.01
G0 X131 F211
G0 X124
G0 Z0.5 F20000
G0 X125 Y261.5
G0 Z-1.01
G0 X131 F211
G0 X124
G0 Z0.5 F20000
G0 X125 Y261.0
G0 Z-1.01
G0 X131 F211
G0 X124
G0 X128
G2 I0.5 J0 F300
G2 I0.5 J0 F300
G2 I0.5 J0 F300
G2 I0.5 J0 F300

M109 S140 ; wait nozzle temp down to heatbed acceptable
G2 I0.5 J0 F3000
G2 I0.5 J0 F3000
G2 I0.5 J0 F3000
G2 I0.5 J0 F3000

M221 R; pop softend status
G1 Z10 F1200
M400
G1 Z10
G1 F30000
G1 X230 Y15
G29.2 S1 ; turn on ABL
;G28 ; home again after hard wipe mouth
M106 S0 ; turn off fan , too noisy
;===== wipe nozzle end ================================


;===== bed leveling ==================================
M1002 judge_flag g29_before_print_flag
M622 J1

    M1002 gcode_claim_action : 1
    G29 A X117.603 Y116.601 I22.7944 J22.7976
    M400
    M500 ; save cali data

M623
;===== bed leveling end ================================

;===== home after wipe mouth============================
M1002 judge_flag g29_before_print_flag
M622 J0

    M1002 gcode_claim_action : 13
    G28

M623
;===== home after wipe mouth end =======================

M975 S1 ; turn on vibration supression

=============turn on fans to prevent PLA jamming=================

    ;Prevent PLA from jamming

M106 P2 S100 ; turn on big fan ,to cool down toolhead


M104 S220 ; set extrude temp earlier, to reduce wait time

;===== mech mode fast check============================
G1 X128 Y128 Z5 F20000
M400 P200
M970.3 Q1 A7 B30 C80  H15 K0
M974 Q1 S2 P0

G1 X128 Y128 Z5 F20000
M400 P200
M970.3 Q0 A7 B30 C90 Q0 H15 K0
M974 Q0 S2 P0

M975 S1
G1 F30000
G1 X230 Y15
G28 X ; re-home XY 
;===== fmech mode fast check============================


;===== noozle load line ===============================
M975 S1
G90 
M83
T1000
G1 X18.0 Y5.0 Z0.3 F18000;Move to start position
M109 S220
G0 E3 F300
G0 X240 E15 F6400 
G0 Y5.5 
G0 X18 E15
M400

;========turn off light and wait extrude temperature =============
M1002 gcode_claim_action : 0
M973 S4 ; turn off scanner
M400 ; wait all motion done before implement the emprical L parameters
;M900 L500.0 ; Empirical parameters
M109 S220
M960 S1 P0 ; turn off laser
M960 S2 P0 ; turn off laser
M106 S0 ; turn off fan
M106 P2 S0 ; turn off big fan 
M106 P3 S0 ; turn off chamber fan

M975 S1 ; turn on mech mode supression
G90 
M83
T1000
G1 X128.0 Y253.0 Z0.2 F6000.0;Move to start position
M109 S220
G0 X253 E6.4 F5333.33 
G0 Y128 E6.4
G0 X252.5
G0 Y252.5 E6.4
G0 X128 E6.4
G21 ; set units to millimeters
G90 ; use absolute coordinates
M83 ; use relative distances for extrusion
; Filament gcode
M106 P2 S178 ; Chamber fan, 70%, I think
M107
;LAYER_CHANGE
;Z:0.2
;HEIGHT:0.2
G92 E0
M971 S11 C10 O0
G1 E-2 F3600
G1 Z.4 F28800
G1 X121.451 Y119.765
G1 Z.2
G1 E2 F1800
;TYPE:Skirt/Brim
;WIDTH:0.5
G1 F2581
G1 X122.441 Y118.956 E.04764
G1 X123.19 Y118.458 E.03351
G1 X124.447 Y117.798 E.05285
G1 X125.283 Y117.465 E.03351
G1 X126.142 Y117.2 E.03351
G1 X127.396 Y116.944 E.04764
G1 X128.81 Y116.83 E.05285
G1 X129.71 Y116.851 E.03351
G1 X130.979 Y117.005 E.04764
G1 X131.858 Y117.2 E.03351
G1 X133.204 Y117.649 E.05285
G1 X134.023 Y118.021 E.03351
G1 X135.131 Y118.661 E.04764
G1 X135.862 Y119.184 E.03351
G1 X136.549 Y119.765 E.03351
G1 X137.532 Y120.788 E.05285
G1 X138.579 Y122.25 E.06697
G1 X139.173 Y123.383 E.04764
G1 X139.512 Y124.217 E.03351
G1 X139.907 Y125.58 E.05285
G1 X140.066 Y126.465 E.03351
G1 X140.154 Y127.36 E.03351
G1 X140.154 Y128.64 E.04764
G1 X140.066 Y129.535 E.03351
G1 X139.782 Y130.925 E.05285
G1 X139.173 Y132.617 E.06697
G1 X138.579 Y133.75 E.04764
G1 X138.085 Y134.502 E.03351
G1 X137.188 Y135.601 E.05285
G1 X136.549 Y136.235 E.03351
G1 X135.559 Y137.044 E.04764
G1 X134.81 Y137.542 E.03351
G1 X133.553 Y138.202 E.05285
G1 X132.717 Y138.535 E.03351
G1 X131.858 Y138.8 E.03351
G1 X130.604 Y139.056 E.04764
G1 X129.71 Y139.149 E.03351
G1 X128.29 Y139.149 E.05285
G1 X127.396 Y139.056 E.03351
G1 X126.142 Y138.8 E.04764
G1 X124.796 Y138.351 E.05285
G1 X123.977 Y137.979 E.03351
G1 X122.869 Y137.339 E.04764
G1 X122.138 Y136.816 E.03351
G1 X121.451 Y136.235 E.03351
G1 X120.468 Y135.212 E.05285
G1 X119.421 Y133.75 E.06697
G1 X118.99 Y132.96 E.03351
G1 X118.488 Y131.783 E.04764
G1 X118.218 Y130.925 E.03351
G1 X117.934 Y129.535 E.05285
G1 X117.846 Y128.64 E.03351
G1 X117.846 Y127.36 E.04764
G1 X117.934 Y126.465 E.03351
G1 X118.218 Y125.075 E.05285
G1 X118.827 Y123.383 E.06697
G1 X119.421 Y122.25 E.04764
G1 X119.915 Y121.498 E.03351
G1 X120.468 Y120.788 E.03351
G1 X121.409 Y119.808 E.05062
;WIPE_START
G1 F23040
G1 X122.441 Y118.956 E-.19871
G1 X123.19 Y118.458 E-.13355
G1 X124.447 Y117.798 E-.21063
G1 X125.283 Y117.465 E-.13355
G1 X126.142 Y117.2 E-.13355
G1 X127.396 Y116.944 E-.18986
G1 X128.81 Y116.83 E-.21064
G1 X129.71 Y116.851 E-.13355
G1 X130.979 Y117.005 E-.18986
G1 X131.858 Y117.2 E-.13355
G1 X133.204 Y117.649 E-.21064
G1 X133.338 Y117.71 E-.0219
;WIPE_END
G1 E-.1 F3600
G1 Z.6 F28800
G1 X125.007 Y127.668
G1 Z.2
G1 E2 F1800
;TYPE:Perimeter
;WIDTH:0.499999
G1 F2581
G1 X125.11 Y127.036 E.02384
G1 X125.313 Y126.429 E.02383
G1 X125.613 Y125.858 E.02403
G1 X126 Y125.342 E.02402
G1 X126.465 Y124.896 E.02402
G1 X126.996 Y124.529 E.02402
G1 X127.579 Y124.253 E.02402
G1 X128.198 Y124.073 E.02402
G1 X128.839 Y123.996 E.02402
G1 X129.483 Y124.022 E.02402
G1 X130.115 Y124.151 E.02402
G1 X130.718 Y124.379 E.02402
G1 X131.277 Y124.702 E.02402
G1 X131.776 Y125.11 E.02402
G1 X132.204 Y125.592 E.02401
G1 X132.551 Y126.142 E.02422
G1 X132.801 Y126.731 E.02383
G1 X132.956 Y127.357 E.02403
G1 X133.008 Y128 E.02402
G1 X132.956 Y128.643 E.02402
G1 X132.801 Y129.269 E.02402
G1 X132.549 Y129.862 E.02402
G1 X132.204 Y130.407 E.02401
G1 X131.772 Y130.894 E.02422
G1 X131.277 Y131.298 E.02383
G1 X130.718 Y131.621 E.02401
G1 X130.11 Y131.851 E.02422
G1 X129.483 Y131.978 E.02383
G1 X128.839 Y132.004 E.02401
G1 X128.193 Y131.925 E.02422
G1 X127.579 Y131.747 E.02383
G1 X126.996 Y131.471 E.02401
G1 X126.462 Y131.101 E.02422
G1 X126 Y130.658 E.02383
G1 X125.613 Y130.142 E.02403
G1 X125.313 Y129.571 E.02402
G1 X125.109 Y128.959 E.02402
G1 X125.005 Y128.322 E.02402
G1 X125.005 Y127.728 E.02216
G1 X124.556 Y127.594 F28800
;TYPE:External perimeter
G1 F2581
G1 X124.665 Y126.926 E.02521
G1 X124.891 Y126.249 E.02657
G1 X125.225 Y125.613 E.02677
G1 X125.657 Y125.038 E.02677
G1 X126.175 Y124.54 E.02677
G1 X126.767 Y124.132 E.02677
G1 X127.416 Y123.824 E.02677
G1 X128.107 Y123.624 E.02677
G1 X128.82 Y123.537 E.02677
G1 X129.538 Y123.566 E.02677
G1 X130.243 Y123.71 E.02677
G1 X130.915 Y123.965 E.02677
G1 X131.537 Y124.324 E.02677
G1 X132.094 Y124.779 E.02677
G1 X132.57 Y125.317 E.02677
G1 X132.957 Y125.929 E.02698
G1 X133.236 Y126.586 E.02657
G1 X133.408 Y127.284 E.02677
G1 X133.466 Y128 E.02677
G1 X133.408 Y128.716 E.02677
G1 X133.236 Y129.414 E.02677
G1 X132.955 Y130.076 E.02677
G1 X132.571 Y130.683 E.02677
G1 X132.09 Y131.225 E.02698
G1 X131.537 Y131.676 E.02657
G1 X130.915 Y132.035 E.02677
G1 X130.237 Y132.291 E.02697
G1 X129.538 Y132.434 E.02657
G1 X128.82 Y132.463 E.02677
G1 X128.101 Y132.375 E.02698
G1 X127.416 Y132.176 E.02657
G1 X126.767 Y131.868 E.02677
G1 X126.171 Y131.456 E.02698
G1 X125.657 Y130.962 E.02657
G1 X125.225 Y130.387 E.02677
G1 X124.891 Y129.751 E.02677
G1 X124.664 Y129.069 E.02677
G1 X124.548 Y128.359 E.02677
G1 X124.548 Y127.653 E.0263
G1 X124.918 Y127.424 F28800
;WIPE_START
G1 F23040
G1 X124.665 Y126.926 E-.10935
G1 X124.891 Y126.249 E-.10589
G1 X125.225 Y125.613 E-.10669
G1 X125.657 Y125.038 E-.1067
G1 X126.175 Y124.54 E-.10669
G1 X126.767 Y124.132 E-.10669
G1 X127.416 Y123.824 E-.10669
G1 X128.107 Y123.624 E-.10669
G1 X128.82 Y123.537 E-.10669
G1 X129.538 Y123.566 E-.10669
G1 X130.243 Y123.71 E-.10669
G1 X130.915 Y123.965 E-.10669
G1 X131.537 Y124.324 E-.10669
G1 X132.094 Y124.779 E-.1067
G1 X132.57 Y125.317 E-.10668
G1 X132.957 Y125.929 E-.1075
G1 X133.236 Y126.586 E-.10588
G1 X133.372 Y127.138 E-.0844
;WIPE_END
G1 E-.1 F3600
G1 Z.6 F28800
G1 X132.79 Y127.256
G1 Z.2
G1 E2 F1800
;TYPE:Solid infill
;WIDTH:0.50046
G1 F2581
G1 X130.014 Y124.48 E.14637
G1 X129.442 Y124.363 E.02176
G1 X129.242 Y124.355 E.00746
G1 X132.644 Y127.757 E.17941
G1 X132.664 Y128 E.00907
G1 X132.632 Y128.392 E.01468
G1 X128.609 Y124.369 E.21215
G1 X128.267 Y124.41 E.01282
G1 X128.062 Y124.47 E.00795
G1 X132.53 Y128.937 E.23558
G1 X132.475 Y129.16 E.00855
G1 X132.365 Y129.419 E.0105
G1 X127.578 Y124.633 E.25239
G1 X127.143 Y124.844 E.01805
G1 X132.15 Y129.851 E.264
G1 X131.929 Y130.201 E.0154
G1 X131.893 Y130.241 E.00204
G1 X126.76 Y125.109 E.27064
G1 X126.683 Y125.162 E.0035
G1 X126.419 Y125.415 E.01362
G1 X131.589 Y130.584 E.27256
G1 X131.242 Y130.884 E.0171
G1 X126.116 Y125.759 E.27025
G1 X125.903 Y126.042 E.0132
G1 X125.851 Y126.141 E.00418
G1 X130.856 Y131.145 E.26386
G1 X130.571 Y131.31 E.01226
G1 X130.427 Y131.364 E.00573
G1 X125.629 Y126.566 E.25301
G1 X125.467 Y127.051 E.01907
G1 X129.95 Y131.534 E.23637
G1 X129.408 Y131.638 E.02059
G1 X125.366 Y127.597 E.2131
G1 X125.348 Y127.706 E.00411
G1 X125.348 Y128.226 E.0194
G1 X128.773 Y131.651 E.18058
G1 X128.262 Y131.589 E.01918
G1 X127.982 Y131.507 E.01087
G1 X125.212 Y128.737 E.14609
M106 S255
;LAYER_CHANGE
;Z:0.4
;HEIGHT:0.2
G92 E0
M971 S11 C10 O0
;WIPE_START
G1 F23040
G1 X127.982 Y131.507 E-.58164
G1 X128.262 Y131.589 E-.04329
G1 X128.773 Y131.651 E-.07637
G1 X125.348 Y128.226 E-.71896
G1 X125.348 Y127.706 E-.07725
G1 X125.366 Y127.597 E-.01637
G1 X127.205 Y129.436 E-.38612
;WIPE_END
G1 E-.1 F3600
G1 Z.6 F28800
G1 X124.884 Y127.649
G1 Z.4
G1 E2 F1800
;TYPE:Perimeter
;WIDTH:0.449999
G1 F1860
G1 X124.991 Y126.996 E.02195
G1 X125.198 Y126.38 E.02154
G1 X125.507 Y125.791 E.02207
G1 X125.906 Y125.259 E.02207
G1 X126.386 Y124.799 E.02204
G1 X126.947 Y124.413 E.0226
G1 X127.534 Y124.136 E.02154
G1 X128.173 Y123.95 E.02207
G1 X128.834 Y123.87 E.02206
G1 X129.498 Y123.897 E.02207
G1 X130.15 Y124.03 E.02206
G1 X130.772 Y124.266 E.02206
G1 X131.348 Y124.599 E.02206
G1 X131.863 Y125.019 E.02204
G1 X132.313 Y125.53 E.0226
G1 X132.66 Y126.079 E.02154
G1 X132.92 Y126.691 E.02207
G1 X133.08 Y127.337 E.02206
G1 X133.133 Y128 E.02206
G1 X133.08 Y128.663 E.02206
G1 X132.92 Y129.309 E.02206
G1 X132.66 Y129.921 E.02206
G1 X132.304 Y130.483 E.02206
G1 X131.863 Y130.981 E.02206
G1 X131.348 Y131.401 E.02206
G1 X130.772 Y131.734 E.02207
G1 X130.15 Y131.97 E.02206
G1 X129.498 Y132.103 E.02206
G1 X128.834 Y132.13 E.02206
G1 X128.173 Y132.05 E.02206
G1 X127.535 Y131.865 E.02204
G1 X126.92 Y131.571 E.0226
G1 X126.386 Y131.202 E.02154
G1 X125.906 Y130.741 E.02207
G1 X125.507 Y130.209 E.02207
G1 X125.198 Y129.62 E.02206
G1 X124.987 Y128.989 E.02206
G1 X124.88 Y128.333 E.02207
G1 X124.88 Y127.708 E.0207
G1 X124.507 Y127.586 F28800
;TYPE:External perimeter
;WIDTH:0.399999
G1 F1860
G1 X124.619 Y126.903 E.02014
G1 X124.845 Y126.23 E.02067
G1 X125.183 Y125.586 E.02115
G1 X125.619 Y125.005 E.02115
G1 X126.143 Y124.502 E.02114
G1 X126.756 Y124.081 E.02163
G1 X127.398 Y123.777 E.02067
G1 X128.097 Y123.575 E.02115
G1 X128.818 Y123.487 E.02115
G1 X129.544 Y123.517 E.02115
G1 X130.257 Y123.662 E.02115
G1 X130.936 Y123.92 E.02115
G1 X131.566 Y124.283 E.02115
G1 X132.128 Y124.743 E.02114
G1 X132.62 Y125.3 E.02163
G1 X132.999 Y125.901 E.02067
G1 X133.284 Y126.57 E.02115
G1 X133.458 Y127.276 E.02115
G1 X133.516 Y128 E.02115
G1 X133.458 Y128.724 E.02115
G1 X133.284 Y129.43 E.02115
G1 X132.999 Y130.099 E.02115
G1 X132.611 Y130.713 E.02115
G1 X132.129 Y131.257 E.02115
G1 X131.566 Y131.717 E.02115
G1 X130.936 Y132.08 E.02115
G1 X130.257 Y132.338 E.02115
G1 X129.544 Y132.483 E.02115
G1 X128.818 Y132.513 E.02115
G1 X128.097 Y132.425 E.02115
G1 X127.399 Y132.223 E.02114
G1 X126.728 Y131.903 E.02163
G1 X126.144 Y131.498 E.02067
G1 X125.619 Y130.995 E.02115
G1 X125.183 Y130.414 E.02115
G1 X124.845 Y129.77 E.02115
G1 X124.615 Y129.081 E.02115
G1 X124.498 Y128.363 E.02115
G1 X124.498 Y127.646 E.02088
G1 X124.869 Y127.417 F28800
;WIPE_START
G1 F23040
G1 X124.619 Y126.903 E-.11163
G1 X124.845 Y126.23 E-.10546
G1 X125.183 Y125.586 E-.1079
G1 X125.619 Y125.005 E-.10789
G1 X126.143 Y124.502 E-.10785
G1 X126.756 Y124.081 E-.11033
G1 X127.398 Y123.777 E-.10545
G1 X128.097 Y123.575 E-.1079
G1 X128.818 Y123.487 E-.10788
G1 X129.544 Y123.517 E-.10789
G1 X130.257 Y123.662 E-.10789
G1 X130.936 Y123.92 E-.10789
G1 X131.566 Y124.283 E-.10789
G1 X132.128 Y124.743 E-.10786
G1 X132.62 Y125.3 E-.11033
G1 X132.999 Y125.901 E-.10546
G1 X133.284 Y126.57 E-.1079
G1 X133.388 Y126.992 E-.06458
;WIPE_END
G1 E-.1 F3600
G1 Z.8 F28800
G1 X132.563 Y129.837
G1 Z.4
G1 E2 F1800
;TYPE:Solid infill
;WIDTH:0.466803
G1 F1860
G1 X131.591 Y130.809 E.04748
G1 X131.174 Y131.149 E.01858
G1 X130.641 Y131.457 E.02127
G1 X130.161 Y131.639 E.01771
G1 X132.643 Y129.157 E.12125
G1 X132.777 Y128.614 E.01932
G1 X132.794 Y128.407 E.00717
G1 X129.399 Y131.801 E.16582
G1 X128.785 Y131.816 E.02123
G1 X132.81 Y127.791 E.19661
G1 X132.777 Y127.386 E.01404
G1 X132.745 Y127.257 E.00461
G1 X128.25 Y131.751 E.21956
G1 X127.784 Y131.619 E.01676
G1 X132.625 Y126.777 E.2365
G1 X132.446 Y126.357 E.01578
