; generated by PrusaSlicer 2.5.0 on 2025-03-28 at 10:37:07 UTC

; 

; external perimeters extrusion width = 0.40mm
; perimeters extrusion width = 0.45mm
; infill extrusion width = 0.45mm
; solid infill extrusion width = 0.45mm
; top infill extrusion width = 0.40mm
; support material extrusion width = 0.35mm
; first layer extrusion width = 0.50mm

M107
;TYPE:Custom
;===== date: 2022,09,19 =====================
;===== reset machine status =================
G91
M17 Z0.3 ; lower the z-motor current
G0 Z7 F300 ; lower the hotbed , to prevent the nozzle is below the hotbed
G90
M17 X1.2 Y1.2 Z0.75 ; reset motor current to default
M960 S5 P1 ; turn on logo lamp
G90
M220 S100 ;Reset Feedrate
M221 S100 ;Reset Flowrate
M73.2   R1.0 ;Reset left time magnitude
M1002 set_gcode_claim_speed_level : 5
M221 X0 Y0 Z0 ; turn off soft endstop to prevent protential logic problem

;===== heatbed preheat ====================
M1002 gcode_claim_action : 2
M140 S35 ;set bed temp
M190 S35 ;wait for bed temp

;=============turn on fans to prevent PLA jamming=================

    ;Prevent PLA from jamming

M106 P2 S100 ; turn on big fan ,to cool down toolhead

;===== prepare print temperature and material ==========
M104 S220 ;set extruder temp
G91
G0 Z2 F1200
G90
G28 X
M975 S1 ; turn on 
G1 X60 F12000
G1 Y245
G1 Y265 F3000
M620 M
M620 S0A   ; switch material if AMS exist
    M109 S220
    G1 X120 F12000

    G1 X20 Y50 F12000
    G1 Y-3
    T0
    G1 X54 F12000
    G1 Y265
    M400
M621 S0A

M412 S1 ; ===turn on filament runout detection===

M109 S250 ;set nozzle to common flush temp
M106 P1 S0
G92 E0
G1 E50 F200
M400
M104 S220
G92 E0
G1 E50 F200
M400
M106 P1 S255
G92 E0
G1 E5 F300
M109 S200 ; drop nozzle temp, make filament shink a bit
G92 E0
G1 E-0.5 F300

G1 X70 F9000
G1 X76 F15000
G1 X65 F15000
G1 X76 F15000
G1 X65 F15000; shake to put down garbage
G1 X80 F6000
G1 X95 F15000
G1 X80 F15000
G1 X165 F15000; wipe and shake
M400
M106 P1 S0
;===== prepare print temperature and material end =====


;===== wipe nozzle ===============================
M1002 gcode_claim_action : 14
M975 S1
M106 S255
G1 X65 Y230 F18000
G1 Y264 F6000
M109 S200
G1 X100 F18000 ; first wipe mouth

G0 X135 Y261 F20000  ; move to exposed steel surface edge
G28 Z P0 T300; home z with low precision,permit 300deg temperature
G29.2 S0 ; turn off ABL
G0 Z2 F20000

G1 X60 Y265
G92 E0
G1 E-0.5 F300 ; retrack more
G1 X100 F5000; second wipe mouth
G1 X70 F15000
G1 X100 F5000
G1 X70 F15000
G1 X100 F5000
G1 X70 F15000
G1 X100 F5000
G1 X70 F15000
G1 X90 F5000
G0 X128 Y261 Z-1.5 F20000  ; move to exposed steel surface and stop the nozzle
M104 S140 ; set temp down to heatbed acceptable
M106 S255 ; turn on fan (G28 has turn off fan)

M221 S; push soft endstop status
M221 Z0 ;turn off Z axis endstop
G0 Z0.5 F20000
G0 X125 Y259.5 Z-1.01
G0 X131 F211
G0 X124
G0 Z0.5 F20000
G0 X125 Y262.5
G0 Z-1.01
G0 X131 F211
G0 X124
G0 Z0.5 F20000
G0 X125 Y260.0
G0 Z-1.01
G0 X131 F211
G0 X124
G0 Z0.5 F20000
G0 X125 Y262.0
G0 Z-1.01
G0 X131 F211
G0 X124
G0 Z0.5 F20000
G0 X125 Y260.5
G0 Z-1.01
G0 X131 F211
G0 X124
G0 Z0.5 F20000
G0 X125 Y261.5
G0 Z-1.01
G0 X131 F211
G0 X124
G0 Z0.5 F20000
G0 X125 Y261.0
G0 Z-1.01
G0 X131 F211
G0 X124
G0 X128
G2 I0.5 J0 F300
G2 I0.5 J0 F300
G2 I0.5 J0 F300
G2 I0.5 J0 F300

M109 S140 ; wait nozzle temp down to heatbed acceptable
G2 I0.5 J0 F3000
G2 I0.5 J0 F3000
G2 I0.5 J0 F3000
G2 I0.5 J0 F3000

M221 R; pop softend status
G1 Z10 F1200
M400
G1 Z10
G1 F30000
G1 X230 Y15
G29.2 S1 ; turn on ABL
;G28 ; home again after hard wipe mouth
M106 S0 ; turn off fan , too noisy
;===== wipe nozzle end ================================


;===== bed leveling ==================================
M1002 judge_flag g29_before_print_flag
M622 J1

    M1002 gcode_claim_action : 1
    G29 A X111.484 Y98.7614 I38.333 J52.8054
    M400
    M500 ; save cali data

M623
;===== bed leveling end ================================

;===== home after wipe mouth============================
M1002 judge_flag g29_before_print_flag
M622 J0

    M1002 gcode_claim_action : 13
    G28

M623
;===== home after wipe mouth end =======================

M975 S1 ; turn on vibration supression

=============turn on fans to prevent PLA jamming=================

    ;Prevent PLA from jamming

M106 P2 S100 ; turn on big fan ,to cool down toolhead


M104 S220 ; set extrude temp earlier, to reduce wait time

;===== mech mode fast check============================
G1 X128 Y128 Z5 F20000
M400 P200
M970.3 Q1 A7 B30 C80  H15 K0
M974 Q1 S2 P0

G1 X128 Y128 Z5 F20000
M400 P200
M970.3 Q0 A7 B30 C90 Q0 H15 K0
M974 Q0 S2 P0

M975 S1
G1 F30000
G1 X230 Y15
G28 X ; re-home XY 
;===== fmech mode fast check============================


;===== noozle load line ===============================
M975 S1
G90 
M83
T1000
G1 X18.0 Y5.0 Z0.3 F18000;Move to start position
M109 S220
G0 E3 F300
G0 X240 E15 F6400 
G0 Y5.5 
G0 X18 E15
M400

;========turn off light and wait extrude temperature =============
M1002 gcode_claim_action : 0
M973 S4 ; turn off scanner
M400 ; wait all motion done before implement the emprical L parameters
;M900 L500.0 ; Empirical parameters
M109 S220
M960 S1 P0 ; turn off laser
M960 S2 P0 ; turn off laser
M106 S0 ; turn off fan
M106 P2 S0 ; turn off big fan 
M106 P3 S0 ; turn off chamber fan

M975 S1 ; turn on mech mode supression
G90 
M83
T1000
G1 X128.0 Y253.0 Z0.2 F6000.0;Move to start position
M109 S220
G0 X253 E6.4 F5333.33 
G0 Y128 E6.4
G0 X252.5
G0 Y252.5 E6.4
G0 X128 E6.4
G21 ; set units to millimeters
G90 ; use absolute coordinates
M83 ; use relative distances for extrusion
; Filament gcode
M106 P2 S178 ; Chamber fan, 70%, I think
M107
;LAYER_CHANGE
;Z:0.2
;HEIGHT:0.2
G92 E0
M971 S11 C10 O0
G1 E-2 F3600
G1 Z.4 F28800
G1 X119.154 Y100.488
G1 Z.2
G1 E2 F1800
;TYPE:Skirt/Brim
;WIDTH:0.5
G1 F6300
G1 X121.12 Y99.365 E.08433
G1 X123.289 Y98.99 E.08201
G1 X143.132 Y98.99 E.73905
G1 X145.361 Y99.387 E.08433
G1 X147.316 Y100.529 E.08433
G1 X148.756 Y102.275 E.08433
G1 X149.589 Y105.447 E.12214
G1 X149.589 Y136.518 E1.15726
G1 X148.869 Y139.48 E.11353
G1 X144.97 Y146.986 E.31505
G1 X144.297 Y147.946 E.04369
G1 X143.602 Y148.718 E.03869
G1 X142.717 Y149.488 E.04369
G1 X141.933 Y150.022 E.03531
G1 X141.017 Y150.509 E.03867
G1 X140.136 Y150.86 E.03533
G1 X139.003 Y151.164 E.04368
G1 X138.064 Y151.301 E.03532
G1 X136.914 Y151.334 E.04287
G1 X118.417 Y150.682 E.68936
G1 X116.934 Y150.415 E.05613
G1 X116.039 Y150.089 E.0355
G1 X115.149 Y149.621 E.03743
G1 X113.959 Y148.697 E.05612
G1 X112.986 Y147.547 E.05612
G1 X112.274 Y146.219 E.05612
G1 X111.947 Y145.213 E.0394
G1 X111.743 Y143.721 E.05611
G1 X111.729 Y135.01 E.32443
G1 X111.898 Y133.503 E.05647
G1 X116.926 Y104.35 E1.1019
G1 X117.696 Y102.22 E.08433
G1 X119.115 Y100.534 E.08209
;WIPE_START
G1 F23040
G1 X121.12 Y99.365 E-.34443
G1 X123.289 Y98.99 E-.32684
G1 X131.567 Y98.99 E-1.22873
;WIPE_END
G1 E-.1 F3600
G1 Z.6 F28800
G1 X137.78 Y133.114
G1 Z.2
G1 E2 F1800
;TYPE:Support material
G1 F6300
G1 X137.765 Y133.333 E.0082
G1 X137.72 Y133.545 E.00805
G1 X137.646 Y133.748 E.00806
G1 X137.544 Y133.939 E.00806
G1 X137.417 Y134.114 E.00805
G1 X137.267 Y134.27 E.00805
G1 X137.097 Y134.403 E.00805
G1 X136.909 Y134.511 E.00805
G1 X136.605 Y134.622 E.01207
G1 X136.338 Y134.664 E.01006
G1 X134.518 Y134.668 E.0678
G1 X134.518 Y116.868 E.66297
G1 X123.47 Y116.868 E.41151
G1 X123.878 Y114.552 E.08758
G1 X123.931 Y114.339 E.0082
G1 X124.012 Y114.138 E.00806
G1 X124.151 Y113.907 E.01006
G1 X124.328 Y113.703 E.01006
G1 X124.538 Y113.533 E.01006
G1 X124.726 Y113.425 E.00805
G1 X124.926 Y113.344 E.00805
G1 X125.136 Y113.291 E.00805
G1 X125.351 Y113.269 E.00805
G1 X137.78 Y113.268 E.46294
G1 X137.78 Y133.045 E.73664
G1 X137.126 Y134.12 F28800
G1 F6300
G1 X137.126 Y113.679 E.76134
G1 X136.618 Y113.679 E.01892
G1 X136.618 Y134.188 E.76388
G1 X136.505 Y134.222 E.00439
G1 X136.309 Y134.253 E.00739
G1 X136.11 Y134.256 E.00742
G1 X136.11 Y113.679 E.76642
G1 X135.602 Y113.679 E.01892
G1 X135.602 Y134.256 E.76642
G1 X135.094 Y134.256 E.01892
G1 X135.094 Y113.679 E.76642
G1 X134.587 Y113.679 E.01892
G1 X134.587 Y116.457 E.10345
G1 X134.079 Y116.457 E.01892
G1 X134.079 Y113.679 E.10345
G1 X133.571 Y113.679 E.01892
G1 X133.571 Y116.457 E.10345
G1 X133.063 Y116.457 E.01892
G1 X133.063 Y113.679 E.10345
G1 X132.555 Y113.679 E.01892
G1 X132.555 Y116.457 E.10345
G1 X132.047 Y116.457 E.01892
G1 X132.047 Y113.679 E.10345
G1 X131.539 Y113.679 E.01892
G1 X131.539 Y116.457 E.10345
G1 X131.031 Y116.457 E.01892
G1 X131.031 Y113.679 E.10345
G1 X130.524 Y113.679 E.01892
G1 X130.524 Y116.457 E.10345
G1 X130.016 Y116.457 E.01892
G1 X130.016 Y113.679 E.10345
G1 X129.508 Y113.679 E.01892
G1 X129.508 Y116.457 E.10345
G1 X129 Y116.457 E.01892
G1 X129 Y113.679 E.10345
G1 X128.492 Y113.679 E.01892
G1 X128.492 Y116.457 E.10345
G1 X127.984 Y116.457 E.01892
G1 X127.984 Y113.679 E.10345
G1 X127.476 Y113.679 E.01892
G1 X127.476 Y116.457 E.10345
G1 X126.969 Y116.457 E.01892
G1 X126.969 Y113.679 E.10345
G1 X126.461 Y113.679 E.01892
G1 X126.461 Y116.457 E.10345
G1 X125.953 Y116.457 E.01892
G1 X125.953 Y113.679 E.10345
G1 X125.445 Y113.679 E.01892
G1 X125.445 Y116.457 E.10345
G1 X124.937 Y116.457 E.01892
G1 X124.937 Y113.78 E.0997
G1 X124.768 Y113.874 E.00719
G1 X124.643 Y113.972 E.00592
G1 X124.533 Y114.086 E.00591
G1 X124.429 Y114.232 E.00666
G1 X124.429 Y116.662 E.09054
;WIPE_START
G1 F23040
G1 X124.429 Y114.232 E-.36082
G1 X124.533 Y114.086 E-.02654
G1 X124.643 Y113.972 E-.02357
G1 X124.768 Y113.874 E-.02358
G1 X124.937 Y113.78 E-.02866
G1 X124.937 Y116.457 E-.39733
G1 X125.445 Y116.457 E-.07539
G1 X125.445 Y113.679 E-.41229
G1 X125.953 Y113.679 E-.07539
G1 X125.953 Y116.457 E-.41229
G1 X126.385 Y116.457 E-.06414
;WIPE_END
G1 E-.1 F3600
G1 Z.6 F28800
G1 X143.132 Y136.518
G1 Z.2
G1 E2 F1800
G1 F6300
G1 X140.28 Y136.518 E.10622
G1 X140.28 Y110.931 E.95299
G1 X140.016 Y110.668 E.01389
G1 X123.289 Y110.668 E.62301
G1 X123.289 Y105.447 E.19445
G1 X143.132 Y105.447 E.73905
G1 X143.132 Y136.449 E1.15471
G1 X142.712 Y136.312 F28800
G1 F6300
G1 X142.712 Y105.858 E1.13428
G1 X142.205 Y105.858 E.01892
G1 X142.205 Y136.106 E1.12662
G1 X141.697 Y136.106 E.01892
G1 X141.697 Y105.858 E1.12662
G1 X141.189 Y105.858 E.01892
G1 X141.189 Y136.106 E1.12662
G1 X140.691 Y136.106 E.01853
G1 X140.681 Y105.858 E1.12662
G1 X140.173 Y105.858 E.01892
G1 X140.173 Y110.256 E.16381
G1 X139.665 Y110.256 E.01892
G1 X139.665 Y105.858 E.16381
G1 X139.157 Y105.858 E.01892
G1 X139.157 Y110.256 E.16381
G1 X138.649 Y110.256 E.01892
G1 X138.649 Y105.858 E.16381
G1 X138.142 Y105.858 E.01892
G1 X138.142 Y110.256 E.16381
G1 X137.634 Y110.256 E.01892
G1 X137.634 Y105.858 E.16381
G1 X137.126 Y105.858 E.01892
G1 X137.126 Y110.256 E.16381
G1 X136.618 Y110.256 E.01892
G1 X136.618 Y105.858 E.16381
G1 X136.11 Y105.858 E.01892
G1 X136.11 Y110.256 E.16381
G1 X135.602 Y110.256 E.01892
G1 X135.602 Y105.858 E.16381
G1 X135.094 Y105.858 E.01892
G1 X135.094 Y110.256 E.16381
G1 X134.587 Y110.256 E.01892
G1 X134.587 Y105.858 E.16381
G1 X134.079 Y105.858 E.01892
G1 X134.079 Y110.256 E.16381
G1 X133.571 Y110.256 E.01892
G1 X133.571 Y105.858 E.16381
G1 X133.063 Y105.858 E.01892
G1 X133.063 Y110.256 E.16381
G1 X132.555 Y110.256 E.01892
G1 X132.555 Y105.858 E.16381
G1 X132.047 Y105.858 E.01892
G1 X132.047 Y110.256 E.16381
G1 X131.539 Y110.256 E.01892
G1 X131.539 Y105.858 E.16381
G1 X131.031 Y105.858 E.01892
G1 X131.031 Y110.256 E.16381
G1 X130.524 Y110.256 E.01892
G1 X130.524 Y105.858 E.16381
G1 X130.016 Y105.858 E.01892
G1 X130.016 Y110.256 E.16381
G1 X129.508 Y110.256 E.01892
G1 X129.508 Y105.858 E.16381
G1 X129 Y105.858 E.01892
G1 X129 Y110.256 E.16381
G1 X128.492 Y110.256 E.01892
G1 X128.492 Y105.858 E.16381
G1 X127.984 Y105.858 E.01892
G1 X127.984 Y110.256 E.16381
G1 X127.476 Y110.256 E.01892
G1 X127.476 Y105.858 E.16381
G1 X126.969 Y105.858 E.01892
G1 X126.969 Y110.256 E.16381
G1 X126.461 Y110.256 E.01892
G1 X126.461 Y105.858 E.16381
G1 X125.953 Y105.858 E.01892
G1 X125.953 Y110.256 E.16381
G1 X125.445 Y110.256 E.01892
G1 X125.445 Y105.858 E.16381
G1 X124.937 Y105.858 E.01892
G1 X124.937 Y110.256 E.16381
G1 X124.429 Y110.256 E.01892
G1 X124.429 Y105.858 E.16381
G1 X123.921 Y105.858 E.01892
G1 X123.921 Y110.462 E.17147
;WIPE_START
G1 F23040
G1 X123.921 Y105.858 E-.68336
G1 X124.429 Y105.858 E-.07539
G1 X124.429 Y110.256 E-.65283
G1 X124.937 Y110.256 E-.07539
G1 X124.937 Y107.474 E-.41303
;WIPE_END
G1 E-.1 F3600
G1 Z.6 F28800
G1 X137.578 Y136.062
G1 Z.2
G1 E2 F1800
;TYPE:Perimeter
;WIDTH:0.499999
G1 F6300
G1 X137.291 Y136.013 E.01086
G1 X137.133 Y136.03 E.0059
;WIDTH:0.465806
G1 X136.976 Y136.046 E.00546
;WIDTH:0.431613
G1 X136.818 Y136.062 E.00502
;WIDTH:0.397419
G1 X136.231 Y136.078 E.01698
;WIDTH:0.364809
G1 X122.107 Y136.078 E.37046
;WIDTH:0.370771
G1 X121.971 Y136.075 E.00364
;WIDTH:0.413847
G1 X121.784 Y136.053 E.0057
;WIDTH:0.456923
G1 X121.596 Y136.032 E.00636
;WIDTH:0.499999
G1 X121.409 Y136.01 E.00702
G1 X119.016 Y136.01 E.08912
G1 X118.885 Y135.972 E.00509
G1 X118.898 Y135.208 E.02845
G1 X118.96 Y134.708 E.01877
G1 X119.181 Y133.456 E.04739
G1 X119.204 Y133.195 E.00975
;WIDTH:0.454996
G1 X119.227 Y132.934 E.00879
;WIDTH:0.409993
G1 X119.25 Y132.673 E.00783
;WIDTH:0.366816
G1 X122.515 Y114.165 E.49604
;WIDTH:0.376953
G1 X122.551 Y113.991 E.00484
;WIDTH:0.417969
G1 X122.608 Y113.787 E.00648
;WIDTH:0.458984
G1 X122.664 Y113.582 E.00718
;WIDTH:0.499999
G1 X122.721 Y113.378 E.00789
G1 X122.995 Y111.825 E.05875
G1 X124.139 Y111.825 E.0426
G1 X124.772 Y111.804 E.02358
;WIDTH:0.457913
G1 X125.404 Y111.782 E.0214
;WIDTH:0.414381
G1 X138.251 Y111.782 E.38888
;WIDTH:0.45237
G1 X138.537 Y111.801 E.00956
;WIDTH:0.490358
G1 X138.823 Y111.82 E.01044
;WIDTH:0.528346
G1 X139.109 Y111.839 E.01133
G1 X139.129 Y112.26 E.01669
;WIDTH:0.487355
G1 X139.15 Y112.439 E.00651
;WIDTH:0.446363
G1 X139.17 Y112.618 E.00591
;WIDTH:0.405372
G1 X139.191 Y112.796 E.00531
;WIDTH:0.36499
G1 X139.19 Y133.189 E.53519
;WIDTH:0.369814
G1 X139.188 Y133.311 E.00327
;WIDTH:0.413185
G1 X139.166 Y133.667 E.01075
;WIDTH:0.456555
G1 X139.145 Y134.023 E.01201
;WIDTH:0.499999
G1 X139.123 Y134.585 E.02097
G1 X139.123 Y136.89 E.08584
G1 X139.145 Y137.13 E.00899
;WIDTH:0.455706
G1 X139.167 Y137.371 E.00812
;WIDTH:0.411412
G1 X139.189 Y137.611 E.00725
;WIDTH:0.369171
G1 X139.188 Y142.241 E.12307
G1 X139.131 Y142.719 E.0128
;WIDTH:0.363174
G1 X138.944 Y143.219 E.01393
;WIDTH:0.366991
G1 X138.636 Y143.637 E.01373
G1 X138.35 Y143.879 E.00989
;WIDTH:0.363115
G1 X137.899 Y144.121 E.01335
G1 X137.399 Y144.226 E.01334
;WIDTH:0.364677
G1 X137.141 Y144.241 E.00678
G1 X119.026 Y143.609 E.47523
;WIDTH:0.362118
G1 X118.896 Y143.573 E.0035
G1 X118.839 Y143.45 E.00353
G1 X118.912 Y143.315 E.004
G1 X119.037 Y143.29 E.00332
;WIDTH:0.364677
G1 X137.241 Y143.921 E.47758
;WIDTH:0.362657
G1 X137.79 Y143.821 E.01453
;WIDTH:0.360515
G1 X138.29 Y143.529 E.01499
;WIDTH:0.359469
G1 X138.629 Y143.123 E.01364
;WIDTH:0.363174
G1 X138.829 Y142.615 E.01426
;WIDTH:0.369171
G1 X138.862 Y142.24 E.00999
G1 X138.865 Y137.611 E.12307
;WIDTH:0.367118
G1 X138.865 Y137.611 E.00001
;WIDTH:0.411411
G1 X138.825 Y137.392 E.00669
;WIDTH:0.455705
G1 X138.785 Y137.172 E.00749
;WIDTH:0.499999
G1 X138.745 Y136.953 E.0083
G1 X138.59 Y136.701 E.01104
G1 X138.125 Y136.266 E.0237
G1 X137.637 Y136.072 E.01955
;WIPE_START
G1 F23040
G1 X137.291 Y136.013 E-.05219
G1 X137.133 Y136.03 E-.02351
G1 X136.976 Y136.046 E-.02351
G1 X136.818 Y136.062 E-.02351
G1 X136.231 Y136.078 E-.08723
G1 X124.845 Y136.078 E-1.69005
;WIPE_END
G1 E-.1 F3600
G1 Z.6 F28800
G1 X138.84 Y112.7
G1 Z.2
G1 E2 F1800
;WIDTH:0.405371
G1 F6300
G1 X138.869 Y112.796 E.00297
;WIDTH:0.36499
G1 X138.868 Y133.189 E.53519
;WIDTH:0.408573
G1 X138.805 Y133.775 E.01758
;WIDTH:0.456555
G1 X138.78 Y133.945 E.00579
;WIDTH:0.499999
G1 X138.571 Y134.468 E.02097
G1 X138.167 Y135.003 E.02498
G1 X137.587 Y135.454 E.02734
G1 X137.162 Y135.64 E.01731
;WIDTH:0.494083
G1 X136.877 Y135.678 E.01058
;WIDTH:0.451819
G1 X136.591 Y135.716 E.00959
;WIDTH:0.409554
G1 X136.306 Y135.754 E.00859
;WIDTH:0.367289
G1 X136.231 Y135.757 E.002
