; generated by PrusaSlicer 2.5.0 on 2025-03-29 at 08:11:56 UTC

; 

; external perimeters extrusion width = 0.40mm
; perimeters extrusion width = 0.45mm
; infill extrusion width = 0.45mm
; solid infill extrusion width = 0.45mm
; top infill extrusion width = 0.40mm
; support material extrusion width = 0.35mm
; first layer extrusion width = 0.50mm

M107
;TYPE:Custom
;===== date: 2022,09,19 =====================
;===== reset machine status =================
G91
M17 Z0.3 ; lower the z-motor current
G0 Z7 F300 ; lower the hotbed , to prevent the nozzle is below the hotbed
G90
M17 X1.2 Y1.2 Z0.75 ; reset motor current to default
M960 S5 P1 ; turn on logo lamp
G90
M220 S100 ;Reset Feedrate
M221 S100 ;Reset Flowrate
M73.2   R1.0 ;Reset left time magnitude
M1002 set_gcode_claim_speed_level : 5
M221 X0 Y0 Z0 ; turn off soft endstop to prevent protential logic problem

;===== heatbed preheat ====================
M1002 gcode_claim_action : 2
M140 S35 ;set bed temp
M190 S35 ;wait for bed temp

;=============turn on fans to prevent PLA jamming=================

    ;Prevent PLA from jamming

M106 P2 S100 ; turn on big fan ,to cool down toolhead

;===== prepare print temperature and material ==========
M104 S220 ;set extruder temp
G91
G0 Z2 F1200
G90
G28 X
M975 S1 ; turn on 
G1 X60 F12000
G1 Y245
G1 Y265 F3000
M620 M
M620 S0A   ; switch material if AMS exist
    M109 S220
    G1 X120 F12000

    G1 X20 Y50 F12000
    G1 Y-3
    T0
    G1 X54 F12000
    G1 Y265
    M400
M621 S0A

M412 S1 ; ===turn on filament runout detection===

M109 S250 ;set nozzle to common flush temp
M106 P1 S0
G92 E0
G1 E50 F200
M400
M104 S220
G92 E0
G1 E50 F200
M400
M106 P1 S255
G92 E0
G1 E5 F300
M109 S200 ; drop nozzle temp, make filament shink a bit
G92 E0
G1 E-0.5 F300

G1 X70 F9000
G1 X76 F15000
G1 X65 F15000
G1 X76 F15000
G1 X65 F15000; shake to put down garbage
G1 X80 F6000
G1 X95 F15000
G1 X80 F15000
G1 X165 F15000; wipe and shake
M400
M106 P1 S0
;===== prepare print temperature and material end =====


;===== wipe nozzle ===============================
M1002 gcode_claim_action : 14
M975 S1
M106 S255
G1 X65 Y230 F18000
G1 Y264 F6000
M109 S200
G1 X100 F18000 ; first wipe mouth

G0 X135 Y261 F20000  ; move to exposed steel surface edge
G28 Z P0 T300; home z with low precision,permit 300deg temperature
G29.2 S0 ; turn off ABL
G0 Z2 F20000

G1 X60 Y265
G92 E0
G1 E-0.5 F300 ; retrack more
G1 X100 F5000; second wipe mouth
G1 X70 F15000
G1 X100 F5000
G1 X70 F15000
G1 X100 F5000
G1 X70 F15000
G1 X100 F5000
G1 X70 F15000
G1 X90 F5000
G0 X128 Y261 Z-1.5 F20000  ; move to exposed steel surface and stop the nozzle
M104 S140 ; set temp down to heatbed acceptable
M106 S255 ; turn on fan (G28 has turn off fan)

M221 S; push soft endstop status
M221 Z0 ;turn off Z axis endstop
G0 Z0.5 F20000
G0 X125 Y259.5 Z-1.01
G0 X131 F211
G0 X124
G0 Z0.5 F20000
G0 X125 Y262.5
G0 Z-1.01
G0 X131 F211
G0 X124
G0 Z0.5 F20000
G0 X125 Y260.0
G0 Z-1.01
G0 X131 F211
G0 X124
G0 Z0.5 F20000
G0 X125 Y262.0
G0 Z-1.01
G0 X131 F211
G0 X124
G0 Z0.5 F20000
G0 X125 Y260.5
G0 Z-1.01
G0 X131 F211
G0 X124
G0 Z0.5 F20000
G0 X125 Y261.5
G0 Z-1.01
G0 X131 F211
G0 X124
G0 Z0.5 F20000
G0 X125 Y261.0
G0 Z-1.01
G0 X131 F211
G0 X124
G0 X128
G2 I0.5 J0 F300
G2 I0.5 J0 F300
G2 I0.5 J0 F300
G2 I0.5 J0 F300

M109 S140 ; wait nozzle temp down to heatbed acceptable
G2 I0.5 J0 F3000
G2 I0.5 J0 F3000
G2 I0.5 J0 F3000
G2 I0.5 J0 F3000

M221 R; pop softend status
G1 Z10 F1200
M400
G1 Z10
G1 F30000
G1 X230 Y15
G29.2 S1 ; turn on ABL
;G28 ; home again after hard wipe mouth
M106 S0 ; turn off fan , too noisy
;===== wipe nozzle end ================================


;===== bed leveling ==================================
M1002 judge_flag g29_before_print_flag
M622 J1

    M1002 gcode_claim_action : 1
    G29 A X71.9144 Y104.064 I114.171 J47.7803
    M400
    M500 ; save cali data

M623
;===== bed leveling end ================================

;===== home after wipe mouth============================
M1002 judge_flag g29_before_print_flag
M622 J0

    M1002 gcode_claim_action : 13
    G28

M623
;===== home after wipe mouth end =======================

M975 S1 ; turn on vibration supression

=============turn on fans to prevent PLA jamming=================

    ;Prevent PLA from jamming

M106 P2 S100 ; turn on big fan ,to cool down toolhead


M104 S220 ; set extrude temp earlier, to reduce wait time

;===== mech mode fast check============================
G1 X128 Y128 Z5 F20000
M400 P200
M970.3 Q1 A7 B30 C80  H15 K0
M974 Q1 S2 P0

G1 X128 Y128 Z5 F20000
M400 P200
M970.3 Q0 A7 B30 C90 Q0 H15 K0
M974 Q0 S2 P0

M975 S1
G1 F30000
G1 X230 Y15
G28 X ; re-home XY 
;===== fmech mode fast check============================


;===== noozle load line ===============================
M975 S1
G90 
M83
T1000
G1 X18.0 Y5.0 Z0.3 F18000;Move to start position
M109 S220
G0 E3 F300
G0 X240 E15 F6400 
G0 Y5.5 
G0 X18 E15
M400

;========turn off light and wait extrude temperature =============
M1002 gcode_claim_action : 0
M973 S4 ; turn off scanner
M400 ; wait all motion done before implement the emprical L parameters
;M900 L500.0 ; Empirical parameters
M109 S220
M960 S1 P0 ; turn off laser
M960 S2 P0 ; turn off laser
M106 S0 ; turn off fan
M106 P2 S0 ; turn off big fan 
M106 P3 S0 ; turn off chamber fan

M975 S1 ; turn on mech mode supression
G90 
M83
T1000
G1 X128.0 Y253.0 Z0.2 F6000.0;Move to start position
M109 S220
G0 X253 E6.4 F5333.33 
G0 Y128 E6.4
G0 X252.5
G0 Y252.5 E6.4
G0 X128 E6.4
G21 ; set units to millimeters
G90 ; use absolute coordinates
M83 ; use relative distances for extrusion
; Filament gcode
M106 P2 S178 ; Chamber fan, 70%, I think
M107
;LAYER_CHANGE
;Z:0.2
;HEIGHT:0.2
G92 E0
M971 S11 C10 O0
G1 E-2 F3600
G1 Z.4 F28800
G1 X75.428 Y105.126
G1 Z.2
G1 E2 F1800
;TYPE:Skirt/Brim
;WIDTH:0.5
G1 F6300
G1 X78.6 Y104.293 E.12214
G1 X179.4 Y104.293 E3.75442
G1 X181.629 Y104.69 E.08433
G1 X183.584 Y105.832 E.08433
G1 X185.024 Y107.578 E.08433
G1 X185.857 Y110.75 E.12214
G1 X185.857 Y135.75 E.93115
G1 X185.46 Y137.979 E.08433
G1 X184.318 Y139.934 E.08433
G1 X182.572 Y141.374 E.08433
G1 X180.865 Y142.039 E.06823
G1 X140.465 Y151.448 E1.54502
G1 X139 Y151.616 E.05491
G1 X119 Y151.616 E.74492
G1 X117.535 Y151.448 E.05491
G1 X77.135 Y142.039 E1.54502
G1 X75.055 Y141.147 E.08433
G1 X73.41 Y139.591 E.08433
G1 X72.403 Y137.563 E.08433
G1 X72.143 Y135.75 E.06823
G1 X72.143 Y110.75 E.93115
G1 X72.54 Y108.521 E.08433
G1 X73.682 Y106.566 E.08433
G1 X75.382 Y105.164 E.08209
;WIPE_START
G1 F23040
G1 X78.6 Y104.293 E-.49485
G1 X88.066 Y104.293 E-1.40515
;WIPE_END
G1 E-.1 F3600
G1 Z.6 F28800
G1 X138.314 Y135.634
G1 Z.2
G1 E2 F1800
;TYPE:Perimeter
;WIDTH:0.499999
G1 F6300
G1 X138.293 Y135.729 E.0036
G1 X138.293 Y144.452 E.32492
G1 X119.707 Y144.452 E.69225
G1 X119.707 Y135.729 E.32492
G1 X119.69 Y135.579 E.00562
G1 X119.556 Y135.299 E.01154
G1 X119.325 Y135.114 E.01105
G1 X119.021 Y135.043 E.0116
G1 X79.307 Y135.043 E1.47921
G1 X79.307 Y111.457 E.87848
G1 X178.693 Y111.457 E3.70174
G1 X178.693 Y135.043 E.87848
G1 X138.979 Y135.043 E1.47921
G1 X138.799 Y135.067 E.00675
G1 X138.535 Y135.205 E.01109
G1 X138.359 Y135.436 E.01082
G1 X138.327 Y135.576 E.00533
G1 X138.75 Y135.729 F28800
;TYPE:External perimeter
G1 F4200
G1 X138.75 Y144.909 E.34194
G1 X119.25 Y144.909 E.7263
G1 X119.25 Y135.729 E.34194
G1 X119.186 Y135.57 E.00639
G1 X119.021 Y135.5 E.00664
G1 X78.85 Y135.5 E1.49623
G1 X78.85 Y111 E.91253
G1 X179.15 Y111 E3.73579
G1 X179.15 Y135.5 E.91253
G1 X138.979 Y135.5 E1.49623
G1 X138.821 Y135.563 E.00632
G1 X138.774 Y135.673 E.00447
G1 X138.364 Y135.832 F28800
;WIPE_START
G1 F23040
G1 X138.75 Y144.909 E-1.37093
G1 X135.186 Y144.909 E-.52907
;WIPE_END
G1 E-.1 F3600
G1 Z.6 F28800
G1 X177.629 Y111.594
G1 Z.2
G1 E2 F1800
;TYPE:Solid infill
;WIDTH:0.501284
G1 F5250
G1 X178.35 Y112.315 E.03809
G1 X178.35 Y112.963 E.02421
G1 X177.187 Y111.8 E.06146
G1 X176.538 Y111.8 E.02421
G1 X178.35 Y113.612 E.0957
G1 X178.35 Y114.26 E.02421
G1 X175.89 Y111.8 E.12994
G1 X175.242 Y111.8 E.02421
G1 X178.35 Y114.908 E.16418
G1 X178.35 Y115.556 E.02421
G1 X174.594 Y111.8 E.19842
G1 X173.945 Y111.8 E.02421
G1 X178.35 Y116.205 E.23266
G1 X178.35 Y116.853 E.02421
G1 X173.297 Y111.8 E.2669
G1 X172.649 Y111.8 E.02421
G1 X178.35 Y117.501 E.30115
G1 X178.35 Y118.149 E.02421
G1 X172.001 Y111.8 E.33539
G1 X171.353 Y111.8 E.02421
G1 X178.35 Y118.797 E.36963
G1 X178.35 Y119.446 E.02421
G1 X170.704 Y111.8 E.40387
G1 X170.056 Y111.8 E.02421
G1 X178.35 Y120.094 E.43811
G1 X178.35 Y120.742 E.02421
G1 X169.408 Y111.8 E.47235
G1 X168.76 Y111.8 E.02421
G1 X178.35 Y121.39 E.50659
G1 X178.35 Y122.039 E.02421
G1 X168.111 Y111.8 E.54083
G1 X167.463 Y111.8 E.02421
G1 X178.35 Y122.687 E.57507
G1 X178.35 Y123.335 E.02421
G1 X166.815 Y111.8 E.60931
G1 X166.167 Y111.8 E.02421
G1 X178.35 Y123.983 E.64355
G1 X178.35 Y124.631 E.02421
G1 X165.519 Y111.8 E.67779
G1 X164.87 Y111.8 E.02421
G1 X178.35 Y125.28 E.71203
G1 X178.35 Y125.928 E.02421
G1 X164.222 Y111.8 E.74627
G1 X163.574 Y111.8 E.02421
G1 X178.35 Y126.576 E.78051
G1 X178.35 Y127.224 E.02421
G1 X162.926 Y111.8 E.81475
G1 X162.277 Y111.8 E.02421
G1 X178.35 Y127.873 E.84899
G1 X178.35 Y128.521 E.02421
G1 X161.629 Y111.8 E.88324
G1 X160.981 Y111.8 E.02421
G1 X178.35 Y129.169 E.91748
G1 X178.35 Y129.817 E.02421
G1 X160.333 Y111.8 E.95172
G1 X159.685 Y111.8 E.02421
G1 X178.35 Y130.465 E.98596
G1 X178.35 Y131.114 E.02421
G1 X159.036 Y111.8 E1.0202
G1 X158.388 Y111.8 E.02421
G1 X178.35 Y131.762 E1.05444
G1 X178.35 Y132.41 E.02421
G1 X157.74 Y111.8 E1.08868
G1 X157.092 Y111.8 E.02421
G1 X178.35 Y133.058 E1.12292
G1 X178.35 Y133.707 E.02421
G1 X156.443 Y111.8 E1.15716
G1 X155.795 Y111.8 E.02421
G1 X178.35 Y134.355 E1.1914
G1 X178.35 Y134.7 E.0129
G1 X178.047 Y134.7 E.01132
G1 X155.147 Y111.8 E1.20964
G1 X154.499 Y111.8 E.02421
G1 X177.399 Y134.7 E1.20964
G1 X176.751 Y134.7 E.02421
G1 X153.85 Y111.8 E1.20964
G1 X153.202 Y111.8 E.02421
G1 X176.103 Y134.7 E1.20964
G1 X175.454 Y134.7 E.02421
G1 X152.554 Y111.8 E1.20964
G1 X151.906 Y111.8 E.02421
G1 X174.806 Y134.7 E1.20964
G1 X174.158 Y134.7 E.02421
G1 X151.258 Y111.8 E1.20964
G1 X150.609 Y111.8 E.02421
G1 X173.51 Y134.7 E1.20964
G1 X172.861 Y134.7 E.02421
G1 X149.961 Y111.8 E1.20964
G1 X149.313 Y111.8 E.02421
G1 X172.213 Y134.7 E1.20964
G1 X171.565 Y134.7 E.02421
G1 X148.665 Y111.8 E1.20964
G1 X148.016 Y111.8 E.02421
G1 X170.917 Y134.7 E1.20964
G1 X170.268 Y134.7 E.02421
G1 X147.368 Y111.8 E1.20964
G1 X146.72 Y111.8 E.02421
G1 X169.62 Y134.7 E1.20964
G1 X168.972 Y134.7 E.02421
G1 X146.072 Y111.8 E1.20964
G1 X145.424 Y111.8 E.02421
G1 X168.324 Y134.7 E1.20964
G1 X167.676 Y134.7 E.02421
G1 X144.775 Y111.8 E1.20964
G1 X144.127 Y111.8 E.02421
G1 X167.027 Y134.7 E1.20964
G1 X166.379 Y134.7 E.02421
G1 X143.479 Y111.8 E1.20964
G1 X142.831 Y111.8 E.02421
G1 X165.731 Y134.7 E1.20964
G1 X165.083 Y134.7 E.02421
G1 X142.182 Y111.8 E1.20964
G1 X141.534 Y111.8 E.02421
G1 X164.434 Y134.7 E1.20964
G1 X163.786 Y134.7 E.02421
G1 X140.886 Y111.8 E1.20964
G1 X140.238 Y111.8 E.02421
G1 X163.138 Y134.7 E1.20964
G1 X162.49 Y134.7 E.02421
G1 X139.59 Y111.8 E1.20964
G1 X138.941 Y111.8 E.02421
G1 X161.842 Y134.7 E1.20964
G1 X161.193 Y134.7 E.02421
G1 X138.293 Y111.8 E1.20964
G1 X137.645 Y111.8 E.02421
G1 X160.545 Y134.7 E1.20964
G1 X159.897 Y134.7 E.02421
G1 X136.997 Y111.8 E1.20964
G1 X136.348 Y111.8 E.02421
G1 X159.249 Y134.7 E1.20964
G1 X158.6 Y134.7 E.02421
G1 X135.7 Y111.8 E1.20964
G1 X135.052 Y111.8 E.02421
G1 X157.952 Y134.7 E1.20964
G1 X157.304 Y134.7 E.02421
G1 X134.404 Y111.8 E1.20964
G1 X133.756 Y111.8 E.02421
G1 X156.656 Y134.7 E1.20964
G1 X156.008 Y134.7 E.02421
G1 X133.107 Y111.8 E1.20964
G1 X132.459 Y111.8 E.02421
G1 X155.359 Y134.7 E1.20964
G1 X154.711 Y134.7 E.02421
G1 X131.811 Y111.8 E1.20964
G1 X131.163 Y111.8 E.02421
G1 X154.063 Y134.7 E1.20964
G1 X153.415 Y134.7 E.02421
G1 X130.514 Y111.8 E1.20964
G1 X129.866 Y111.8 E.02421
G1 X152.766 Y134.7 E1.20964
G1 X152.118 Y134.7 E.02421
G1 X129.218 Y111.8 E1.20964
G1 X128.57 Y111.8 E.02421
G1 X151.47 Y134.7 E1.20964
G1 X150.822 Y134.7 E.02421
G1 X127.922 Y111.8 E1.20964
G1 X127.273 Y111.8 E.02421
G1 X150.174 Y134.7 E1.20964
G1 X149.525 Y134.7 E.02421
G1 X126.625 Y111.8 E1.20964
G1 X125.977 Y111.8 E.02421
G1 X148.877 Y134.7 E1.20964
G1 X148.229 Y134.7 E.02421
G1 X125.329 Y111.8 E1.20964
G1 X124.68 Y111.8 E.02421
G1 X147.581 Y134.7 E1.20964
G1 X146.932 Y134.7 E.02421
G1 X124.032 Y111.8 E1.20964
G1 X123.384 Y111.8 E.02421
G1 X146.284 Y134.7 E1.20964
G1 X145.636 Y134.7 E.02421
G1 X122.736 Y111.8 E1.20964
G1 X122.087 Y111.8 E.02421
G1 X144.988 Y134.7 E1.20964
G1 X144.34 Y134.7 E.02421
G1 X121.439 Y111.8 E1.20964
G1 X120.791 Y111.8 E.02421
G1 X143.691 Y134.7 E1.20964
G1 X143.043 Y134.7 E.02421
G1 X120.143 Y111.8 E1.20964
G1 X119.495 Y111.8 E.02421
G1 X142.395 Y134.7 E1.20964
G1 X141.747 Y134.7 E.02421
G1 X118.846 Y111.8 E1.20964
G1 X118.198 Y111.8 E.02421
G1 X141.098 Y134.7 E1.20964
G1 X140.45 Y134.7 E.02421
G1 X117.55 Y111.8 E1.20964
G1 X116.902 Y111.8 E.02421
G1 X139.802 Y134.7 E1.20964
G1 X139.154 Y134.7 E.02421
G1 X116.253 Y111.8 E1.20964
G1 X115.605 Y111.8 E.02421
G1 X138.593 Y134.787 E1.21425
G1 X138.466 Y134.835 E.00507
G1 X138.206 Y135.049 E.01256
G1 X114.957 Y111.8 E1.22808
G1 X114.309 Y111.8 E.02421
G1 X137.991 Y135.482 E1.25095
G1 X137.952 Y135.663 E.0069
G1 X137.952 Y136.091 E.016
G1 X113.661 Y111.8 E1.2831
G1 X113.012 Y111.8 E.02421
G1 X137.952 Y136.739 E1.31734
G1 X137.951 Y137.387 E.02421
G1 X112.364 Y111.8 E1.35157
G1 X111.716 Y111.8 E.02421
G1 X137.951 Y138.035 E1.38581
G1 X137.951 Y138.683 E.02421
G1 X111.068 Y111.8 E1.42004
G1 X110.419 Y111.8 E.02421
G1 X137.951 Y139.331 E1.45428
G1 X137.951 Y139.98 E.02421
G1 X109.771 Y111.8 E1.48851
G1 X109.123 Y111.8 E.02421
G1 X137.951 Y140.628 E1.52274
G1 X137.951 Y141.276 E.02421
G1 X108.475 Y111.8 E1.55698
G1 X107.827 Y111.8 E.02421
G1 X137.951 Y141.924 E1.59121
G1 X137.95 Y142.572 E.02421
G1 X107.178 Y111.8 E1.62545
G1 X106.53 Y111.8 E.02421
G1 X137.95 Y143.22 E1.65968
G1 X137.95 Y143.868 E.02421
G1 X105.882 Y111.8 E1.69392
G1 X105.234 Y111.8 E.02421
G1 X137.543 Y144.109 E1.70665
G1 X136.895 Y144.109 E.02421
G1 X104.585 Y111.8 E1.70665
G1 X103.937 Y111.8 E.02421
G1 X136.247 Y144.109 E1.70665
G1 X135.598 Y144.109 E.02421
G1 X103.289 Y111.8 E1.70665
G1 X102.641 Y111.8 E.02421
G1 X134.95 Y144.109 E1.70665
G1 X134.302 Y144.109 E.02421
G1 X101.993 Y111.8 E1.70665
G1 X101.344 Y111.8 E.02421
G1 X133.654 Y144.109 E1.70665
G1 X133.005 Y144.109 E.02421
G1 X100.696 Y111.8 E1.70665
G1 X100.048 Y111.8 E.02421
G1 X132.357 Y144.109 E1.70665
G1 X131.709 Y144.109 E.02421
G1 X99.4 Y111.8 E1.70665
G1 X98.751 Y111.8 E.02421
G1 X131.061 Y144.109 E1.70665
G1 X130.413 Y144.109 E.02421
G1 X98.103 Y111.8 E1.70665
G1 X97.455 Y111.8 E.02421
G1 X129.764 Y144.109 E1.70665
G1 X129.116 Y144.109 E.02421
G1 X96.807 Y111.8 E1.70665
G1 X96.158 Y111.8 E.02421
G1 X119.062 Y134.703 E1.2098
G1 X119.199 Y134.715 E.00513
G1 X119.356 Y134.756 E.00606
G1 X119.537 Y134.838 E.00743
G1 X119.789 Y135.043 E.01212
G1 X119.89 Y135.176 E.00626
G1 X119.982 Y135.358 E.00761
G1 X120.048 Y135.69 E.01263
G1 X128.468 Y144.109 E.44474
G1 X127.82 Y144.109 E.02421
G1 X120.048 Y136.338 E.41049
G1 X120.049 Y136.986 E.02422
G1 X127.171 Y144.109 E.37624
G1 X126.523 Y144.109 E.02421
G1 X120.049 Y137.635 E.342
G1 X120.049 Y138.283 E.02422
G1 X125.875 Y144.109 E.30775
G1 X125.227 Y144.109 E.02421
G1 X120.049 Y138.931 E.2735
G1 X120.049 Y139.58 E.02422
G1 X124.578 Y144.109 E.23926
G1 X123.93 Y144.109 E.02421
G1 X120.049 Y140.228 E.20501
G1 X120.049 Y140.876 E.02422
G1 X123.282 Y144.109 E.17076
G1 X122.634 Y144.109 E.02421
G1 X120.049 Y141.525 E.13652
G1 X120.05 Y142.173 E.02422
G1 X121.986 Y144.109 E.10227
G1 X121.337 Y144.109 E.02421
G1 X120.05 Y142.821 E.06802
G1 X120.05 Y143.47 E.02422
G1 X120.895 Y144.315 E.04464
;WIPE_START
G1 F23040
G1 X120.05 Y143.47 E-.1774
G1 X120.05 Y142.821 E-.09624
G1 X121.337 Y144.109 E-.27033
G1 X121.986 Y144.109 E-.09622
G1 X120.05 Y142.173 E-.40643
G1 X120.049 Y141.525 E-.09624
G1 X122.634 Y144.109 E-.54253
G1 X123.282 Y144.109 E-.09622
