; generated by PrusaSlicer 2.5.0 on 2025-03-29 at 07:53:43 UTC

; 

; external perimeters extrusion width = 0.40mm
; perimeters extrusion width = 0.45mm
; infill extrusion width = 0.45mm
; solid infill extrusion width = 0.45mm
; top infill extrusion width = 0.40mm
; support material extrusion width = 0.35mm
; first layer extrusion width = 0.50mm

M107
;TYPE:Custom
;===== date: 2022,09,19 =====================
;===== reset machine status =================
G91
M17 Z0.3 ; lower the z-motor current
G0 Z7 F300 ; lower the hotbed , to prevent the nozzle is below the hotbed
G90
M17 X1.2 Y1.2 Z0.75 ; reset motor current to default
M960 S5 P1 ; turn on logo lamp
G90
M220 S100 ;Reset Feedrate
M221 S100 ;Reset Flowrate
M73.2   R1.0 ;Reset left time magnitude
M1002 set_gcode_claim_speed_level : 5
M221 X0 Y0 Z0 ; turn off soft endstop to prevent protential logic problem

;===== heatbed preheat ====================
M1002 gcode_claim_action : 2
M140 S35 ;set bed temp
M190 S35 ;wait for bed temp

;=============turn on fans to prevent PLA jamming=================

    ;Prevent PLA from jamming

M106 P2 S100 ; turn on big fan ,to cool down toolhead

;===== prepare print temperature and material ==========
M104 S220 ;set extruder temp
G91
G0 Z2 F1200
G90
G28 X
M975 S1 ; turn on 
G1 X60 F12000
G1 Y245
G1 Y265 F3000
M620 M
M620 S0A   ; switch material if AMS exist
    M109 S220
    G1 X120 F12000

    G1 X20 Y50 F12000
    G1 Y-3
    T0
    G1 X54 F12000
    G1 Y265
    M400
M621 S0A

M412 S1 ; ===turn on filament runout detection===

M109 S250 ;set nozzle to common flush temp
M106 P1 S0
G92 E0
G1 E50 F200
M400
M104 S220
G92 E0
G1 E50 F200
M400
M106 P1 S255
G92 E0
G1 E5 F300
M109 S200 ; drop nozzle temp, make filament shink a bit
G92 E0
G1 E-0.5 F300

G1 X70 F9000
G1 X76 F15000
G1 X65 F15000
G1 X76 F15000
G1 X65 F15000; shake to put down garbage
G1 X80 F6000
G1 X95 F15000
G1 X80 F15000
G1 X165 F15000; wipe and shake
M400
M106 P1 S0
;===== prepare print temperature and material end =====


;===== wipe nozzle ===============================
M1002 gcode_claim_action : 14
M975 S1
M106 S255
G1 X65 Y230 F18000
G1 Y264 F6000
M109 S200
G1 X100 F18000 ; first wipe mouth

G0 X135 Y261 F20000  ; move to exposed steel surface edge
G28 Z P0 T300; home z with low precision,permit 300deg temperature
G29.2 S0 ; turn off ABL
G0 Z2 F20000

G1 X60 Y265
G92 E0
G1 E-0.5 F300 ; retrack more
G1 X100 F5000; second wipe mouth
G1 X70 F15000
G1 X100 F5000
G1 X70 F15000
G1 X100 F5000
G1 X70 F15000
G1 X100 F5000
G1 X70 F15000
G1 X90 F5000
G0 X128 Y261 Z-1.5 F20000  ; move to exposed steel surface and stop the nozzle
M104 S140 ; set temp down to heatbed acceptable
M106 S255 ; turn on fan (G28 has turn off fan)

M221 S; push soft endstop status
M221 Z0 ;turn off Z axis endstop
G0 Z0.5 F20000
G0 X125 Y259.5 Z-1.01
G0 X131 F211
G0 X124
G0 Z0.5 F20000
G0 X125 Y262.5
G0 Z-1.01
G0 X131 F211
G0 X124
G0 Z0.5 F20000
G0 X125 Y260.0
G0 Z-1.01
G0 X131 F211
G0 X124
G0 Z0.5 F20000
G0 X125 Y262.0
G0 Z-1.01
G0 X131 F211
G0 X124
G0 Z0.5 F20000
G0 X125 Y260.5
G0 Z-1.01
G0 X131 F211
G0 X124
G0 Z0.5 F20000
G0 X125 Y261.5
G0 Z-1.01
G0 X131 F211
G0 X124
G0 Z0.5 F20000
G0 X125 Y261.0
G0 Z-1.01
G0 X131 F211
G0 X124
G0 X128
G2 I0.5 J0 F300
G2 I0.5 J0 F300
G2 I0.5 J0 F300
G2 I0.5 J0 F300

M109 S140 ; wait nozzle temp down to heatbed acceptable
G2 I0.5 J0 F3000
G2 I0.5 J0 F3000
G2 I0.5 J0 F3000
G2 I0.5 J0 F3000

M221 R; pop softend status
G1 Z10 F1200
M400
G1 Z10
G1 F30000
G1 X230 Y15
G29.2 S1 ; turn on ABL
;G28 ; home again after hard wipe mouth
M106 S0 ; turn off fan , too noisy
;===== wipe nozzle end ================================


;===== bed leveling ==================================
M1002 judge_flag g29_before_print_flag
M622 J1

    M1002 gcode_claim_action : 1
    G29 A X106.134 Y104.893 I45.7328 J46.2135
    M400
    M500 ; save cali data

M623
;===== bed leveling end ================================

;===== home after wipe mouth============================
M1002 judge_flag g29_before_print_flag
M622 J0

    M1002 gcode_claim_action : 13
    G28

M623
;===== home after wipe mouth end =======================

M975 S1 ; turn on vibration supression

=============turn on fans to prevent PLA jamming=================

    ;Prevent PLA from jamming

M106 P2 S100 ; turn on big fan ,to cool down toolhead


M104 S220 ; set extrude temp earlier, to reduce wait time

;===== mech mode fast check============================
G1 X128 Y128 Z5 F20000
M400 P200
M970.3 Q1 A7 B30 C80  H15 K0
M974 Q1 S2 P0

G1 X128 Y128 Z5 F20000
M400 P200
M970.3 Q0 A7 B30 C90 Q0 H15 K0
M974 Q0 S2 P0

M975 S1
G1 F30000
G1 X230 Y15
G28 X ; re-home XY 
;===== fmech mode fast check============================


;===== noozle load line ===============================
M975 S1
G90 
M83
T1000
G1 X18.0 Y5.0 Z0.3 F18000;Move to start position
M109 S220
G0 E3 F300
G0 X240 E15 F6400 
G0 Y5.5 
G0 X18 E15
M400

;========turn off light and wait extrude temperature =============
M1002 gcode_claim_action : 0
M973 S4 ; turn off scanner
M400 ; wait all motion done before implement the emprical L parameters
;M900 L500.0 ; Empirical parameters
M109 S220
M960 S1 P0 ; turn off laser
M960 S2 P0 ; turn off laser
M106 S0 ; turn off fan
M106 P2 S0 ; turn off big fan 
M106 P3 S0 ; turn off chamber fan

M975 S1 ; turn on mech mode supression
G90 
M83
T1000
G1 X128.0 Y253.0 Z0.2 F6000.0;Move to start position
M109 S220
G0 X253 E6.4 F5333.33 
G0 Y128 E6.4
G0 X252.5
G0 Y252.5 E6.4
G0 X128 E6.4
G21 ; set units to millimeters
G90 ; use absolute coordinates
M83 ; use relative distances for extrusion
; Filament gcode
M106 P2 S178 ; Chamber fan, 70%, I think
M107
;LAYER_CHANGE
;Z:0.2
;HEIGHT:0.2
G92 E0
M971 S11 C10 O0
G1 E-2 F3600
G1 Z.4 F28800
G1 X111.179 Y114.126
G1 Z.2
G1 E2 F1800
;TYPE:Skirt/Brim
;WIDTH:0.5
G1 F6300
G1 X117.162 Y108.785 E.29869
G1 X118.258 Y107.987 E.05051
G1 X119.051 Y107.57 E.03337
G1 X121.23 Y106.642 E.08819
G1 X123.703 Y105.896 E.09623
G1 X127.552 Y105.215 E.1456
G1 X129.336 Y105.127 E.0665
G1 X130.846 Y105.274 E.05653
G1 X132.314 Y105.62 E.05616
G1 X140.264 Y108.338 E.31295
G1 X141.331 Y108.918 E.04521
G1 X142.935 Y110.06 E.07334
G1 X144.262 Y111.18 E.06466
G1 X145.4 Y112.293 E.05932
G1 X148.267 Y115.675 E.16513
G1 X148.947 Y116.777 E.04825
G1 X149.575 Y118.152 E.05628
G1 X150.099 Y119.99 E.07119
G1 X151.512 Y127.327 E.27831
G1 X151.638 Y128.673 E.05033
G1 X151.494 Y130.633 E.07319
G1 X151.157 Y132.658 E.07649
G1 X150.682 Y134.498 E.07076
G1 X149.675 Y137.574 E.12056
G1 X149.175 Y138.742 E.04732
G1 X148.439 Y140.013 E.0547
G1 X147.717 Y140.977 E.04486
G1 X146.85 Y141.905 E.04732
G1 X140.741 Y147.15 E.29987
G1 X139.755 Y147.854 E.04514
G1 X138.964 Y148.273 E.03334
G1 X136.875 Y149.169 E.08465
G1 X134.482 Y149.908 E.09329
G1 X130.85 Y150.727 E.13867
G1 X128.838 Y150.877 E.07514
G1 X127.325 Y150.755 E.05655
G1 X125.567 Y150.349 E.06721
G1 X117.736 Y147.511 E.31024
G1 X116.671 Y146.933 E.04511
G1 X115.053 Y145.78 E.07399
G1 X113.812 Y144.738 E.06038
G1 X112.558 Y143.513 E.06528
G1 X111.247 Y142.001 E.07455
G1 X109.846 Y140.077 E.08863
G1 X109.107 Y138.855 E.05319
G1 X108.573 Y137.667 E.04853
G1 X108.137 Y136.238 E.05565
G1 X106.514 Y128.65 E.28902
G1 X106.362 Y127.177 E.05513
G1 X106.496 Y125.295 E.07027
G1 X106.771 Y123.546 E.06594
G1 X107.143 Y121.959 E.06073
G1 X107.755 Y120.052 E.07459
G1 X108.691 Y117.757 E.09233
G1 X109.248 Y116.63 E.0468
G1 X110.066 Y115.386 E.05544
G1 X111.139 Y114.171 E.06041
;WIPE_START
G1 F23040
G1 X117.162 Y108.785 E-1.19923
G1 X118.258 Y107.987 E-.20131
G1 X119.051 Y107.57 E-.13301
G1 X121.23 Y106.642 E-.35148
G1 X121.326 Y106.613 E-.01497
;WIPE_END
G1 E-.1 F3600
G1 Z.6 F28800
G1 X143.121 Y132.277
G1 Z.2
G1 E2 F1800
;TYPE:Perimeter
;WIDTH:0.499999
G1 F5040
G1 X143.507 Y132.372 E.01481
G1 X143.696 Y132.349 E.00709
G1 X143.885 Y132.196 E.00904
G1 X143.81 Y132.472 E.01064
G1 X143.468 Y133.465 E.03911
G1 X143.194 Y134.135 E.02695
G1 X143.09 Y134.572 E.01673
G1 X142.909 Y135.19 E.02401
G1 X142.7 Y135.669 E.01947
G1 X142.414 Y136.13 E.02019
G1 X141.933 Y136.691 E.0275
G1 X141.504 Y137.044 E.02069
G1 X141.071 Y137.343 E.01962
G1 X140.579 Y137.58 E.02034
G1 X139.87 Y137.798 E.02762
G1 X139.345 Y137.875 E.01979
G1 X138.61 Y137.871 E.02735
G1 X137.888 Y137.739 E.02735
G1 X137.537 Y137.618 E.01383
G1 X137.055 Y137.412 E.01952
G1 X136.59 Y137.127 E.02029
G1 X136.029 Y136.654 E.02735
G1 X135.556 Y136.086 E.02754
G1 X135.284 Y135.636 E.0196
G1 X135 Y134.95 E.02763
G1 X134.874 Y134.435 E.01974
G1 X134.809 Y133.695 E.02767
G1 X134.843 Y133.169 E.01963
G1 X135.001 Y132.448 E.0275
G1 X135.282 Y131.765 E.02752
G1 X135.551 Y131.317 E.01946
G1 X136.028 Y130.743 E.02779
G1 X136.429 Y130.388 E.01994
G1 X136.886 Y130.078 E.02057
G1 X137.462 Y129.809 E.02368
G1 X137.981 Y129.642 E.0203
G1 X138.61 Y129.533 E.02378
G1 X139.14 Y129.509 E.01976
G1 X139.691 Y129.564 E.02061
G1 X140.222 Y129.689 E.02033
G1 X140.729 Y129.88 E.02018
G1 X141.364 Y130.241 E.02718
G1 X141.798 Y130.588 E.02072
G1 X142.173 Y130.959 E.01965
G1 X142.503 Y131.398 E.02044
G1 X142.843 Y132.019 E.02637
G1 X143.065 Y132.257 E.01213
G1 X143.321 Y131.881 F28800
;TYPE:External perimeter
G1 F5040
G1 X143.565 Y131.908 E.00915
;WIDTH:0.540598
G1 X143.645 Y131.873 E.00356
;WIDTH:0.581197
G1 X143.726 Y131.838 E.00385
;WIDTH:0.621796
G1 X143.806 Y131.803 E.00414
;WIDTH:0.625024
G1 X144.049 Y130.74 E.05169
;WIDTH:0.621931
G1 X144.161 Y130.061 E.0325
;WIDTH:0.627234
G1 X144.3 Y128.649 E.06755
;WIDTH:0.613787
G1 X144.369 Y128.428 E.01078
G1 X144.548 Y128.291 E.01044
G1 X144.653 Y128.295 E.00488
G1 X144.815 Y128.471 E.01111
G1 X144.869 Y128.696 E.01076
;WIDTH:0.627234
G1 X144.815 Y129.423 E.03474
G1 X144.727 Y130.184 E.03644
;WIDTH:0.620949
G1 X144.602 Y130.923 E.03533
;WIDTH:0.621796
G1 X144.314 Y132.203 E.06186
;WIDTH:0.581197
G1 X144.281 Y132.404 E.00898
;WIDTH:0.540598
G1 X144.247 Y132.606 E.0083
;WIDTH:0.499999
G1 X143.896 Y133.626 E.04017
G1 X143.617 Y134.308 E.02743
G1 X143.537 Y134.667 E.01369
G1 X143.34 Y135.342 E.02622
G1 X143.101 Y135.889 E.02223
G1 X142.783 Y136.4 E.02241
G1 X142.255 Y137.018 E.03028
G1 X141.795 Y137.397 E.02218
G1 X141.292 Y137.744 E.02276
G1 X140.747 Y138.007 E.02256
G1 X139.971 Y138.245 E.03021
G1 X139.377 Y138.332 E.02238
G1 X138.568 Y138.327 E.03013
G1 X137.772 Y138.183 E.03013
G1 X137.388 Y138.05 E.01512
G1 X136.838 Y137.815 E.0223
G1 X136.322 Y137.499 E.02252
G1 X135.704 Y136.977 E.03013
G1 X135.182 Y136.352 E.03033
G1 X134.874 Y135.842 E.02219
G1 X134.565 Y135.092 E.03022
G1 X134.422 Y134.51 E.02233
G1 X134.351 Y133.701 E.03026
G1 X134.389 Y133.105 E.02222
G1 X134.563 Y132.311 E.03028
G1 X134.872 Y131.559 E.0303
G1 X135.178 Y131.052 E.02205
G1 X135.492 Y130.673 E.01832
G1 X135.941 Y130.21 E.02404
G1 X136.377 Y129.871 E.02054
G1 X136.829 Y129.592 E.0198
G1 X137.294 Y129.384 E.01896
G1 X137.869 Y129.199 E.02252
G1 X138.457 Y129.09 E.02228
G1 X138.959 Y129.053 E.01874
G1 X139.466 Y129.082 E.0189
G1 X140.063 Y129.182 E.02256
G1 X140.637 Y129.357 E.02232
G1 X141.277 Y129.655 E.02631
G1 X141.787 Y129.977 E.02245
G1 X142.248 Y130.371 E.02259
G1 X142.695 Y130.892 E.02559
G1 X143.289 Y131.83 E.04134
G1 X143.353 Y132.124 F28800
;WIPE_START
G1 F23040
G1 X143.565 Y131.908 E-.04255
G1 X143.645 Y131.873 E-.01303
G1 X143.726 Y131.838 E-.01303
G1 X143.806 Y131.803 E-.01303
G1 X144.049 Y130.74 E-.16176
G1 X144.161 Y130.061 E-.10223
G1 X144.3 Y128.649 E-.21058
G1 X144.369 Y128.428 E-.0344
G1 X144.548 Y128.291 E-.03332
G1 X144.653 Y128.295 E-.01558
G1 X144.815 Y128.471 E-.03546
G1 X144.869 Y128.696 E-.03434
G1 X144.815 Y129.423 E-.1083
G1 X144.727 Y130.184 E-.1136
G1 X144.602 Y130.923 E-.11134
G1 X144.314 Y132.203 E-.19466
G1 X144.281 Y132.404 E-.03037
G1 X144.247 Y132.606 E-.03037
G1 X143.896 Y133.626 E-.1601
G1 X143.617 Y134.308 E-.10933
G1 X143.537 Y134.667 E-.05456
G1 X143.34 Y135.342 E-.10451
G1 X143.101 Y135.889 E-.08861
G1 X142.799 Y136.375 E-.08494
;WIPE_END
G1 E-.1 F3600
G1 Z.6 F28800
G1 X139.88 Y129.75
G1 Z.2
G1 E2 F1800
;TYPE:Solid infill
;WIDTH:0.526168
G1 F5250
G1 X143.231 Y133.1 E.1866
G1 X143.045 Y133.598 E.02091
G1 X139.319 Y129.871 E.20753
G1 X138.805 Y129.855 E.02022
G1 X138.638 Y129.874 E.00663
G1 X142.849 Y134.085 E.23449
G1 X142.725 Y134.645 E.02256
G1 X138.057 Y129.976 E.25997
G1 X137.818 Y130.037 E.0097
G1 X137.543 Y130.146 E.01166
G1 X142.556 Y135.159 E.2792
G1 X142.399 Y135.504 E.01492
G1 X142.329 Y135.616 E.00518
G1 X137.078 Y130.365 E.29244
G1 X136.669 Y130.639 E.01939
G1 X142.053 Y136.023 E.29984
G1 X141.738 Y136.392 E.01909
G1 X136.304 Y130.957 E.30264
G1 X135.99 Y131.326 E.01909
G1 X141.372 Y136.709 E.29975
G1 X141.16 Y136.883 E.01081
G1 X140.977 Y136.997 E.00848
G1 X135.706 Y131.726 E.29359
G1 X135.589 Y131.919 E.0089
G1 X135.48 Y132.184 E.01126
G1 X140.523 Y137.227 E.28086
G1 X140.01 Y137.397 E.0213
G1 X135.299 Y132.686 E.26232
G1 X135.181 Y133.251 E.02273
G1 X139.444 Y137.514 E.2374
G1 X139.321 Y137.532 E.0049
G1 X138.775 Y137.529 E.02149
G1 X135.174 Y133.927 E.20056
G1 X135.213 Y134.379 E.01786
G1 X135.301 Y134.739 E.01457
G1 X137.967 Y137.404 E.14842
G1 X137.501 Y137.243 E.0194
G1 X137.218 Y137.11 E.01231
G1 X136.792 Y136.849 E.01969
G1 X136.384 Y136.504 E.02101
G1 X135.373 Y135.494 E.05627
;WIPE_START
G1 F23040
G1 X136.384 Y136.504 E-.21212
G1 X136.792 Y136.849 E-.07919
G1 X137.218 Y137.11 E-.07424
G1 X137.501 Y137.243 E-.04641
G1 X137.967 Y137.404 E-.07312
G1 X135.301 Y134.739 E-.55946
G1 X135.213 Y134.379 E-.05493
G1 X135.174 Y133.927 E-.06732
G1 X138.666 Y137.42 E-.73321
;WIPE_END
G1 E-.1 F3600
G1 Z.6 F28800
G1 X129.167 Y122.15
G1 Z.2
G1 E2 F1800
;TYPE:Perimeter
;WIDTH:0.648412
G1 F5945.578
G1 X129.353 Y122.112 E.00938
;WIDTH:0.598941
G1 F6300
G1 X129.54 Y122.075 E.00861
;WIDTH:0.54947
G1 X129.726 Y122.037 E.00785
;WIDTH:0.499999
G1 X130.3 Y121.909 E.0219
G1 X131.031 Y121.705 E.02829
G1 X131.833 Y121.321 E.03312
G1 X132.312 Y121.024 E.02098
G1 X132.926 Y120.516 E.02968
G1 X133.354 Y120.03 E.02413
G1 X133.441 Y119.893 E.00601
;WIDTH:0.455481
G1 X133.527 Y119.757 E.00543
;WIDTH:0.410963
G1 X133.613 Y119.621 E.00484
;WIDTH:0.366444
G1 X134.003 Y118.963 E.02015
;WIDTH:0.400669
G1 X134.128 Y118.736 E.00755
;WIDTH:0.450334
G1 X134.253 Y118.51 E.0086
;WIDTH:0.499999
G1 X134.378 Y118.283 E.00965
G1 X134.587 Y117.537 E.02884
G1 X134.692 Y116.747 E.02968
G1 X134.667 Y115.726 E.03804
G1 X134.586 Y115.316 E.01556
G1 X135.663 Y115.849 E.04475
G1 X136.118 Y116.111 E.01957
G1 X137.105 Y116.77 E.0442
G1 X136.401 Y117.072 E.02853
G1 X135.732 Y117.475 E.02907
G1 X135.118 Y117.972 E.02942
G1 X134.685 Y118.453 E.02411
G1 X134.597 Y118.588 E.00602
;WIDTH:0.457386
G1 X134.508 Y118.723 E.00546
;WIDTH:0.414773
G1 X134.419 Y118.858 E.0049
;WIDTH:0.372159
G1 X134.026 Y119.514 E.0205
;WIDTH:0.386265
G1 X133.93 Y119.683 E.00544
;WIDTH:0.424176
G1 X133.834 Y119.852 E.00604
;WIDTH:0.462088
G1 X133.738 Y120.021 E.00664
;WIDTH:0.499999
G1 X133.642 Y120.19 E.00724
G1 X133.426 Y120.933 E.02885
G1 X133.312 Y121.699 E.02883
G1 X133.321 Y122.623 E.03442
G1 X133.399 Y123.242 E.02322
G1 X133.599 Y123.99 E.02884
G1 X133.719 Y124.216 E.00954
;WIDTH:0.451071
G1 X133.84 Y124.442 E.00852
;WIDTH:0.402143
G1 X133.961 Y124.667 E.0075
;WIDTH:0.377048
G1 X134.446 Y125.473 E.02562
;WIDTH:0.418032
G1 X134.554 Y125.642 E.00612
;WIDTH:0.459016
G1 X134.662 Y125.811 E.00679
;WIDTH:0.499999
G1 X134.769 Y125.98 E.00745
G1 X135.255 Y126.456 E.02537
G1 X136.286 Y127.17 E.04668
G1 X136.99 Y127.491 E.02884
G1 X137.731 Y127.714 E.02884
G1 X138.03 Y127.732 E.01113
;WIDTH:0.452619
G1 X138.328 Y127.75 E.00998
;WIDTH:0.405238
G1 X138.627 Y127.768 E.00882
;WIDTH:0.406529
G1 X138.693 Y127.794 E.0021
;WIDTH:0.455201
G1 X138.758 Y127.82 E.00238
;WIDTH:0.503873
G1 X138.824 Y127.846 E.00266
;WIDTH:0.552545
G1 X138.89 Y127.872 E.00295
;WIDTH:0.601217
G1 X138.956 Y127.899 E.00323
;WIDTH:0.649888
G1 F5931.12
G1 X139.022 Y127.925 E.00351
G1 X138.956 Y127.951 E.00351
;WIDTH:0.601217
G1 F6300
G1 X138.89 Y127.977 E.00323
;WIDTH:0.552545
G1 X138.824 Y128.004 E.00295
;WIDTH:0.503873
G1 X138.758 Y128.03 E.00266
;WIDTH:0.455201
G1 X138.693 Y128.056 E.00238
;WIDTH:0.406529
