; generated by PrusaSlicer 2.5.0 on 2025-03-29 at 08:03:53 UTC

; 

; external perimeters extrusion width = 0.40mm
; perimeters extrusion width = 0.45mm
; infill extrusion width = 0.45mm
; solid infill extrusion width = 0.45mm
; top infill extrusion width = 0.40mm
; support material extrusion width = 0.35mm
; first layer extrusion width = 0.50mm

M107
;TYPE:Custom
;===== date: 2022,09,19 =====================
;===== reset machine status =================
G91
M17 Z0.3 ; lower the z-motor current
G0 Z7 F300 ; lower the hotbed , to prevent the nozzle is below the hotbed
G90
M17 X1.2 Y1.2 Z0.75 ; reset motor current to default
M960 S5 P1 ; turn on logo lamp
G90
M220 S100 ;Reset Feedrate
M221 S100 ;Reset Flowrate
M73.2   R1.0 ;Reset left time magnitude
M1002 set_gcode_claim_speed_level : 5
M221 X0 Y0 Z0 ; turn off soft endstop to prevent protential logic problem

;===== heatbed preheat ====================
M1002 gcode_claim_action : 2
M140 S35 ;set bed temp
M190 S35 ;wait for bed temp

;=============turn on fans to prevent PLA jamming=================

    ;Prevent PLA from jamming

M106 P2 S100 ; turn on big fan ,to cool down toolhead

;===== prepare print temperature and material ==========
M104 S220 ;set extruder temp
G91
G0 Z2 F1200
G90
G28 X
M975 S1 ; turn on 
G1 X60 F12000
G1 Y245
G1 Y265 F3000
M620 M
M620 S0A   ; switch material if AMS exist
    M109 S220
    G1 X120 F12000

    G1 X20 Y50 F12000
    G1 Y-3
    T0
    G1 X54 F12000
    G1 Y265
    M400
M621 S0A

M412 S1 ; ===turn on filament runout detection===

M109 S250 ;set nozzle to common flush temp
M106 P1 S0
G92 E0
G1 E50 F200
M400
M104 S220
G92 E0
G1 E50 F200
M400
M106 P1 S255
G92 E0
G1 E5 F300
M109 S200 ; drop nozzle temp, make filament shink a bit
G92 E0
G1 E-0.5 F300

G1 X70 F9000
G1 X76 F15000
G1 X65 F15000
G1 X76 F15000
G1 X65 F15000; shake to put down garbage
G1 X80 F6000
G1 X95 F15000
G1 X80 F15000
G1 X165 F15000; wipe and shake
M400
M106 P1 S0
;===== prepare print temperature and material end =====


;===== wipe nozzle ===============================
M1002 gcode_claim_action : 14
M975 S1
M106 S255
G1 X65 Y230 F18000
G1 Y264 F6000
M109 S200
G1 X100 F18000 ; first wipe mouth

G0 X135 Y261 F20000  ; move to exposed steel surface edge
G28 Z P0 T300; home z with low precision,permit 300deg temperature
G29.2 S0 ; turn off ABL
G0 Z2 F20000

G1 X60 Y265
G92 E0
G1 E-0.5 F300 ; retrack more
G1 X100 F5000; second wipe mouth
G1 X70 F15000
G1 X100 F5000
G1 X70 F15000
G1 X100 F5000
G1 X70 F15000
G1 X100 F5000
G1 X70 F15000
G1 X90 F5000
G0 X128 Y261 Z-1.5 F20000  ; move to exposed steel surface and stop the nozzle
M104 S140 ; set temp down to heatbed acceptable
M106 S255 ; turn on fan (G28 has turn off fan)

M221 S; push soft endstop status
M221 Z0 ;turn off Z axis endstop
G0 Z0.5 F20000
G0 X125 Y259.5 Z-1.01
G0 X131 F211
G0 X124
G0 Z0.5 F20000
G0 X125 Y262.5
G0 Z-1.01
G0 X131 F211
G0 X124
G0 Z0.5 F20000
G0 X125 Y260.0
G0 Z-1.01
G0 X131 F211
G0 X124
G0 Z0.5 F20000
G0 X125 Y262.0
G0 Z-1.01
G0 X131 F211
G0 X124
G0 Z0.5 F20000
G0 X125 Y260.5
G0 Z-1.01
G0 X131 F211
G0 X124
G0 Z0.5 F20000
G0 X125 Y261.5
G0 Z-1.01
G0 X131 F211
G0 X124
G0 Z0.5 F20000
G0 X125 Y261.0
G0 Z-1.01
G0 X131 F211
G0 X124
G0 X128
G2 I0.5 J0 F300
G2 I0.5 J0 F300
G2 I0.5 J0 F300
G2 I0.5 J0 F300

M109 S140 ; wait nozzle temp down to heatbed acceptable
G2 I0.5 J0 F3000
G2 I0.5 J0 F3000
G2 I0.5 J0 F3000
G2 I0.5 J0 F3000

M221 R; pop softend status
G1 Z10 F1200
M400
G1 Z10
G1 F30000
G1 X230 Y15
G29.2 S1 ; turn on ABL
;G28 ; home again after hard wipe mouth
M106 S0 ; turn off fan , too noisy
;===== wipe nozzle end ================================


;===== bed leveling ==================================
M1002 judge_flag g29_before_print_flag
M622 J1

    M1002 gcode_claim_action : 1
    G29 A X92.5214 Y103.814 I72.9573 J48.1643
    M400
    M500 ; save cali data

M623
;===== bed leveling end ================================

;===== home after wipe mouth============================
M1002 judge_flag g29_before_print_flag
M622 J0

    M1002 gcode_claim_action : 13
    G28

M623
;===== home after wipe mouth end =======================

M975 S1 ; turn on vibration supression

=============turn on fans to prevent PLA jamming=================

    ;Prevent PLA from jamming

M106 P2 S100 ; turn on big fan ,to cool down toolhead


M104 S220 ; set extrude temp earlier, to reduce wait time

;===== mech mode fast check============================
G1 X128 Y128 Z5 F20000
M400 P200
M970.3 Q1 A7 B30 C80  H15 K0
M974 Q1 S2 P0

G1 X128 Y128 Z5 F20000
M400 P200
M970.3 Q0 A7 B30 C90 Q0 H15 K0
M974 Q0 S2 P0

M975 S1
G1 F30000
G1 X230 Y15
G28 X ; re-home XY 
;===== fmech mode fast check============================


;===== noozle load line ===============================
M975 S1
G90 
M83
T1000
G1 X18.0 Y5.0 Z0.3 F18000;Move to start position
M109 S220
G0 E3 F300
G0 X240 E15 F6400 
G0 Y5.5 
G0 X18 E15
M400

;========turn off light and wait extrude temperature =============
M1002 gcode_claim_action : 0
M973 S4 ; turn off scanner
M400 ; wait all motion done before implement the emprical L parameters
;M900 L500.0 ; Empirical parameters
M109 S220
M960 S1 P0 ; turn off laser
M960 S2 P0 ; turn off laser
M106 S0 ; turn off fan
M106 P2 S0 ; turn off big fan 
M106 P3 S0 ; turn off chamber fan

M975 S1 ; turn on mech mode supression
G90 
M83
T1000
G1 X128.0 Y253.0 Z0.2 F6000.0;Move to start position
M109 S220
G0 X253 E6.4 F5333.33 
G0 Y128 E6.4
G0 X252.5
G0 Y252.5 E6.4
G0 X128 E6.4
G21 ; set units to millimeters
G90 ; use absolute coordinates
M83 ; use relative distances for extrusion
; Filament gcode
M106 P2 S178 ; Chamber fan, 70%, I think
M107
;LAYER_CHANGE
;Z:0.2
;HEIGHT:0.2
G92 E0
M971 S11 C10 O0
G1 E-2 F3600
G1 Z.4 F28800
G1 X98.082 Y108.192
G1 Z.2
G1 E2 F1800
;TYPE:Skirt/Brim
;WIDTH:0.5
G1 F6300
G1 X99.45 Y107.113 E.06492
G1 X100.489 Y106.443 E.04605
G1 X102.24 Y105.55 E.0732
G1 X103.876 Y104.947 E.06492
G1 X105.071 Y104.631 E.04605
G1 X108.212 Y104.136 E.11843
G1 X109.494 Y104.043 E.04788
G1 X149.004 Y104.063 E1.47159
G1 X151.854 Y104.427 E.10705
G1 X153.422 Y104.749 E.05961
G1 X154.607 Y105.104 E.04605
G1 X156.422 Y105.856 E.0732
G1 X157.943 Y106.708 E.06492
G1 X159.533 Y107.863 E.0732
G1 X160.454 Y108.687 E.04605
G1 X161.637 Y109.967 E.06492
G1 X162.792 Y111.557 E.0732
G1 X163.644 Y113.078 E.06492
G1 X164.396 Y114.893 E.0732
G1 X164.869 Y116.571 E.06492
G1 X165.177 Y118.512 E.0732
G1 X165.25 Y120 E.05549
G1 X165.215 Y122.38 E.08865
G1 X165.005 Y124.15 E.06638
G1 X164.737 Y125.397 E.04752
G1 X164.372 Y126.619 E.04752
G1 X163.59 Y128.507 E.07612
G1 X162.54 Y130.329 E.07832
G1 X161.188 Y132.101 E.08301
G1 X145.601 Y147.688 E.82104
G1 X144.612 Y148.494 E.04752
G1 X143.562 Y149.219 E.04752
G1 X142.459 Y149.859 E.04752
G1 X141.309 Y150.412 E.04752
G1 X140.119 Y150.872 E.04752
G1 X138.404 Y151.355 E.06638
G1 X137.149 Y151.585 E.04752
G1 X135.88 Y151.715 E.04751
G1 X123.142 Y151.75 E.47443
G1 X121.615 Y151.675 E.05695
G1 X119.596 Y151.355 E.07612
G1 X117.881 Y150.872 E.06638
G1 X115.993 Y150.09 E.07612
G1 X114.87 Y149.484 E.04751
G1 X113.799 Y148.792 E.04752
G1 X112.785 Y148.018 E.04752
G1 X111.834 Y147.166 E.04752
G1 X97.509 Y132.848 E.75436
G1 X96.482 Y131.715 E.05695
G1 X95.708 Y130.701 E.04752
G1 X95.016 Y129.63 E.04752
G1 X94.088 Y127.809 E.07612
G1 X93.628 Y126.619 E.04752
G1 X93.145 Y124.904 E.06638
G1 X92.877 Y123.33 E.05947
G1 X92.755 Y121.611 E.06416
G1 X92.784 Y119.017 E.09662
G1 X92.909 Y117.787 E.04605
G1 X93.249 Y116.078 E.06492
G1 X93.604 Y114.893 E.04605
G1 X94.178 Y113.463 E.0574
G1 X94.943 Y111.989 E.06184
G1 X95.911 Y110.54 E.06492
G1 X96.692 Y109.582 E.04605
G1 X98.039 Y108.234 E.07096
;WIPE_START
G1 F23040
G1 X99.45 Y107.113 E-.26756
G1 X100.489 Y106.443 E-.18354
G1 X102.24 Y105.55 E-.29171
G1 X103.876 Y104.947 E-.25871
G1 X105.071 Y104.631 E-.18354
G1 X108.212 Y104.136 E-.47196
G1 X109.494 Y104.043 E-.19083
G1 X109.845 Y104.043 E-.05213
;WIPE_END
G1 E-.1 F3600
G1 Z.6 F28800
G1 X109.199 Y111.242
G1 Z.2
G1 E2 F1800
;TYPE:Perimeter
;WIDTH:0.499999
G1 F6300
G1 X109.528 Y111.207 E.01232
G1 X148.555 Y111.214 E1.4536
G1 X148.961 Y111.29 E.01541
G1 X149.447 Y111.413 E.01864
G1 X150.174 Y111.441 E.02712
G1 X150.843 Y111.52 E.02509
G1 X151.504 Y111.652 E.02511
G1 X152.153 Y111.835 E.02511
G1 X152.785 Y112.068 E.02511
G1 X153.398 Y112.35 E.02511
G1 X153.986 Y112.68 E.02511
G1 X154.546 Y113.054 E.02511
G1 X155.076 Y113.472 E.02511
G1 X155.571 Y113.929 E.02511
G1 X156.028 Y114.424 E.02511
G1 X156.446 Y114.954 E.02511
G1 X156.82 Y115.514 E.02511
G1 X157.15 Y116.102 E.02511
G1 X157.432 Y116.715 E.02511
G1 X157.665 Y117.347 E.02511
G1 X157.848 Y117.996 E.02511
G1 X157.98 Y118.657 E.02511
G1 X158.059 Y119.326 E.02511
G1 X158.086 Y120.014 E.02563
G1 X158.086 Y121.344 E.04954
G1 X158.057 Y122.071 E.02709
G1 X157.974 Y122.779 E.02657
G1 X157.834 Y123.479 E.02657
G1 X157.641 Y124.165 E.02657
G1 X157.394 Y124.835 E.02657
G1 X157.095 Y125.483 E.02657
G1 X156.747 Y126.105 E.02657
G1 X156.35 Y126.698 E.02657
G1 X155.909 Y127.258 E.02657
G1 X155.415 Y127.792 E.02709
G1 X141.292 Y141.915 E.74389
G1 X140.758 Y142.409 E.02709
G1 X140.198 Y142.85 E.02657
G1 X139.605 Y143.247 E.02657
G1 X138.983 Y143.595 E.02657
G1 X138.335 Y143.894 E.02657
G1 X137.665 Y144.141 E.02657
G1 X136.979 Y144.334 E.02657
G1 X136.279 Y144.474 E.02657
G1 X135.571 Y144.557 E.02657
G1 X134.844 Y144.586 E.02709
G1 X123.156 Y144.586 E.43533
G1 X122.429 Y144.557 E.02709
G1 X121.721 Y144.474 E.02657
G1 X121.021 Y144.334 E.02657
G1 X120.335 Y144.141 E.02657
G1 X119.665 Y143.894 E.02657
G1 X119.017 Y143.595 E.02657
G1 X118.395 Y143.247 E.02657
G1 X117.802 Y142.85 E.02657
G1 X117.242 Y142.409 E.02657
G1 X116.708 Y141.915 E.02709
G1 X102.585 Y127.792 E.74389
G1 X102.091 Y127.258 E.02709
G1 X101.65 Y126.698 E.02657
G1 X101.253 Y126.105 E.02657
G1 X100.905 Y125.483 E.02657
G1 X100.606 Y124.835 E.02657
G1 X100.359 Y124.165 E.02657
G1 X100.166 Y123.479 E.02657
G1 X100.026 Y122.779 E.02657
G1 X99.943 Y122.071 E.02657
G1 X99.914 Y121.344 E.02709
G1 X99.914 Y120.014 E.04954
G1 X99.981 Y118.992 E.03815
G1 X100.086 Y118.326 E.02509
G1 X100.243 Y117.671 E.02509
G1 X100.451 Y117.031 E.02509
G1 X100.709 Y116.408 E.02509
G1 X101.015 Y115.808 E.02509
G1 X101.367 Y115.234 E.02509
G1 X101.763 Y114.689 E.02509
G1 X102.2 Y114.177 E.02509
G1 X102.677 Y113.7 E.02509
G1 X103.189 Y113.263 E.02509
G1 X103.734 Y112.867 E.02509
G1 X104.308 Y112.515 E.02509
G1 X104.909 Y112.209 E.02509
G1 X105.531 Y111.951 E.0251
G1 X106.172 Y111.743 E.02511
G1 X106.829 Y111.586 E.02516
G1 X107.489 Y111.481 E.02488
G1 X108.725 Y111.385 E.0462
G1 X109.142 Y111.259 E.01619
G1 X109.067 Y110.804 F28800
;TYPE:External perimeter
G1 F4200
G1 X109.153 Y110.778 E.00333
G1 X109.51 Y110.75 E.01335
G1 X148.073 Y110.75 E1.43634
G1 X148.847 Y110.778 E.02884
G1 X149.464 Y110.957 E.0239
G1 X150.21 Y110.985 E.0278
G1 X150.915 Y111.069 E.02644
G1 X151.611 Y111.207 E.02645
G1 X152.294 Y111.4 E.02645
G1 X152.961 Y111.646 E.02644
G1 X153.605 Y111.943 E.02645
G1 X154.225 Y112.29 E.02644
G1 X154.815 Y112.684 E.02645
G1 X155.373 Y113.124 E.02645
G1 X155.894 Y113.606 E.02645
G1 X156.376 Y114.127 E.02645
G1 X156.816 Y114.685 E.02645
G1 X157.21 Y115.275 E.02645
G1 X157.557 Y115.895 E.02644
G1 X157.854 Y116.539 E.02645
G1 X158.1 Y117.206 E.02644
G1 X158.293 Y117.889 E.02645
G1 X158.432 Y118.585 E.02645
G1 X158.515 Y119.291 E.02645
G1 X158.543 Y120.005 E.02663
G1 X158.543 Y121.353 E.05021
G1 X158.513 Y122.107 E.02809
G1 X158.425 Y122.851 E.02791
G1 X158.279 Y123.586 E.02791
G1 X158.076 Y124.307 E.02791
G1 X157.816 Y125.01 E.02791
G1 X157.503 Y125.69 E.02791
G1 X157.137 Y126.344 E.02791
G1 X156.72 Y126.967 E.02791
G1 X156.256 Y127.555 E.02791
G1 X155.744 Y128.109 E.02809
G1 X141.609 Y142.244 E.74456
G1 X141.055 Y142.756 E.02809
G1 X140.467 Y143.22 E.02791
G1 X139.844 Y143.637 E.02791
G1 X139.19 Y144.003 E.02791
G1 X138.51 Y144.316 E.02791
G1 X137.807 Y144.576 E.02791
G1 X137.086 Y144.779 E.02791
G1 X136.351 Y144.925 E.02791
G1 X135.607 Y145.013 E.02791
G1 X134.853 Y145.043 E.02809
G1 X123.147 Y145.043 E.436
G1 X122.393 Y145.013 E.02809
G1 X121.649 Y144.925 E.02791
G1 X120.914 Y144.779 E.02791
G1 X120.193 Y144.576 E.02791
G1 X119.49 Y144.316 E.02791
G1 X118.81 Y144.003 E.02791
G1 X118.156 Y143.637 E.02791
G1 X117.533 Y143.22 E.02791
G1 X116.945 Y142.756 E.02791
G1 X116.391 Y142.244 E.02809
G1 X102.256 Y128.109 E.74456
G1 X101.744 Y127.555 E.02809
G1 X101.28 Y126.967 E.02791
G1 X100.863 Y126.344 E.02791
G1 X100.497 Y125.69 E.02791
G1 X100.184 Y125.01 E.02791
G1 X99.924 Y124.307 E.02791
G1 X99.721 Y123.586 E.02791
G1 X99.575 Y122.851 E.02791
G1 X99.487 Y122.107 E.02791
G1 X99.457 Y121.353 E.02809
G1 X99.457 Y120.005 E.05021
G1 X99.485 Y119.291 E.02663
G1 X99.569 Y118.585 E.02645
G1 X99.707 Y117.889 E.02645
G1 X99.9 Y117.206 E.02645
G1 X100.146 Y116.539 E.02644
G1 X100.443 Y115.895 E.02645
G1 X100.79 Y115.275 E.02644
G1 X101.184 Y114.685 E.02645
G1 X101.624 Y114.127 E.02645
G1 X102.106 Y113.606 E.02645
G1 X102.627 Y113.124 E.02645
G1 X103.185 Y112.684 E.02645
G1 X103.775 Y112.29 E.02645
G1 X104.395 Y111.943 E.02644
G1 X105.039 Y111.646 E.02645
G1 X105.706 Y111.4 E.02644
G1 X106.389 Y111.207 E.02645
G1 X107.085 Y111.069 E.02645
G1 X107.79 Y110.985 E.02644
G1 X108.593 Y110.947 E.02994
G1 X109.01 Y110.821 E.01619
G1 X109.129 Y110.869 F28800
;WIPE_START
G1 F23040
G1 X109.153 Y110.778 E-.02217
G1 X109.51 Y110.75 E-.05321
G1 X121.802 Y110.75 E-1.82462
;WIPE_END
G1 E-.1 F3600
G1 Z.6 F28800
G1 X156.63 Y115.476
G1 Z.2
G1 E2 F1800
;TYPE:Solid infill
;WIDTH:0.504103
G1 F5250
G1 X155.292 Y114.138 E.07111
G1 X154.853 Y113.732 E.02248
G1 X154.345 Y113.332 E.02432
G1 X153.807 Y112.972 E.02432
G1 X153.085 Y112.584 E.03079
G1 X156.916 Y116.415 E.2036
G1 X157.115 Y116.846 E.01784
G1 X157.353 Y117.504 E.02631
G1 X151.996 Y112.147 E.28473
G1 X151.424 Y111.985 E.02233
G1 X151.122 Y111.925 E.01156
G1 X157.575 Y118.378 E.34291
G1 X157.641 Y118.711 E.01276
G1 X157.693 Y119.148 E.01654
G1 X150.352 Y111.807 E.39012
G1 X149.656 Y111.763 E.02623
G1 X157.736 Y119.844 E.42946
G1 X157.743 Y120.503 E.02477
G1 X148.851 Y111.611 E.47257
G1 X148.7 Y111.569 E.00592
G1 X148.138 Y111.55 E.02111
G1 X157.743 Y121.155 E.51046
G1 X157.725 Y121.789 E.02385
G1 X147.486 Y111.55 E.54418
G1 X146.834 Y111.55 E.02451
G1 X157.674 Y122.391 E.57613
G1 X157.589 Y122.957 E.02153
G1 X146.182 Y111.55 E.60624
G1 X145.53 Y111.55 E.02451
G1 X157.474 Y123.494 E.6348
G1 X157.33 Y124.003 E.01986
G1 X144.877 Y111.55 E.66184
G1 X144.225 Y111.55 E.02451
G1 X157.158 Y124.483 E.68735
G1 X156.966 Y124.943 E.01874
G1 X143.573 Y111.55 E.71181
G1 X142.921 Y111.55 E.02451
G1 X156.756 Y125.386 E.73533
G1 X156.522 Y125.804 E.01801
G1 X142.268 Y111.55 E.75755
G1 X141.616 Y111.55 E.02451
G1 X156.269 Y126.203 E.77875
G1 X156.001 Y126.587 E.01761
G1 X140.964 Y111.55 E.79918
G1 X140.312 Y111.55 E.02451
G1 X155.714 Y126.952 E.81856
G1 X155.406 Y127.297 E.01736
G1 X139.66 Y111.55 E.83689
G1 X139.007 Y111.55 E.02451
G1 X155.09 Y127.633 E.85474
G1 X154.764 Y127.959 E.01733
G1 X138.355 Y111.55 E.87207
G1 X137.703 Y111.55 E.02451
G1 X154.438 Y128.285 E.8894
G1 X154.112 Y128.611 E.01733
G1 X137.051 Y111.55 E.90673
G1 X136.398 Y111.55 E.02451
G1 X153.785 Y128.937 E.92407
G1 X153.459 Y129.263 E.01733
G1 X135.746 Y111.55 E.9414
G1 X135.094 Y111.55 E.02451
G1 X153.133 Y129.589 E.95873
G1 X152.807 Y129.915 E.01733
G1 X134.442 Y111.55 E.97606
G1 X133.79 Y111.55 E.02451
G1 X152.481 Y130.241 E.99339
G1 X152.155 Y130.568 E.01733
G1 X133.137 Y111.55 E1.01072
G1 X132.485 Y111.55 E.02451
G1 X151.829 Y130.894 E1.02806
G1 X151.503 Y131.22 E.01733
G1 X131.833 Y111.55 E1.04539
G1 X131.181 Y111.55 E.02451
G1 X151.177 Y131.546 E1.06272
G1 X150.851 Y131.872 E.01733
G1 X130.529 Y111.55 E1.08005
G1 X129.876 Y111.55 E.02451
G1 X150.524 Y132.198 E1.09738
G1 X150.198 Y132.524 E.01733
G1 X129.224 Y111.55 E1.11471
G1 X128.572 Y111.55 E.02451
G1 X149.872 Y132.85 E1.13205
G1 X149.546 Y133.176 E.01733
G1 X127.92 Y111.55 E1.14938
G1 X127.267 Y111.55 E.02451
G1 X149.22 Y133.503 E1.16671
G1 X148.894 Y133.829 E.01733
G1 X126.615 Y111.55 E1.18404
