; generated by PrusaSlicer 2.5.0 on 2025-03-29 at 08:08:03 UTC

; 

; external perimeters extrusion width = 0.40mm
; perimeters extrusion width = 0.45mm
; infill extrusion width = 0.45mm
; solid infill extrusion width = 0.45mm
; top infill extrusion width = 0.40mm
; support material extrusion width = 0.35mm
; first layer extrusion width = 0.50mm

M107
;TYPE:Custom
;===== date: 2022,09,19 =====================
;===== reset machine status =================
G91
M17 Z0.3 ; lower the z-motor current
G0 Z7 F300 ; lower the hotbed , to prevent the nozzle is below the hotbed
G90
M17 X1.2 Y1.2 Z0.75 ; reset motor current to default
M960 S5 P1 ; turn on logo lamp
G90
M220 S100 ;Reset Feedrate
M221 S100 ;Reset Flowrate
M73.2   R1.0 ;Reset left time magnitude
M1002 set_gcode_claim_speed_level : 5
M221 X0 Y0 Z0 ; turn off soft endstop to prevent protential logic problem

;===== heatbed preheat ====================
M1002 gcode_claim_action : 2
M140 S35 ;set bed temp
M190 S35 ;wait for bed temp

;=============turn on fans to prevent PLA jamming=================

    ;Prevent PLA from jamming

M106 P2 S100 ; turn on big fan ,to cool down toolhead

;===== prepare print temperature and material ==========
M104 S220 ;set extruder temp
G91
G0 Z2 F1200
G90
G28 X
M975 S1 ; turn on 
G1 X60 F12000
G1 Y245
G1 Y265 F3000
M620 M
M620 S0A   ; switch material if AMS exist
    M109 S220
    G1 X120 F12000

    G1 X20 Y50 F12000
    G1 Y-3
    T0
    G1 X54 F12000
    G1 Y265
    M400
M621 S0A

M412 S1 ; ===turn on filament runout detection===

M109 S250 ;set nozzle to common flush temp
M106 P1 S0
G92 E0
G1 E50 F200
M400
M104 S220
G92 E0
G1 E50 F200
M400
M106 P1 S255
G92 E0
G1 E5 F300
M109 S200 ; drop nozzle temp, make filament shink a bit
G92 E0
G1 E-0.5 F300

G1 X70 F9000
G1 X76 F15000
G1 X65 F15000
G1 X76 F15000
G1 X65 F15000; shake to put down garbage
G1 X80 F6000
G1 X95 F15000
G1 X80 F15000
G1 X165 F15000; wipe and shake
M400
M106 P1 S0
;===== prepare print temperature and material end =====


;===== wipe nozzle ===============================
M1002 gcode_claim_action : 14
M975 S1
M106 S255
G1 X65 Y230 F18000
G1 Y264 F6000
M109 S200
G1 X100 F18000 ; first wipe mouth

G0 X135 Y261 F20000  ; move to exposed steel surface edge
G28 Z P0 T300; home z with low precision,permit 300deg temperature
G29.2 S0 ; turn off ABL
G0 Z2 F20000

G1 X60 Y265
G92 E0
G1 E-0.5 F300 ; retrack more
G1 X100 F5000; second wipe mouth
G1 X70 F15000
G1 X100 F5000
G1 X70 F15000
G1 X100 F5000
G1 X70 F15000
G1 X100 F5000
G1 X70 F15000
G1 X90 F5000
G0 X128 Y261 Z-1.5 F20000  ; move to exposed steel surface and stop the nozzle
M104 S140 ; set temp down to heatbed acceptable
M106 S255 ; turn on fan (G28 has turn off fan)

M221 S; push soft endstop status
M221 Z0 ;turn off Z axis endstop
G0 Z0.5 F20000
G0 X125 Y259.5 Z-1.01
G0 X131 F211
G0 X124
G0 Z0.5 F20000
G0 X125 Y262.5
G0 Z-1.01
G0 X131 F211
G0 X124
G0 Z0.5 F20000
G0 X125 Y260.0
G0 Z-1.01
G0 X131 F211
G0 X124
G0 Z0.5 F20000
G0 X125 Y262.0
G0 Z-1.01
G0 X131 F211
G0 X124
G0 Z0.5 F20000
G0 X125 Y260.5
G0 Z-1.01
G0 X131 F211
G0 X124
G0 Z0.5 F20000
G0 X125 Y261.5
G0 Z-1.01
G0 X131 F211
G0 X124
G0 Z0.5 F20000
G0 X125 Y261.0
G0 Z-1.01
G0 X131 F211
G0 X124
G0 X128
G2 I0.5 J0 F300
G2 I0.5 J0 F300
G2 I0.5 J0 F300
G2 I0.5 J0 F300

M109 S140 ; wait nozzle temp down to heatbed acceptable
G2 I0.5 J0 F3000
G2 I0.5 J0 F3000
G2 I0.5 J0 F3000
G2 I0.5 J0 F3000

M221 R; pop softend status
G1 Z10 F1200
M400
G1 Z10
G1 F30000
G1 X230 Y15
G29.2 S1 ; turn on ABL
;G28 ; home again after hard wipe mouth
M106 S0 ; turn off fan , too noisy
;===== wipe nozzle end ================================


;===== bed leveling ==================================
M1002 judge_flag g29_before_print_flag
M622 J1

    M1002 gcode_claim_action : 1
    G29 A X108.521 Y118.042 I41.5105 J20.227
    M400
    M500 ; save cali data

M623
;===== bed leveling end ================================

;===== home after wipe mouth============================
M1002 judge_flag g29_before_print_flag
M622 J0

    M1002 gcode_claim_action : 13
    G28

M623
;===== home after wipe mouth end =======================

M975 S1 ; turn on vibration supression

=============turn on fans to prevent PLA jamming=================

    ;Prevent PLA from jamming

M106 P2 S100 ; turn on big fan ,to cool down toolhead


M104 S220 ; set extrude temp earlier, to reduce wait time

;===== mech mode fast check============================
G1 X128 Y128 Z5 F20000
M400 P200
M970.3 Q1 A7 B30 C80  H15 K0
M974 Q1 S2 P0

G1 X128 Y128 Z5 F20000
M400 P200
M970.3 Q0 A7 B30 C90 Q0 H15 K0
M974 Q0 S2 P0

M975 S1
G1 F30000
G1 X230 Y15
G28 X ; re-home XY 
;===== fmech mode fast check============================


;===== noozle load line ===============================
M975 S1
G90 
M83
T1000
G1 X18.0 Y5.0 Z0.3 F18000;Move to start position
M109 S220
G0 E3 F300
G0 X240 E15 F6400 
G0 Y5.5 
G0 X18 E15
M400

;========turn off light and wait extrude temperature =============
M1002 gcode_claim_action : 0
M973 S4 ; turn off scanner
M400 ; wait all motion done before implement the emprical L parameters
;M900 L500.0 ; Empirical parameters
M109 S220
M960 S1 P0 ; turn off laser
M960 S2 P0 ; turn off laser
M106 S0 ; turn off fan
M106 P2 S0 ; turn off big fan 
M106 P3 S0 ; turn off chamber fan

M975 S1 ; turn on mech mode supression
G90 
M83
T1000
G1 X128.0 Y253.0 Z0.2 F6000.0;Move to start position
M109 S220
G0 X253 E6.4 F5333.33 
G0 Y128 E6.4
G0 X252.5
G0 Y252.5 E6.4
G0 X128 E6.4
G21 ; set units to millimeters
G90 ; use absolute coordinates
M83 ; use relative distances for extrusion
; Filament gcode
M106 P2 S178 ; Chamber fan, 70%, I think
M107
;LAYER_CHANGE
;Z:0.2
;HEIGHT:0.2
G92 E0
M971 S11 C10 O0
G1 E-2 F3600
G1 Z.4 F28800
G1 X110.25 Y120.586
G1 Z.2
G1 E2 F1800
;TYPE:Skirt/Brim
;WIDTH:0.5
G1 F3903
G1 X111.984 Y119.129 E.08433
G1 X114.113 Y118.361 E.08433
G1 X115.368 Y118.27 E.04685
G1 X141.56 Y118.929 E.97585
G1 X143.1 Y119.102 E.05776
G1 X144.707 Y119.607 E.06273
G1 X146.105 Y120.369 E.0593
G1 X147.313 Y121.362 E.05825
G1 X148.36 Y122.625 E.06109
G1 X149.092 Y123.952 E.05646
G1 X149.531 Y125.217 E.04989
G1 X149.792 Y126.93 E.06451
G1 X149.772 Y129.14 E.08234
G1 X149.569 Y130.494 E.05098
G1 X149.04 Y132.147 E.06465
G1 X148.223 Y133.678 E.06465
G1 X147.145 Y135.039 E.06466
G1 X145.717 Y136.273 E.07028
G1 X144.167 Y137.164 E.0666
G1 X142.572 Y137.731 E.06305
G1 X141.464 Y137.95 E.04206
G1 X140.338 Y138.037 E.04206
G1 X137.25 Y138.025 E.11505
G1 X135.639 Y137.861 E.0603
G1 X114.918 Y133.189 E.79114
G1 X113.784 Y132.728 E.04561
G1 X112.931 Y132.244 E.03654
G1 X111.985 Y131.537 E.04399
G1 X111.299 Y130.876 E.03547
G1 X110.564 Y129.963 E.04366
G1 X110.002 Y129.04 E.04025
G1 X109.165 Y127.008 E.08183
G1 X108.749 Y124.783 E.08433
G1 X109.126 Y122.551 E.08433
G1 X110.22 Y120.638 E.08209
;WIPE_START
G1 F23040
G1 X111.984 Y119.129 E-.34443
G1 X114.113 Y118.361 E-.33606
G1 X115.368 Y118.27 E-.18672
G1 X122.323 Y118.445 E-1.03279
;WIPE_END
G1 E-.1 F3600
G1 Z.6 F28800
G1 X140.407 Y126.17
G1 Z.2
G1 E2 F1800
;TYPE:Perimeter
;WIDTH:0.658632
G1 F3903
G1 X140.611 Y126.155 E.01026
;WIDTH:0.628684
G1 X141.541 Y126.154 E.04439
;WIDTH:0.603003
G1 X141.9 Y126.266 E.01715
;WIDTH:0.62912
G1 X142.252 Y126.544 E.02141
G1 X142.453 Y126.817 E.0162
;WIDTH:0.62409
G1 X142.526 Y127.045 E.01133
;WIDTH:0.596323
G1 X142.599 Y127.273 E.01079
;WIDTH:0.568556
G1 X142.617 Y127.457 E.00795
;WIDTH:0.533372
G1 X142.636 Y127.642 E.00742
;WIDTH:0.498188
G1 X142.654 Y127.827 E.00689
;WIDTH:0.463004
G1 X142.678 Y128.339 E.01755
;WIDTH:0.420111
G1 X142.629 Y128.841 E.0155
;WIDTH:0.405961
G1 X142.501 Y129.328 E.0149
G1 X142.315 Y129.716 E.01273
;WIDTH:0.389737
G1 X142.014 Y130.118 E.01421
;WIDTH:0.373953
G1 X141.628 Y130.452 E.01376
;WIDTH:0.356551
G1 X141.194 Y130.719 E.01302
;WIDTH:0.401245
G1 X141.118 Y130.721 E.00221
;WIDTH:0.448334
G1 X141.042 Y130.723 E.0025
;WIDTH:0.495424
G1 X140.967 Y130.725 E.00279
;WIDTH:0.542513
G1 X140.891 Y130.727 E.00309
;WIDTH:0.589603
G1 X140.815 Y130.729 E.00338
;WIDTH:0.636692
G1 X140.739 Y130.731 E.00367
G1 X140.792 Y130.681 E.00349
;WIDTH:0.588244
G1 X140.844 Y130.632 E.00321
;WIDTH:0.539796
G1 X140.896 Y130.582 E.00292
;WIDTH:0.491347
G1 X140.949 Y130.533 E.00264
;WIDTH:0.442899
G1 X141.001 Y130.483 E.00235
;WIDTH:0.39445
G1 X141.406 Y130.226 E.01373
;WIDTH:0.373953
G1 X141.766 Y129.898 E.01314
;WIDTH:0.38877
G1 X142.062 Y129.461 E.01488
;WIDTH:0.407095
G1 X142.255 Y128.905 E.01747
;WIDTH:0.416977
G1 X142.299 Y128.388 E.01581
;WIDTH:0.463004
G1 X142.247 Y127.899 E.01684
;WIDTH:0.498188
G1 X142.202 Y127.736 E.00627
;WIDTH:0.533372
G1 X142.157 Y127.573 E.00675
;WIDTH:0.568556
G1 X142.112 Y127.411 E.00723
;WIDTH:0.59952
G1 X141.986 Y127.196 E.01129
;WIDTH:0.630484
G1 X141.86 Y126.981 E.01192
G1 X141.556 Y126.706 E.01958
;WIDTH:0.600191
G1 X141.079 Y126.406 E.02562
;WIDTH:0.629412
G1 X140.743 Y126.288 E.01701
;WIDTH:0.658632
G1 X140.464 Y126.19 E.01485
;WIPE_START
G1 F23040
G1 X140.611 Y126.155 E-.02247
G1 X141.541 Y126.154 E-.13805
G1 X141.9 Y126.266 E-.05577
G1 X142.252 Y126.544 E-.06655
G1 X142.453 Y126.817 E-.05034
G1 X142.526 Y127.045 E-.03551
G1 X142.599 Y127.273 E-.03551
G1 X142.617 Y127.457 E-.02757
G1 X142.636 Y127.642 E-.02757
G1 X142.654 Y127.827 E-.02757
G1 X142.678 Y128.339 E-.07611
G1 X142.629 Y128.841 E-.07483
G1 X142.501 Y129.328 E-.07476
G1 X142.315 Y129.716 E-.06388
G1 X142.014 Y130.118 E-.07461
G1 X141.628 Y130.452 E-.07572
G1 X141.194 Y130.719 E-.0756
G1 X141.118 Y130.721 E-.01125
G1 X141.042 Y130.723 E-.01125
G1 X140.967 Y130.725 E-.01125
G1 X140.891 Y130.727 E-.01125
G1 X140.815 Y130.729 E-.01125
G1 X140.739 Y130.731 E-.01125
G1 X140.792 Y130.681 E-.01071
G1 X140.844 Y130.632 E-.01071
G1 X140.896 Y130.582 E-.01071
G1 X140.949 Y130.533 E-.01071
G1 X141.001 Y130.483 E-.01071
G1 X141.406 Y130.226 E-.07114
G1 X141.766 Y129.898 E-.07228
G1 X142.062 Y129.461 E-.07837
G1 X142.255 Y128.905 E-.08737
G1 X142.299 Y128.388 E-.077
G1 X142.247 Y127.899 E-.07303
G1 X142.202 Y127.736 E-.02507
G1 X142.157 Y127.573 E-.02507
G1 X142.112 Y127.411 E-.02507
G1 X141.986 Y127.196 E-.03697
G1 X141.86 Y126.981 E-.03697
G1 X141.556 Y126.706 E-.06072
G1 X141.079 Y126.406 E-.08375
G1 X140.928 Y126.353 E-.02374
;WIPE_END
G1 E-.1 F3600
G1 Z.6 F28800
G1 X138.004 Y129.33
G1 Z.2
G1 E2 F1800
;WIDTH:0.499999
G1 F3903
G1 X138.03 Y129.413 E.00326
G1 X138.287 Y129.846 E.01873
G1 X138.644 Y130.219 E.01926
G1 X139.11 Y130.514 E.02051
;WIDTH:0.538256
G1 X139.274 Y130.584 E.00719
;WIDTH:0.576512
G1 X139.438 Y130.654 E.00775
;WIDTH:0.614768
G1 X139.601 Y130.724 E.0083
;WIDTH:0.653024
G1 X139.765 Y130.794 E.00886
G1 X139.664 Y130.813 E.00514
;WIDTH:0.613959
G1 X139.562 Y130.833 E.00481
;WIDTH:0.574893
G1 X139.306 Y130.852 E.01113
;WIDTH:0.537446
G1 X139.05 Y130.87 E.01035
;WIDTH:0.499999
G1 X137.828 Y130.87 E.04552
G1 X137.262 Y130.835 E.0211
G1 X136.477 Y130.723 E.02957
G1 X135.791 Y130.56 E.02625
G1 X135.184 Y130.341 E.02401
G1 X134.637 Y130.106 E.02219
G1 X134.181 Y129.861 E.01928
G1 X133.715 Y129.561 E.02066
G1 X133.063 Y129.056 E.03068
G1 X132.685 Y128.704 E.01926
G1 X131.947 Y127.933 E.03974
G1 X131.421 Y127.504 E.02528
G1 X130.622 Y127.027 E.03468
G1 X129.77 Y126.697 E.03404
;WIDTH:0.501304
G1 X129.114 Y126.549 E.0251
G1 X128.68 Y126.513 E.01627
;WIDTH:0.466176
G1 X128.246 Y126.478 E.01502
;WIDTH:0.431047
G1 X117.587 Y126.478 E.3371
G1 X117.353 Y126.465 E.00742
;WIDTH:0.423465
G1 X116.889 Y126.307 E.01521
G1 X116.561 Y126.053 E.01285
G1 X116.936 Y126.086 E.01166
;WIDTH:0.431047
G1 X128.245 Y126.09 E.35768
;WIDTH:0.471864
G1 X128.535 Y126.077 E.01014
;WIDTH:0.511258
G1 X129.839 Y126.091 E.04978
;WIDTH:0.499999
G1 X138.991 Y126.091 E.34085
G1 X139.177 Y126.069 E.00699
;WIDTH:0.456862
G1 X139.363 Y126.048 E.00633
;WIDTH:0.413725
G1 X139.55 Y126.026 E.00567
;WIDTH:0.414494
G1 X139.629 Y126.048 E.00249
;WIDTH:0.458399
G1 X139.708 Y126.07 E.00279
;WIDTH:0.502304
G1 X139.788 Y126.092 E.00308
;WIDTH:0.54621
G1 X139.867 Y126.114 E.00338
;WIDTH:0.590115
G1 X139.946 Y126.136 E.00367
;WIDTH:0.63402
G1 X140.026 Y126.158 E.00397
G1 X139.963 Y126.189 E.00336
;WIDTH:0.589143
G1 X139.901 Y126.22 E.00311
;WIDTH:0.544266
G1 X139.838 Y126.251 E.00285
;WIDTH:0.499389
G1 X139.775 Y126.282 E.0026
;WIDTH:0.454512
G1 X139.713 Y126.312 E.00234
;WIDTH:0.409635
G1 X139.65 Y126.343 E.00209
;WIDTH:0.40797
G1 X139.504 Y126.364 E.0044
;WIDTH:0.451181
G1 X139.357 Y126.384 E.00492
;WIDTH:0.494392
G1 X139.211 Y126.405 E.00544
;WIDTH:0.499999
G1 X138.782 Y126.642 E.01828
G1 X138.396 Y126.988 E.01928
G1 X138.1 Y127.412 E.01926
G1 X137.949 Y127.753 E.01388
G1 X137.832 Y128.331 E.02199
G1 X137.87 Y128.895 E.02105
G1 X137.987 Y129.272 E.01471
G1 X138.436 Y129.191 F28800
;TYPE:External perimeter
G1 F3903
G1 X138.326 Y128.86 E.01298
G1 X138.289 Y128.352 E.01897
G1 X138.373 Y127.924 E.01627
G1 X138.484 Y127.661 E.01063
G1 X138.713 Y127.317 E.01537
G1 X139.015 Y127.035 E.01539
G1 X139.365 Y126.832 E.01505
G1 X139.71 Y126.728 E.01342
G1 X140.042 Y126.683 E.01248
G1 X140.429 Y126.717 E.01449
G1 X140.913 Y126.885 E.01908
G1 X141.313 Y127.165 E.01819
G1 X141.6 Y127.523 E.01708
G1 X141.712 Y127.708 E.00804
G1 X141.845 Y128.09 E.01505
G1 X141.884 Y128.372 E.01063
G1 X141.86 Y128.792 E.01567
G1 X141.702 Y129.283 E.01921
G1 X141.427 Y129.681 E.018
G1 X141.048 Y130.001 E.01846
G1 X140.589 Y130.213 E.01886
G1 X140.131 Y130.284 E.01726
G1 X139.743 Y130.25 E.01449
G1 X139.259 Y130.082 E.01908
G1 X138.868 Y129.811 E.01772
G1 X138.603 Y129.506 E.01505
G1 X138.464 Y129.244 E.01106
G1 X138.089 Y129.154 F28800
;WIPE_START
G1 F23040
G1 X138.326 Y128.86 E-.06051
G1 X138.289 Y128.352 E-.07559
G1 X138.373 Y127.924 E-.06486
G1 X138.484 Y127.661 E-.04236
G1 X138.713 Y127.317 E-.06127
G1 X139.015 Y127.035 E-.06133
G1 X139.365 Y126.832 E-.05999
G1 X139.71 Y126.728 E-.05349
G1 X140.042 Y126.683 E-.04974
G1 X140.429 Y126.717 E-.05773
G1 X140.913 Y126.885 E-.07605
G1 X141.313 Y127.165 E-.07248
G1 X141.6 Y127.523 E-.06808
G1 X141.712 Y127.708 E-.03204
G1 X141.845 Y128.09 E-.05999
G1 X141.884 Y128.372 E-.04236
G1 X141.86 Y128.792 E-.06247
G1 X141.702 Y129.283 E-.07658
G1 X141.427 Y129.681 E-.07173
G1 X141.048 Y130.001 E-.07356
G1 X140.589 Y130.213 E-.07517
G1 X140.131 Y130.284 E-.06879
G1 X139.743 Y130.25 E-.05773
G1 X139.259 Y130.082 E-.07605
G1 X138.868 Y129.811 E-.07063
G1 X138.603 Y129.506 E-.05999
G1 X138.464 Y129.244 E-.04408
;WIPE_END
G1 E-.32535 F3600
G1 Z.6 F28800
G1 X115.717 Y125.362
G1 Z.2
G1 E2 F1800
G1 F3903
G1 X116.378 Y125.607 E.02627
G1 X116.917 Y125.667 E.02019
G1 X128.245 Y125.667 E.42193
G1 X128.404 Y125.634 E.00606
G1 X141.429 Y125.637 E.4851
G1 X141.921 Y125.728 E.01867
G1 X142.262 Y125.884 E.01397
G1 X142.606 Y126.161 E.01644
G1 X142.852 Y126.478 E.01493
G1 X143.006 Y126.812 E.01371
G1 X143.09 Y127.206 E.01499
G1 X143.095 Y128.375 E.04354
G1 X143.018 Y129.027 E.02446
G1 X142.878 Y129.495 E.01821
G1 X142.648 Y129.941 E.01867
G1 X142.204 Y130.497 E.02652
G1 X141.685 Y130.893 E.0243
G1 X141.336 Y131.077 E.01472
G1 X140.843 Y131.25 E.01942
G1 X140.321 Y131.328 E.01967
G1 X137.621 Y131.328 E.10058
G1 X136.908 Y131.261 E.02666
G1 X136.384 Y131.171 E.01982
G1 X135.657 Y130.997 E.02782
G1 X135.011 Y130.764 E.02559
G1 X134.425 Y130.511 E.02377
G1 X133.939 Y130.249 E.02055
G1 X133.438 Y129.925 E.02224
G1 X132.754 Y129.393 E.03226
G1 X132.353 Y129.019 E.02043
G1 X131.655 Y128.285 E.03774
G1 X131.182 Y127.894 E.02283
G1 X130.453 Y127.452 E.03178
G1 X129.665 Y127.142 E.03152
G1 X129.069 Y127.004 E.02279
G1 X128.246 Y126.901 E.03091
G1 X117.542 Y126.899 E.39869
G1 X117.033 Y126.819 E.01917
G1 X116.658 Y126.662 E.01514
G1 X116.233 Y126.328 E.02016
G1 X115.898 Y125.836 E.02215
G1 X115.738 Y125.418 E.01666
G1 X116.048 Y125.587 F28800
;WIPE_START
G1 F23040
G1 X116.378 Y125.607 E-.09904
G1 X116.917 Y125.667 E-.08048
G1 X128.245 Y125.667 E-1.68153
G1 X128.404 Y125.634 E-.02415
G1 X128.504 Y125.634 E-.0148
;WIPE_END
G1 E-.1 F3600
G1 Z.6 F28800
G1 X140.407 Y126.17
G1 Z.2
G1 E2 F1800
;TYPE:Perimeter
;WIDTH:0.658632
G1 F3903
G1 X140.026 Y126.158 E.01915
;WIPE_START
G1 F23040
G1 X140.407 Y126.17 E-.05664
