; generated by PrusaSlicer 2.5.0 on 2025-03-28 at 09:57:47 UTC

; 

; external perimeters extrusion width = 0.40mm
; perimeters extrusion width = 0.45mm
; infill extrusion width = 0.45mm
; solid infill extrusion width = 0.45mm
; top infill extrusion width = 0.40mm
; support material extrusion width = 0.35mm
; first layer extrusion width = 0.50mm

M107
;TYPE:Custom
;===== date: 2022,09,19 =====================
;===== reset machine status =================
G91
M17 Z0.3 ; lower the z-motor current
G0 Z7 F300 ; lower the hotbed , to prevent the nozzle is below the hotbed
G90
M17 X1.2 Y1.2 Z0.75 ; reset motor current to default
M960 S5 P1 ; turn on logo lamp
G90
M220 S100 ;Reset Feedrate
M221 S100 ;Reset Flowrate
M73.2   R1.0 ;Reset left time magnitude
M1002 set_gcode_claim_speed_level : 5
M221 X0 Y0 Z0 ; turn off soft endstop to prevent protential logic problem

;===== heatbed preheat ====================
M1002 gcode_claim_action : 2
M140 S35 ;set bed temp
M190 S35 ;wait for bed temp

;=============turn on fans to prevent PLA jamming=================

    ;Prevent PLA from jamming

M106 P2 S100 ; turn on big fan ,to cool down toolhead

;===== prepare print temperature and material ==========
M104 S220 ;set extruder temp
G91
G0 Z2 F1200
G90
G28 X
M975 S1 ; turn on 
G1 X60 F12000
G1 Y245
G1 Y265 F3000
M620 M
M620 S0A   ; switch material if AMS exist
    M109 S220
    G1 X120 F12000

    G1 X20 Y50 F12000
    G1 Y-3
    T0
    G1 X54 F12000
    G1 Y265
    M400
M621 S0A

M412 S1 ; ===turn on filament runout detection===

M109 S250 ;set nozzle to common flush temp
M106 P1 S0
G92 E0
G1 E50 F200
M400
M104 S220
G92 E0
G1 E50 F200
M400
M106 P1 S255
G92 E0
G1 E5 F300
M109 S200 ; drop nozzle temp, make filament shink a bit
G92 E0
G1 E-0.5 F300

G1 X70 F9000
G1 X76 F15000
G1 X65 F15000
G1 X76 F15000
G1 X65 F15000; shake to put down garbage
G1 X80 F6000
G1 X95 F15000
G1 X80 F15000
G1 X165 F15000; wipe and shake
M400
M106 P1 S0
;===== prepare print temperature and material end =====


;===== wipe nozzle ===============================
M1002 gcode_claim_action : 14
M975 S1
M106 S255
G1 X65 Y230 F18000
G1 Y264 F6000
M109 S200
G1 X100 F18000 ; first wipe mouth

G0 X135 Y261 F20000  ; move to exposed steel surface edge
G28 Z P0 T300; home z with low precision,permit 300deg temperature
G29.2 S0 ; turn off ABL
G0 Z2 F20000

G1 X60 Y265
G92 E0
G1 E-0.5 F300 ; retrack more
G1 X100 F5000; second wipe mouth
G1 X70 F15000
G1 X100 F5000
G1 X70 F15000
G1 X100 F5000
G1 X70 F15000
G1 X100 F5000
G1 X70 F15000
G1 X90 F5000
G0 X128 Y261 Z-1.5 F20000  ; move to exposed steel surface and stop the nozzle
M104 S140 ; set temp down to heatbed acceptable
M106 S255 ; turn on fan (G28 has turn off fan)

M221 S; push soft endstop status
M221 Z0 ;turn off Z axis endstop
G0 Z0.5 F20000
G0 X125 Y259.5 Z-1.01
G0 X131 F211
G0 X124
G0 Z0.5 F20000
G0 X125 Y262.5
G0 Z-1.01
G0 X131 F211
G0 X124
G0 Z0.5 F20000
G0 X125 Y260.0
G0 Z-1.01
G0 X131 F211
G0 X124
G0 Z0.5 F20000
G0 X125 Y262.0
G0 Z-1.01
G0 X131 F211
G0 X124
G0 Z0.5 F20000
G0 X125 Y260.5
G0 Z-1.01
G0 X131 F211
G0 X124
G0 Z0.5 F20000
G0 X125 Y261.5
G0 Z-1.01
G0 X131 F211
G0 X124
G0 Z0.5 F20000
G0 X125 Y261.0
G0 Z-1.01
G0 X131 F211
G0 X124
G0 X128
G2 I0.5 J0 F300
G2 I0.5 J0 F300
G2 I0.5 J0 F300
G2 I0.5 J0 F300

M109 S140 ; wait nozzle temp down to heatbed acceptable
G2 I0.5 J0 F3000
G2 I0.5 J0 F3000
G2 I0.5 J0 F3000
G2 I0.5 J0 F3000

M221 R; pop softend status
G1 Z10 F1200
M400
G1 Z10
G1 F30000
G1 X230 Y15
G29.2 S1 ; turn on ABL
;G28 ; home again after hard wipe mouth
M106 S0 ; turn off fan , too noisy
;===== wipe nozzle end ================================


;===== bed leveling ==================================
M1002 judge_flag g29_before_print_flag
M622 J1

    M1002 gcode_claim_action : 1
    G29 A X113.797 Y112.797 I30.4064 J30.4064
    M400
    M500 ; save cali data

M623
;===== bed leveling end ================================

;===== home after wipe mouth============================
M1002 judge_flag g29_before_print_flag
M622 J0

    M1002 gcode_claim_action : 13
    G28

M623
;===== home after wipe mouth end =======================

M975 S1 ; turn on vibration supression

=============turn on fans to prevent PLA jamming=================

    ;Prevent PLA from jamming

M106 P2 S100 ; turn on big fan ,to cool down toolhead


M104 S220 ; set extrude temp earlier, to reduce wait time

;===== mech mode fast check============================
G1 X128 Y128 Z5 F20000
M400 P200
M970.3 Q1 A7 B30 C80  H15 K0
M974 Q1 S2 P0

G1 X128 Y128 Z5 F20000
M400 P200
M970.3 Q0 A7 B30 C90 Q0 H15 K0
M974 Q0 S2 P0

M975 S1
G1 F30000
G1 X230 Y15
G28 X ; re-home XY 
;===== fmech mode fast check============================


;===== noozle load line ===============================
M975 S1
G90 
M83
T1000
G1 X18.0 Y5.0 Z0.3 F18000;Move to start position
M109 S220
G0 E3 F300
G0 X240 E15 F6400 
G0 Y5.5 
G0 X18 E15
M400

;========turn off light and wait extrude temperature =============
M1002 gcode_claim_action : 0
M973 S4 ; turn off scanner
M400 ; wait all motion done before implement the emprical L parameters
;M900 L500.0 ; Empirical parameters
M109 S220
M960 S1 P0 ; turn off laser
M960 S2 P0 ; turn off laser
M106 S0 ; turn off fan
M106 P2 S0 ; turn off big fan 
M106 P3 S0 ; turn off chamber fan

M975 S1 ; turn on mech mode supression
G90 
M83
T1000
G1 X128.0 Y253.0 Z0.2 F6000.0;Move to start position
M109 S220
G0 X253 E6.4 F5333.33 
G0 Y128 E6.4
G0 X252.5
G0 Y252.5 E6.4
G0 X128 E6.4
G21 ; set units to millimeters
G90 ; use absolute coordinates
M83 ; use relative distances for extrusion
; Filament gcode
M106 P2 S178 ; Chamber fan, 70%, I think
M107
;LAYER_CHANGE
;Z:0.2
;HEIGHT:0.2
G92 E0
M971 S11 C10 O0
G1 E-2 F3600
G1 Z.4 F28800
G1 X115.564 Y115.299
G1 Z.2
G1 E2 F1800
;TYPE:Skirt/Brim
;WIDTH:0.5
G1 F6300
G1 X117.311 Y113.858 E.08433
G1 X120.482 Y113.025 E.12214
G1 X137.518 Y113.025 E.6345
G1 X139.747 Y113.422 E.08433
G1 X141.701 Y114.564 E.08433
G1 X143.142 Y116.311 E.08433
G1 X143.975 Y119.482 E.12214
G1 X143.975 Y136.518 E.6345
G1 X143.578 Y138.747 E.08433
G1 X142.436 Y140.701 E.08433
G1 X140.689 Y142.142 E.08433
G1 X137.518 Y142.975 E.12214
G1 X120.482 Y142.975 E.6345
G1 X118.253 Y142.578 E.08433
G1 X116.299 Y141.436 E.08433
G1 X114.858 Y139.689 E.08433
G1 X114.025 Y136.518 E.12214
G1 X114.025 Y119.482 E.6345
G1 X114.422 Y117.253 E.08433
G1 X115.534 Y115.35 E.08209
;WIPE_START
G1 F23040
G1 X117.311 Y113.858 E-.34443
G1 X120.482 Y113.025 E-.48676
G1 X127.683 Y113.025 E-1.06881
;WIPE_END
G1 E-.1 F3600
G1 Z.6 F28800
G1 X137.518 Y136.518
G1 Z.2
G1 E2 F1800
;TYPE:Support material
G1 F6300
G1 X120.482 Y136.518 E.6345
G1 X120.482 Y119.482 E.6345
G1 X137.518 Y119.482 E.6345
G1 X137.518 Y136.449 E.63194
;WIPE_START
G1 F23040
G1 X137.518 Y123.649 E-1.9
;WIPE_END
G1 E-.1 F3600
G1 Z.6 F28800
G1 X128.846 Y123.172
G1 Z.2
G1 E2 F1800
G1 F6300
G1 X128.189 Y123.238 E.02459
G1 X127.576 Y123.384 E.02347
G1 X127.257 Y123.495 E.01258
G1 X126.685 Y123.76 E.02347
G1 X126.395 Y123.932 E.01258
G1 X125.887 Y124.306 E.02347
G1 X125.637 Y124.533 E.01258
G1 X125.214 Y125 E.02347
G1 X125.013 Y125.272 E.01258
G1 X124.692 Y125.815 E.02348
G1 X124.55 Y126.121 E.01258
G1 X124.343 Y126.716 E.02347
G1 X124.265 Y127.045 E.01258
G1 X124.181 Y127.67 E.02347
G1 X124.17 Y128.007 E.01258
G1 X124.212 Y128.636 E.02347
G1 X124.268 Y128.969 E.01258
G1 X124.434 Y129.577 E.02347
G1 X124.556 Y129.893 E.01258
G1 X124.84 Y130.455 E.02347
G1 X125.022 Y130.74 E.01258
G1 X125.413 Y131.234 E.02348
G1 X125.647 Y131.477 E.01258
G1 X126.129 Y131.884 E.02347
G1 X126.407 Y132.075 E.01258
G1 X126.96 Y132.378 E.02347
G1 X127.271 Y132.51 E.01258
G1 X127.873 Y132.697 E.02347
G1 X128.204 Y132.764 E.01258
G1 X128.524 Y132.807 E.01202
G1 X129.154 Y132.828 E.02347
G1 X129.491 Y132.805 E.01258
G1 X130.112 Y132.7 E.02347
G1 X130.438 Y132.611 E.01259
G1 X130.88 Y132.447 E.01753
G1 X131.315 Y132.239 E.01796
G1 X131.605 Y132.067 E.01258
G1 X132.113 Y131.693 E.02347
G1 X132.363 Y131.467 E.01258
G1 X132.786 Y130.999 E.02347
G1 X132.987 Y130.727 E.01258
G1 X133.308 Y130.185 E.02348
G1 X133.45 Y129.879 E.01258
G1 X133.657 Y129.283 E.02347
G1 X133.735 Y128.955 E.01258
G1 X133.819 Y128.33 E.02347
G1 X133.83 Y127.992 E.01258
G1 X133.788 Y127.364 E.02347
G1 X133.732 Y127.03 E.01258
G1 X133.657 Y126.716 E.01202
G1 X133.45 Y126.121 E.02348
G1 X133.308 Y125.815 E.01258
G1 X132.987 Y125.272 E.02347
G1 X132.786 Y125 E.01258
G1 X132.363 Y124.533 E.02347
G1 X132.113 Y124.306 E.01258
G1 X131.605 Y123.932 E.02347
G1 X131.315 Y123.76 E.01258
G1 X130.743 Y123.495 E.02347
G1 X130.424 Y123.384 E.01258
G1 X129.811 Y123.238 E.02347
G1 X129.476 Y123.193 E.01258
G1 X128.915 Y123.172 E.02092
;WIPE_START
G1 F23040
G1 X129.476 Y123.193 E-.08338
G1 X129.811 Y123.238 E-.05015
G1 X130.424 Y123.384 E-.09355
G1 X130.743 Y123.495 E-.05015
G1 X131.315 Y123.76 E-.09355
G1 X131.605 Y123.932 E-.05015
G1 X132.113 Y124.306 E-.09355
G1 X132.363 Y124.533 E-.05015
G1 X132.786 Y125 E-.09355
G1 X132.987 Y125.272 E-.05015
G1 X133.308 Y125.815 E-.09355
G1 X133.45 Y126.121 E-.05015
G1 X133.657 Y126.716 E-.09356
G1 X133.732 Y127.03 E-.04792
G1 X133.788 Y127.364 E-.05015
G1 X133.83 Y127.992 E-.09355
G1 X133.819 Y128.33 E-.05015
G1 X133.735 Y128.955 E-.09355
G1 X133.657 Y129.283 E-.05015
G1 X133.45 Y129.879 E-.09355
G1 X133.308 Y130.185 E-.05015
G1 X132.987 Y130.727 E-.09356
G1 X132.786 Y130.999 E-.05015
G1 X132.363 Y131.467 E-.09355
G1 X132.113 Y131.693 E-.05015
G1 X131.605 Y132.067 E-.09355
G1 X131.349 Y132.219 E-.04428
;WIPE_END
G1 E-.1 F3600
G1 Z.6 F28800
G1 X136.618 Y136.312
G1 Z.2
G1 E2 F1800
G1 F6300
G1 X136.618 Y119.894 E.61151
G1 X136.11 Y119.894 E.01892
G1 X136.11 Y136.106 E.60385
G1 X135.602 Y136.106 E.01892
G1 X135.602 Y119.894 E.60385
G1 X135.094 Y119.894 E.01892
G1 X135.094 Y136.106 E.60385
G1 X134.587 Y136.106 E.01892
G1 X134.587 Y119.894 E.60385
G1 X134.079 Y119.894 E.01892
G1 X134.079 Y136.106 E.60385
G1 X133.571 Y136.106 E.01892
G1 X133.571 Y130.561 E.20653
G1 X133.33 Y130.955 E.01719
G1 X133.063 Y131.309 E.01653
G1 X133.063 Y136.106 E.17867
G1 X132.555 Y136.106 E.01892
G1 X132.555 Y131.849 E.15857
G1 X132.047 Y132.263 E.02441
G1 X132.047 Y136.106 E.14315
G1 X131.539 Y136.106 E.01892
G1 X131.539 Y132.585 E.13115
G1 X131.031 Y132.829 E.02099
G1 X131.031 Y136.106 E.12205
G1 X130.524 Y136.106 E.01892
G1 X130.524 Y133.015 E.11514
G1 X130.016 Y133.14 E.01948
G1 X130.016 Y136.106 E.11049
G1 X129.508 Y136.106 E.01892
G1 X129.508 Y133.217 E.10762
G1 X129 Y133.239 E.01893
G1 X129 Y136.106 E.10679
G1 X128.492 Y136.106 E.01892
G1 X128.492 Y133.217 E.10762
G1 X127.984 Y133.14 E.01913
G1 X127.984 Y136.106 E.11049
G1 X127.476 Y136.106 E.01892
G1 X127.476 Y133.015 E.11514
G1 X126.969 Y132.829 E.02014
G1 X126.969 Y136.106 E.12205
G1 X126.461 Y136.106 E.01892
G1 X126.461 Y132.585 E.13115
G1 X125.953 Y132.263 E.0224
G1 X125.953 Y136.106 E.14315
G1 X125.445 Y136.106 E.01892
G1 X125.445 Y131.849 E.15857
G1 X125.122 Y131.527 E.01699
G1 X124.937 Y131.309 E.01064
G1 X124.937 Y136.106 E.17867
G1 X124.429 Y136.106 E.01892
G1 X124.429 Y130.108 E.22341
;WIPE_START
G1 F23040
G1 X124.429 Y136.106 E-.89034
G1 X124.937 Y136.106 E-.07539
G1 X124.937 Y131.309 E-.71206
G1 X125.122 Y131.527 E-.04239
G1 X125.445 Y131.849 E-.06769
G1 X125.445 Y132.604 E-.11213
;WIPE_END
G1 E-.1 F3600
G1 Z.6 F28800
G1 X133.571 Y125.892
G1 Z.2
G1 E2 F1800
G1 F6300
G1 X133.571 Y119.894 E.2234
G1 X133.063 Y119.894 E.01892
G1 X133.063 Y124.691 E.17866
G1 X132.878 Y124.473 E.01063
G1 X132.555 Y124.151 E.01699
G1 X132.555 Y119.894 E.15856
G1 X132.047 Y119.894 E.01892
G1 X132.047 Y123.737 E.14314
G1 X131.539 Y123.415 E.0224
G1 X131.539 Y119.894 E.13114
G1 X131.031 Y119.894 E.01892
G1 X131.031 Y123.17 E.12205
G1 X130.524 Y122.985 E.02014
G1 X130.524 Y119.894 E.11514
G1 X130.016 Y119.894 E.01892
G1 X130.016 Y122.86 E.11048
G1 X129.508 Y122.783 E.01913
G1 X129.508 Y119.894 E.10761
G1 X129 Y119.894 E.01892
G1 X129 Y122.761 E.10678
G1 X128.492 Y122.783 E.01893
G1 X128.492 Y119.894 E.10761
G1 X127.984 Y119.894 E.01892
G1 X127.984 Y122.86 E.11048
G1 X127.476 Y122.985 E.01948
G1 X127.476 Y119.894 E.11514
G1 X126.969 Y119.894 E.01892
G1 X126.969 Y123.17 E.12205
G1 X126.461 Y123.415 E.02099
G1 X126.461 Y119.894 E.13114
G1 X125.953 Y119.894 E.01892
G1 X125.953 Y123.737 E.14314
G1 X125.445 Y124.151 E.02441
G1 X125.445 Y119.894 E.15856
G1 X124.937 Y119.894 E.01892
G1 X124.937 Y124.691 E.17866
G1 X124.67 Y125.045 E.01653
G1 X124.429 Y125.439 E.01719
G1 X124.429 Y119.894 E.20653
G1 X123.921 Y119.894 E.01892
G1 X123.921 Y136.106 E.60385
G1 X123.413 Y136.106 E.01892
G1 X123.413 Y119.894 E.60385
G1 X122.906 Y119.894 E.01892
G1 X122.906 Y136.106 E.60385
G1 X122.398 Y136.106 E.01892
G1 X122.398 Y119.894 E.60385
G1 X121.89 Y119.894 E.01892
G1 X121.89 Y136.106 E.60385
G1 X121.382 Y136.106 E.01892
G1 X121.382 Y119.688 E.61151
;WIPE_START
G1 F23040
G1 X121.382 Y132.488 E-1.9
;WIPE_END
G1 E-.1 F3600
G1 Z.6 F28800
G1 X132.656 Y128.064
G1 Z.2
G1 E2 F1800
;TYPE:Perimeter
;WIDTH:0.499999
G1 F5040
G1 X132.662 Y128.257 E.00717
G1 X132.599 Y128.724 E.01759
G1 X132.422 Y129.323 E.02326
G1 X132.265 Y129.648 E.01343
G1 X132.002 Y130.1 E.01948
G1 X131.56 Y130.631 E.02573
G1 X130.971 Y131.096 E.02796
G1 X130.416 Y131.385 E.02329
G1 X129.837 Y131.567 E.02263
G1 X129.335 Y131.648 E.01893
G1 X128.644 Y131.653 E.02575
G1 X127.912 Y131.505 E.02779
G1 X127.226 Y131.214 E.02778
G1 X126.625 Y130.79 E.02738
G1 X126.261 Y130.433 E.01897
G1 X125.847 Y129.88 E.02573
G1 X125.533 Y129.203 E.02779
G1 X125.363 Y128.489 E.02736
G1 X125.338 Y127.754 E.02736
G1 X125.461 Y127.03 E.02736
G1 X125.725 Y126.345 E.02735
G1 X126.126 Y125.716 E.02779
G1 X126.44 Y125.369 E.01743
G1 X127.035 Y124.899 E.02822
G1 X127.695 Y124.577 E.02737
G1 X128.183 Y124.429 E.01899
G1 X128.866 Y124.331 E.02568
G1 X129.622 Y124.382 E.02824
G1 X130.347 Y124.593 E.02811
G1 X130.966 Y124.9 E.02573
G1 X131.56 Y125.369 E.02822
G1 X132.002 Y125.899 E.02568
G1 X132.276 Y126.359 E.01994
G1 X132.471 Y126.828 E.01893
G1 X132.637 Y127.5 E.02575
G1 X132.654 Y128.004 E.0188
G1 X133.112 Y128.049 F28800
;TYPE:External perimeter
G1 F5040
G1 X133.12 Y128.28 E.0086
G1 X133.047 Y128.82 E.02033
G1 X132.849 Y129.488 E.02595
G1 X132.552 Y130.106 E.02553
G1 X132.241 Y130.559 E.02048
G1 X131.873 Y130.966 E.02042
G1 X131.22 Y131.481 E.03099
G1 X130.783 Y131.709 E.01837
G1 X130.225 Y131.944 E.02255
G1 X129.687 Y132.072 E.02062
G1 X129.138 Y132.127 E.02052
G1 X128.59 Y132.109 E.02043
G1 X127.776 Y131.944 E.03093
G1 X127.012 Y131.619 E.03092
G1 X126.55 Y131.324 E.02042
G1 X126.129 Y130.969 E.02052
G1 X125.759 Y130.559 E.02056
G1 X125.449 Y130.107 E.02042
G1 X125.099 Y129.354 E.03093
G1 X124.908 Y128.55 E.03079
G1 X124.88 Y127.724 E.03079
G1 X125.018 Y126.909 E.03079
G1 X125.315 Y126.138 E.03078
G1 X125.761 Y125.438 E.03092
G1 X126.127 Y125.034 E.02028
G1 X126.781 Y124.517 E.03108
G1 X127.261 Y124.254 E.02038
G1 X127.776 Y124.056 E.02056
G1 X128.313 Y123.928 E.02056
G1 X128.858 Y123.873 E.02038
G1 X129.691 Y123.929 E.03109
G1 X130.223 Y124.055 E.02038
G1 X130.738 Y124.254 E.02056
G1 X131.219 Y124.517 E.02042
G1 X131.874 Y125.034 E.03108
G1 X132.241 Y125.44 E.02038
G1 X132.553 Y125.895 E.02056
G1 X132.802 Y126.388 E.02056
G1 X132.983 Y126.908 E.02052
G1 X133.092 Y127.446 E.02043
G1 X133.11 Y127.989 E.02023
G1 X132.92 Y128.176 F28800
;WIPE_START
G1 F23040
G1 X133.12 Y128.28 E-.04317
G1 X133.047 Y128.82 E-.08102
G1 X132.849 Y129.488 E-.10341
G1 X132.552 Y130.106 E-.10174
G1 X132.241 Y130.559 E-.08161
G1 X131.873 Y130.966 E-.08137
G1 X131.22 Y131.481 E-.12349
G1 X130.783 Y131.709 E-.07321
G1 X130.225 Y131.944 E-.08985
G1 X129.687 Y132.072 E-.08216
G1 X129.138 Y132.127 E-.08178
G1 X128.59 Y132.109 E-.08143
G1 X127.776 Y131.944 E-.12327
G1 X127.012 Y131.619 E-.12322
G1 X126.55 Y131.324 E-.08137
G1 X126.129 Y130.969 E-.08178
G1 X125.759 Y130.559 E-.08194
G1 X125.449 Y130.107 E-.08138
G1 X125.099 Y129.354 E-.12327
G1 X124.908 Y128.55 E-.1227
G1 X124.895 Y128.167 E-.05682
;WIPE_END
G1 E-.1 F3600
G1 Z.6 F28800
G1 X132.192 Y126.499
G1 Z.2
G1 E2 F1800
;TYPE:Solid infill
;WIDTH:0.517098
G1 F5250
