; generated by PrusaSlicer 2.5.0 on 2025-03-07 at 12:03:13 UTC

; 

; external perimeters extrusion width = 0.40mm
; perimeters extrusion width = 0.45mm
; infill extrusion width = 0.45mm
; solid infill extrusion width = 0.45mm
; top infill extrusion width = 0.40mm
; first layer extrusion width = 0.50mm

M107
;TYPE:Custom
;===== date: 2022,09,19 =====================
;===== reset machine status =================
G91
M17 Z0.3 ; lower the z-motor current
G0 Z7 F300 ; lower the hotbed , to prevent the nozzle is below the hotbed
G90
M17 X1.2 Y1.2 Z0.75 ; reset motor current to default
M960 S5 P1 ; turn on logo lamp
G90
M220 S100 ;Reset Feedrate
M221 S100 ;Reset Flowrate
M73.2   R1.0 ;Reset left time magnitude
M1002 set_gcode_claim_speed_level : 5
M221 X0 Y0 Z0 ; turn off soft endstop to prevent protential logic problem

;===== heatbed preheat ====================
M1002 gcode_claim_action : 2
M140 S35 ;set bed temp
M190 S35 ;wait for bed temp

;=============turn on fans to prevent PLA jamming=================

    ;Prevent PLA from jamming

M106 P2 S100 ; turn on big fan ,to cool down toolhead

;===== prepare print temperature and material ==========
M104 S220 ;set extruder temp
G91
G0 Z2 F1200
G90
G28 X
M975 S1 ; turn on 
G1 X60 F12000
G1 Y245
G1 Y265 F3000
M620 M
M620 S0A   ; switch material if AMS exist
    M109 S220
    G1 X120 F12000

    G1 X20 Y50 F12000
    G1 Y-3
    T0
    G1 X54 F12000
    G1 Y265
    M400
M621 S0A

M412 S1 ; ===turn on filament runout detection===

M109 S250 ;set nozzle to common flush temp
M106 P1 S0
G92 E0
G1 E50 F200
M400
M104 S220
G92 E0
G1 E50 F200
M400
M106 P1 S255
G92 E0
G1 E5 F300
M109 S200 ; drop nozzle temp, make filament shink a bit
G92 E0
G1 E-0.5 F300

G1 X70 F9000
G1 X76 F15000
G1 X65 F15000
G1 X76 F15000
G1 X65 F15000; shake to put down garbage
G1 X80 F6000
G1 X95 F15000
G1 X80 F15000
G1 X165 F15000; wipe and shake
M400
M106 P1 S0
;===== prepare print temperature and material end =====


;===== wipe nozzle ===============================
M1002 gcode_claim_action : 14
M975 S1
M106 S255
G1 X65 Y230 F18000
G1 Y264 F6000
M109 S200
G1 X100 F18000 ; first wipe mouth

G0 X135 Y261 F20000  ; move to exposed steel surface edge
G28 Z P0 T300; home z with low precision,permit 300deg temperature
G29.2 S0 ; turn off ABL
G0 Z2 F20000

G1 X60 Y265
G92 E0
G1 E-0.5 F300 ; retrack more
G1 X100 F5000; second wipe mouth
G1 X70 F15000
G1 X100 F5000
G1 X70 F15000
G1 X100 F5000
G1 X70 F15000
G1 X100 F5000
G1 X70 F15000
G1 X90 F5000
G0 X128 Y261 Z-1.5 F20000  ; move to exposed steel surface and stop the nozzle
M104 S140 ; set temp down to heatbed acceptable
M106 S255 ; turn on fan (G28 has turn off fan)

M221 S; push soft endstop status
M221 Z0 ;turn off Z axis endstop
G0 Z0.5 F20000
G0 X125 Y259.5 Z-1.01
G0 X131 F211
G0 X124
G0 Z0.5 F20000
G0 X125 Y262.5
G0 Z-1.01
G0 X131 F211
G0 X124
G0 Z0.5 F20000
G0 X125 Y260.0
G0 Z-1.01
G0 X131 F211
G0 X124
G0 Z0.5 F20000
G0 X125 Y262.0
G0 Z-1.01
G0 X131 F211
G0 X124
G0 Z0.5 F20000
G0 X125 Y260.5
G0 Z-1.01
G0 X131 F211
G0 X124
G0 Z0.5 F20000
G0 X125 Y261.5
G0 Z-1.01
G0 X131 F211
G0 X124
G0 Z0.5 F20000
G0 X125 Y261.0
G0 Z-1.01
G0 X131 F211
G0 X124
G0 X128
G2 I0.5 J0 F300
G2 I0.5 J0 F300
G2 I0.5 J0 F300
G2 I0.5 J0 F300

M109 S140 ; wait nozzle temp down to heatbed acceptable
G2 I0.5 J0 F3000
G2 I0.5 J0 F3000
G2 I0.5 J0 F3000
G2 I0.5 J0 F3000

M221 R; pop softend status
G1 Z10 F1200
M400
G1 Z10
G1 F30000
G1 X230 Y15
G29.2 S1 ; turn on ABL
;G28 ; home again after hard wipe mouth
M106 S0 ; turn off fan , too noisy
;===== wipe nozzle end ================================


;===== bed leveling ==================================
M1002 judge_flag g29_before_print_flag
M622 J1

    M1002 gcode_claim_action : 1
    G29 A X82.2198 Y116.652 I93.5604 J22.6956
    M400
    M500 ; save cali data

M623
;===== bed leveling end ================================

;===== home after wipe mouth============================
M1002 judge_flag g29_before_print_flag
M622 J0

    M1002 gcode_claim_action : 13
    G28

M623
;===== home after wipe mouth end =======================

M975 S1 ; turn on vibration supression

=============turn on fans to prevent PLA jamming=================

    ;Prevent PLA from jamming

M106 P2 S100 ; turn on big fan ,to cool down toolhead


M104 S220 ; set extrude temp earlier, to reduce wait time

;===== mech mode fast check============================
G1 X128 Y128 Z5 F20000
M400 P200
M970.3 Q1 A7 B30 C80  H15 K0
M974 Q1 S2 P0

G1 X128 Y128 Z5 F20000
M400 P200
M970.3 Q0 A7 B30 C90 Q0 H15 K0
M974 Q0 S2 P0

M975 S1
G1 F30000
G1 X230 Y15
G28 X ; re-home XY 
;===== fmech mode fast check============================


;===== noozle load line ===============================
M975 S1
G90 
M83
T1000
G1 X18.0 Y5.0 Z0.3 F18000;Move to start position
M109 S220
G0 E3 F300
G0 X240 E15 F6400 
G0 Y5.5 
G0 X18 E15
M400

;========turn off light and wait extrude temperature =============
M1002 gcode_claim_action : 0
M973 S4 ; turn off scanner
M400 ; wait all motion done before implement the emprical L parameters
;M900 L500.0 ; Empirical parameters
M109 S220
M960 S1 P0 ; turn off laser
M960 S2 P0 ; turn off laser
M106 S0 ; turn off fan
M106 P2 S0 ; turn off big fan 
M106 P3 S0 ; turn off chamber fan

M975 S1 ; turn on mech mode supression
G90 
M83
T1000
G1 X128.0 Y253.0 Z0.2 F6000.0;Move to start position
M109 S220
G0 X253 E6.4 F5333.33 
G0 Y128 E6.4
G0 X252.5
G0 Y252.5 E6.4
G0 X128 E6.4
G21 ; set units to millimeters
G90 ; use absolute coordinates
M83 ; use relative distances for extrusion
; Filament gcode
M106 P2 S178 ; Chamber fan, 70%, I think
M107
;LAYER_CHANGE
;Z:0.2
;HEIGHT:0.2
G92 E0
M971 S11 C10 O0
G1 E-2 F3600
G1 Z.4 F28800
G1 X85.734 Y117.713
G1 Z.2
G1 E2 F1800
;TYPE:Skirt/Brim
;WIDTH:0.5
G1 F6300
G1 X88.905 Y116.881 E.12214
G1 X169.095 Y116.881 E2.98674
G1 X171.324 Y117.278 E.08433
G1 X173.278 Y118.42 E.08433
G1 X174.719 Y120.166 E.08433
G1 X175.552 Y123.338 E.12214
G1 X175.552 Y132.662 E.3473
G1 X175.155 Y134.891 E.08433
G1 X174.013 Y136.846 E.08433
G1 X172.266 Y138.287 E.08433
G1 X169.095 Y139.119 E.12214
G1 X88.905 Y139.119 E2.98674
G1 X86.676 Y138.722 E.08433
G1 X84.722 Y137.58 E.08433
G1 X83.281 Y135.834 E.08433
G1 X82.448 Y132.662 E.12214
G1 X82.448 Y123.338 E.3473
G1 X82.845 Y121.109 E.08433
G1 X83.987 Y119.154 E.08433
G1 X85.687 Y117.752 E.08209
;WIPE_START
G1 F23040
G1 X88.905 Y116.881 E-.49485
G1 X98.372 Y116.881 E-1.40515
;WIPE_END
G1 E-.1 F3600
G1 Z.6 F28800
G1 X89.612 Y124.045
G1 Z.2
G1 E2 F1800
;TYPE:Perimeter
;WIDTH:0.499999
G1 F6300
G1 X168.388 Y124.045 E2.93407
G1 X168.388 Y131.955 E.29462
G1 X89.612 Y131.955 E2.93407
G1 X89.612 Y124.105 E.29239
G1 X89.155 Y123.588 F28800
;TYPE:External perimeter
G1 F4200
G1 X168.845 Y123.588 E2.96812
G1 X168.845 Y132.412 E.32867
G1 X89.155 Y132.412 E2.96812
G1 X89.155 Y123.648 E.32644
G1 X89.555 Y123.603 F28800
;WIPE_START
G1 F23040
G1 X101.955 Y123.638 E-1.9
;WIPE_END
G1 E-.1 F3600
G1 Z.6 F28800
G1 X168.25 Y125.109
G1 Z.2
G1 E2 F1800
;TYPE:Solid infill
;WIDTH:0.501359
G1 F5250
G1 X167.529 Y124.388 E.0381
G1 X166.881 Y124.388 E.02422
G1 X168.045 Y125.552 E.06149
G1 X168.045 Y126.2 E.02422
G1 X166.233 Y124.388 E.09574
G1 X165.584 Y124.388 E.02422
G1 X168.045 Y126.848 E.12999
G1 X168.045 Y127.497 E.02422
G1 X164.936 Y124.388 E.16424
G1 X164.288 Y124.388 E.02422
G1 X168.045 Y128.145 E.19849
G1 X168.045 Y128.793 E.02422
G1 X163.639 Y124.388 E.23274
G1 X162.991 Y124.388 E.02422
G1 X168.045 Y129.442 E.267
G1 X168.045 Y130.09 E.02422
G1 X162.343 Y124.388 E.30125
G1 X161.694 Y124.388 E.02422
G1 X168.045 Y130.738 E.3355
G1 X168.045 Y131.387 E.02422
G1 X161.046 Y124.388 E.36975
G1 X160.398 Y124.388 E.02422
G1 X167.622 Y131.612 E.38168
G1 X166.974 Y131.612 E.02422
G1 X159.749 Y124.388 E.38168
G1 X159.101 Y124.388 E.02422
G1 X166.326 Y131.612 E.38168
G1 X165.677 Y131.612 E.02422
G1 X158.453 Y124.388 E.38168
G1 X157.804 Y124.388 E.02422
G1 X165.029 Y131.612 E.38168
G1 X164.381 Y131.612 E.02422
G1 X157.156 Y124.388 E.38168
G1 X156.508 Y124.388 E.02422
G1 X163.732 Y131.612 E.38168
G1 X163.084 Y131.612 E.02422
G1 X155.859 Y124.388 E.38168
G1 X155.211 Y124.388 E.02422
G1 X162.436 Y131.612 E.38168
G1 X161.787 Y131.612 E.02422
G1 X154.563 Y124.388 E.38168
G1 X153.914 Y124.388 E.02422
G1 X161.139 Y131.612 E.38168
G1 X160.491 Y131.612 E.02422
G1 X153.266 Y124.388 E.38168
G1 X152.618 Y124.388 E.02422
G1 X159.842 Y131.612 E.38168
G1 X159.194 Y131.612 E.02422
G1 X151.969 Y124.388 E.38168
G1 X151.321 Y124.388 E.02422
G1 X158.546 Y131.612 E.38168
G1 X157.897 Y131.612 E.02422
G1 X150.673 Y124.388 E.38168
G1 X150.024 Y124.388 E.02422
G1 X157.249 Y131.612 E.38168
G1 X156.601 Y131.612 E.02422
G1 X149.376 Y124.388 E.38168
G1 X148.728 Y124.388 E.02422
G1 X155.952 Y131.612 E.38168
G1 X155.304 Y131.612 E.02422
G1 X148.079 Y124.388 E.38168
G1 X147.431 Y124.388 E.02422
G1 X154.656 Y131.612 E.38168
G1 X154.007 Y131.612 E.02422
G1 X146.783 Y124.388 E.38168
G1 X146.134 Y124.388 E.02422
G1 X153.359 Y131.612 E.38168
G1 X152.711 Y131.612 E.02422
G1 X145.486 Y124.388 E.38168
G1 X144.838 Y124.388 E.02422
G1 X152.062 Y131.612 E.38168
G1 X151.414 Y131.612 E.02422
G1 X144.189 Y124.388 E.38168
G1 X143.541 Y124.388 E.02422
G1 X150.766 Y131.612 E.38168
G1 X150.117 Y131.612 E.02422
G1 X142.893 Y124.388 E.38168
G1 X142.244 Y124.388 E.02422
G1 X149.469 Y131.612 E.38168
G1 X148.821 Y131.612 E.02422
G1 X141.596 Y124.388 E.38168
G1 X140.948 Y124.388 E.02422
G1 X148.172 Y131.612 E.38168
G1 X147.524 Y131.612 E.02422
G1 X140.299 Y124.388 E.38168
G1 X139.651 Y124.388 E.02422
G1 X146.876 Y131.612 E.38168
G1 X146.227 Y131.612 E.02422
G1 X139.003 Y124.388 E.38168
G1 X138.354 Y124.388 E.02422
G1 X145.579 Y131.612 E.38168
G1 X144.931 Y131.612 E.02422
G1 X137.706 Y124.388 E.38168
G1 X137.058 Y124.388 E.02422
G1 X144.282 Y131.612 E.38168
G1 X143.634 Y131.612 E.02422
G1 X136.409 Y124.388 E.38168
G1 X135.761 Y124.388 E.02422
G1 X142.986 Y131.612 E.38168
G1 X142.337 Y131.612 E.02422
G1 X135.113 Y124.388 E.38168
G1 X134.464 Y124.388 E.02422
G1 X141.689 Y131.612 E.38168
G1 X141.041 Y131.612 E.02422
G1 X133.816 Y124.388 E.38168
G1 X133.168 Y124.388 E.02422
G1 X140.392 Y131.612 E.38168
G1 X139.744 Y131.612 E.02422
G1 X132.519 Y124.388 E.38168
G1 X131.871 Y124.388 E.02422
G1 X139.096 Y131.612 E.38168
G1 X138.447 Y131.612 E.02422
G1 X131.223 Y124.388 E.38168
G1 X130.574 Y124.388 E.02422
G1 X137.799 Y131.612 E.38168
G1 X137.151 Y131.612 E.02422
G1 X129.926 Y124.388 E.38168
G1 X129.278 Y124.388 E.02422
G1 X136.502 Y131.612 E.38168
G1 X135.854 Y131.612 E.02422
G1 X128.629 Y124.388 E.38168
G1 X127.981 Y124.388 E.02422
G1 X135.206 Y131.612 E.38168
G1 X134.557 Y131.612 E.02422
G1 X127.333 Y124.388 E.38168
G1 X126.684 Y124.388 E.02422
G1 X133.909 Y131.612 E.38168
G1 X133.261 Y131.612 E.02422
G1 X126.036 Y124.388 E.38168
G1 X125.388 Y124.388 E.02422
G1 X132.612 Y131.612 E.38168
G1 X131.964 Y131.612 E.02422
G1 X124.739 Y124.388 E.38168
G1 X124.091 Y124.388 E.02422
G1 X131.316 Y131.612 E.38168
G1 X130.667 Y131.612 E.02422
G1 X123.443 Y124.388 E.38168
G1 X122.794 Y124.388 E.02422
G1 X130.019 Y131.612 E.38168
G1 X129.371 Y131.612 E.02422
G1 X122.146 Y124.388 E.38168
G1 X121.498 Y124.388 E.02422
G1 X128.722 Y131.612 E.38168
G1 X128.074 Y131.612 E.02422
G1 X120.849 Y124.388 E.38168
G1 X120.201 Y124.388 E.02422
G1 X127.426 Y131.612 E.38168
G1 X126.777 Y131.612 E.02422
G1 X119.553 Y124.388 E.38168
G1 X118.904 Y124.388 E.02422
G1 X126.129 Y131.612 E.38168
G1 X125.481 Y131.612 E.02422
G1 X118.256 Y124.388 E.38168
G1 X117.608 Y124.388 E.02422
G1 X124.832 Y131.612 E.38168
G1 X124.184 Y131.612 E.02422
G1 X116.959 Y124.388 E.38168
G1 X116.311 Y124.388 E.02422
G1 X123.536 Y131.612 E.38168
G1 X122.887 Y131.612 E.02422
G1 X115.663 Y124.388 E.38168
G1 X115.014 Y124.388 E.02422
G1 X122.239 Y131.612 E.38168
G1 X121.591 Y131.612 E.02422
G1 X114.366 Y124.388 E.38168
G1 X113.718 Y124.388 E.02422
G1 X120.942 Y131.612 E.38168
G1 X120.294 Y131.612 E.02422
G1 X113.069 Y124.388 E.38168
G1 X112.421 Y124.388 E.02422
G1 X119.646 Y131.612 E.38168
G1 X118.997 Y131.612 E.02422
G1 X111.773 Y124.388 E.38168
G1 X111.124 Y124.388 E.02422
G1 X118.349 Y131.612 E.38168
G1 X117.701 Y131.612 E.02422
G1 X110.476 Y124.388 E.38168
G1 X109.828 Y124.388 E.02422
G1 X117.052 Y131.612 E.38168
G1 X116.404 Y131.612 E.02422
G1 X109.179 Y124.388 E.38168
G1 X108.531 Y124.388 E.02422
G1 X115.756 Y131.612 E.38168
G1 X115.107 Y131.612 E.02422
G1 X107.883 Y124.388 E.38168
G1 X107.234 Y124.388 E.02422
G1 X114.459 Y131.612 E.38168
G1 X113.811 Y131.612 E.02422
G1 X106.586 Y124.388 E.38168
G1 X105.938 Y124.388 E.02422
G1 X113.162 Y131.612 E.38168
G1 X112.514 Y131.612 E.02422
G1 X105.289 Y124.388 E.38168
G1 X104.641 Y124.388 E.02422
G1 X111.866 Y131.612 E.38168
G1 X111.217 Y131.612 E.02422
G1 X103.993 Y124.388 E.38168
G1 X103.345 Y124.388 E.02422
G1 X110.569 Y131.612 E.38168
G1 X109.921 Y131.612 E.02422
G1 X102.696 Y124.388 E.38168
G1 X102.048 Y124.388 E.02422
G1 X109.272 Y131.612 E.38168
G1 X108.624 Y131.612 E.02422
G1 X101.4 Y124.388 E.38168
G1 X100.751 Y124.388 E.02422
G1 X107.976 Y131.612 E.38168
G1 X107.327 Y131.612 E.02422
G1 X100.103 Y124.388 E.38168
G1 X99.455 Y124.388 E.02422
G1 X106.679 Y131.612 E.38168
G1 X106.031 Y131.612 E.02422
G1 X98.806 Y124.388 E.38168
G1 X98.158 Y124.388 E.02422
G1 X105.382 Y131.612 E.38168
G1 X104.734 Y131.612 E.02422
G1 X97.51 Y124.388 E.38168
G1 X96.861 Y124.388 E.02422
G1 X104.086 Y131.612 E.38168
G1 X103.437 Y131.612 E.02422
G1 X96.213 Y124.388 E.38168
G1 X95.565 Y124.388 E.02422
G1 X102.789 Y131.612 E.38168
G1 X102.141 Y131.612 E.02422
G1 X94.916 Y124.388 E.38168
G1 X94.268 Y124.388 E.02422
G1 X101.492 Y131.612 E.38168
G1 X100.844 Y131.612 E.02422
G1 X93.62 Y124.388 E.38168
G1 X92.971 Y124.388 E.02422
G1 X100.196 Y131.612 E.38168
G1 X99.547 Y131.612 E.02422
G1 X92.323 Y124.388 E.38168
G1 X91.675 Y124.388 E.02422
G1 X98.899 Y131.612 E.38168
G1 X98.251 Y131.612 E.02422
G1 X91.026 Y124.388 E.38168
G1 X90.378 Y124.388 E.02422
G1 X97.602 Y131.612 E.38168
G1 X96.954 Y131.612 E.02422
G1 X89.955 Y124.613 E.36975
G1 X89.955 Y125.262 E.02422
G1 X96.306 Y131.612 E.3355
G1 X95.657 Y131.612 E.02422
G1 X89.955 Y125.91 E.30125
G1 X89.955 Y126.558 E.02422
G1 X95.009 Y131.612 E.267
G1 X94.361 Y131.612 E.02422
G1 X89.955 Y127.207 E.23275
G1 X89.955 Y127.855 E.02422
G1 X93.712 Y131.612 E.19849
G1 X93.064 Y131.612 E.02422
G1 X89.955 Y128.503 E.16424
G1 X89.955 Y129.152 E.02422
G1 X92.416 Y131.612 E.12999
G1 X91.767 Y131.612 E.02422
G1 X89.955 Y129.8 E.09574
G1 X89.955 Y130.448 E.02422
G1 X91.119 Y131.612 E.06149
G1 X90.471 Y131.612 E.02422
G1 X89.75 Y130.891 E.0381
M106 S255
;LAYER_CHANGE
;Z:0.4
;HEIGHT:0.2
G92 E0
M971 S11 C10 O0
;WIPE_START
G1 F23040
G1 X90.471 Y131.612 E-.1514
G1 X91.119 Y131.612 E-.09624
G1 X89.955 Y130.448 E-.24432
G1 X89.955 Y129.8 E-.09624
G1 X91.767 Y131.612 E-.38042
G1 X92.416 Y131.612 E-.09624
G1 X89.955 Y129.152 E-.51652
G1 X89.955 Y128.503 E-.09624
G1 X91.015 Y129.563 E-.22239
;WIPE_END
G1 E-.1 F3600
G1 Z.6 F28800
G1 X89.487 Y123.92
G1 Z.4
G1 E2 F1800
;TYPE:Perimeter
;WIDTH:0.449999
G1 F8843.491
G1 X168.513 Y123.92 E2.6214
G1 X168.513 Y132.08 E.27069
G1 X89.487 Y132.08 E2.6214
G1 X89.487 Y123.98 E.2687
G1 X89.105 Y123.538 F28800
;TYPE:External perimeter
;WIDTH:0.399999
G1 F10081.802
G1 X168.895 Y123.538 E2.32166
G1 X168.895 Y132.462 E.25967
G1 X89.105 Y132.462 E2.32166
G1 X89.105 Y123.598 E.25793
G1 X89.505 Y123.553 F28800
;WIPE_START
G1 F23040
G1 X101.905 Y123.588 E-1.9
;WIPE_END
G1 E-.1 F3600
G1 Z.8 F28800
G1 X167.563 Y131.958
G1 Z.4
G1 E2 F1800
;TYPE:Solid infill
;WIDTH:0.451996
G1 F8800.321
G1 X168.207 Y131.314 E.03036
G1 X168.207 Y130.735 E.01928
G1 X167.168 Y131.775 E.04899
G1 X166.589 Y131.775 E.01928
G1 X168.207 Y130.157 E.07627
G1 X168.207 Y129.578 E.01928
G1 X166.011 Y131.775 E.10354
G1 X165.432 Y131.775 E.01928
G1 X168.207 Y129 E.13081
G1 X168.207 Y128.421 E.01928
G1 X164.854 Y131.775 E.15809
G1 X164.275 Y131.775 E.01928
G1 X168.207 Y127.843 E.18536
G1 X168.207 Y127.264 E.01928
G1 X163.697 Y131.775 E.21263
G1 X163.118 Y131.775 E.01928
G1 X168.207 Y126.686 E.2399
